luts/color4.cube
TITLE "Generated by Resolve"
LUT_3D_SIZE 5
0.00782788 0 0
0.146456 0 0
0.464851 0 0
0.68069 0 0
0.799008 0 0
0.0163424 0.110842 0
0.167742 0.11809 0
0.515175 0.0917678 0
0.777874 0.114366 0
0.952651 0.181979 0.0612345
0 0.394293 0
0.19881 0.456718 0.028397
0.584649 0.468803 0.0404974
0.867369 0.511421 0.0831159
1 0.58056 0.152255
0.0898909 0.791562 0.0636301
0.2925 0.850034 0.122103
0.662425 0.846189 0.118257
0.910689 0.854353 0.126421
1 0.877165 0.149233
0.248524 1 0.222248
0.403357 1 0.232959
0.730129 1 0.185977
0.94638 1 0.162112
1 1 0.163851
0.00987259 0 0.0764782
0.148302 0 0.0707713
0.467079 0 0.0157931
0.684825 0 0
0.806821 0 0.00827039
0.0215457 0.11603 0.0881514
0.177462 0.12781 0.0999313
0.531334 0.107927 0.0800488
0.800992 0.137484 0.10959
0.978332 0.20766 0.179782
0.0168765 0.418921 0.0834821
0.224186 0.482094 0.146654
0.609766 0.493919 0.15848
0.892851 0.536889 0.201465
1 0.603464 0.26804
0.114778 0.816449 0.181384
0.313756 0.871275 0.23621
0.677897 0.861677 0.226612
0.921187 0.864851 0.229786
1 0.883711 0.248646
0.25745 1 0.324056
0.408835 1 0.331289
0.733486 1 0.2822
0.948516 1 0.257115
1 1 0.258534
0.00225834 0 0.3075
0.140078 0 0.301167
0.459754 0 0.247105
0.679896 0 0.227131
0.806378 0 0.246448
0.0179446 0.112428 0.323171
0.179141 0.129488 0.34023
0.540063 0.116655 0.327398
0.815503 0.151995 0.362753
0.993729 0.223056 0.433799
0.0322881 0.434333 0.337514
0.238682 0.49659 0.399771
0.625315 0.509468 0.412665
0.907759 0.551797 0.454994
1 0.614816 0.517998
0.128725 0.830396 0.433951
0.323064 0.880598 0.484169
0.681544 0.865324 0.468879
0.920195 0.863859 0.46743
1 0.87921 0.48278
0.255024 1 0.56025
0.403449 1 0.564538
0.726299 1 0.513634
0.940398 1 0.487633
1 1 0.489021
0 0 0.612558
0.126482 0 0.606149
0.447578 0 0.553491
0.670695 0 0.536492
0.802411 0 0.561044
0.0104372 0.104921 0.634226
0.177523 0.127871 0.657176
0.545785 0.122377 0.651682
0.825376 0.161868 0.691173
1 0.232136 0.76144
0.0424353 0.44448 0.666224
0.247547 0.50544 0.727199
0.635477 0.519615 0.741375
0.916274 0.560327 0.782071
1 0.618784 0.840543
0.135927 0.837598 0.759716
0.324834 0.882368 0.804501
0.677989 0.861769 0.783902
0.912352 0.856016 0.778149
1 0.868391 0.790509
0.245884 1 0.869688
0.391852 1 0.871504
0.713191 1 0.819089
0.92668 0.986969 0.792477
1 0.988632 0.794141
0 0 0.763317
0.12459 0 0.757305
0.447623 0 0.706569
0.674464 0 0.693309
0.812009 0 0.723705
0.0161135 0.110613 0.792966
0.18967 0.140032 0.822385
0.564858 0.141451 0.823819
0.846922 0.183398 0.865766
1 0.252323 0.934676
0.0636454 0.46569 0.840482
0.268559 0.526467 0.901274
0.656794 0.540948 0.915755
0.934966 0.579019 0.953826
1 0.63209 1
0.152941 0.854612 0.929793
0.33608 0.893614 0.96878
0.68426 0.86804 0.943221
0.914687 0.858351 0.933532
1 0.868223 0.943404
0.247166 1 1
0.391028 1 1
0.711162 1 0.970123
0.924346 0.984634 0.943191
1 0.986877 0.945449
