luts/color4.cube
TITLE "Generated by Resolve"
LUT_3D_SIZE 9
0.00782788 0 0
0.0624399 0 0
0.146456 0 0
0.299275 0 0
0.464851 0 0
0.600244 0 0
0.68069 0 0
0.738964 0 0
0.799008 0 0
0.0148623 0.047364 0
0.0691844 0.0483711 0
0.153857 0.042237 0
0.309209 0.0187533 0
0.479194 0 0
0.621012 0 0
0.710323 0 0
0.77998 0.000534066 0
0.853986 0.0213321 0
0.0163424 0.110842 0
0.075761 0.11693 0
0.167742 0.11809 0
0.33286 0.104387 0
0.515175 0.0917678 0
0.671809 0.092668 0
0.777874 0.114366 0
0.864302 0.146838 0.0260929
0.952651 0.181979 0.0612345
0 0.21915 0
0.0697337 0.238529 0
0.17734 0.255314 0.00694286
0.359503 0.25864 0.0102693
0.557992 0.262211 0.0138399
0.727489 0.275959 0.0275883
0.840833 0.304952 0.0565805
0.928664 0.338811 0.0904555
1 0.373556 0.1252
0 0.394293 0
0.0801862 0.428901 0.000595102
0.19881 0.456718 0.028397
0.386038 0.46511 0.0368048
0.584649 0.468803 0.0404974
0.75378 0.482185 0.0538796
0.867369 0.511421 0.0831159
0.956588 0.54667 0.118364
1 0.58056 0.152255
0.0207065 0.600458 0
0.108278 0.634714 0.028687
0.226673 0.662287 0.0562753
0.414557 0.671351 0.0653239
0.614267 0.676127 0.0701152
0.781231 0.687343 0.0813306
0.889036 0.710781 0.104768
0.968856 0.736645 0.130632
1 0.758358 0.152346
0.0898909 0.791562 0.0636301
0.1776 0.82594 0.0980087
0.2925 0.850034 0.122103
0.473274 0.851972 0.124041
0.662425 0.846189 0.118257
0.816541 0.844572 0.11664
0.910689 0.854353 0.126421
0.977493 0.867201 0.139269
1 0.877165 0.149233
0.183825 0.953506 0.157549
0.259953 0.976318 0.180362
0.361563 0.987106 0.19115
0.528756 0.975479 0.179522
0.705333 0.957137 0.161181
0.848173 0.944228 0.148272
0.932433 0.944121 0.148165
0.990967 0.948699 0.152743
1 0.951965 0.156008
0.248524 1 0.222248
0.312566 1 0.232975
0.403357 1 0.232959
0.561242 1 0.212024
0.730129 1 0.185977
0.86685 1 0.166949
0.94638 1 0.162112
1 1 0.163073
1 1 0.163851
0.00895705 0 0.0273899
0.0637217 0 0.0288243
0.147524 0 0.0218051
0.300298 0 0
0.466041 0 0
0.601785 0 0
0.682765 0 0
0.741756 0 0
0.802823 0 0
0.0159152 0.0484321 0.0343481
0.0704662 0.0496529 0.0355688
0.155566 0.043946 0.0298619
0.311513 0.0210727 0.00698863
0.482307 0 0
0.625284 0 0
0.715969 0 0
0.787228 0.0077821 0
0.86305 0.0304112 0.0163272
0.0189212 0.11342 0.0373541
0.0792554 0.120424 0.044358
0.172488 0.122835 0.0467689
0.339055 0.110582 0.0345312
0.523064 0.0996567 0.0235904
0.681605 0.102464 0.0264134
0.789334 0.125826 0.0497597
0.876829 0.159365 0.083299
0.965606 0.194934 0.118883
0.00384527 0.225956 0.0222782
0.078294 0.247074 0.0433967
0.187823 0.265782 0.0621042
0.371435 0.270573 0.0668956
0.570748 0.274952 0.0712749
0.740444 0.288914 0.0852369
0.853391 0.317494 0.113817
0.94107 0.351217 0.147539
1 0.386419 0.182742
0.00454719 0.406592 0.0229648
0.09308 0.44181 0.0581826
0.211688 0.469596 0.0859693
0.398291 0.477378 0.0937514
0.597253 0.481407 0.0977951
0.766705 0.495125 0.111513
0.880278 0.524315 0.140703
0.969085 0.559182 0.17557
1 0.592309 0.208698
0.0329137 0.612665 0.0513313
0.12105 0.647486 0.0861524
0.239643 0.675258 0.113924
0.427359 0.684153 0.12282
0.626551 0.688411 0.127077
0.792599 0.698726 0.137392
0.899138 0.720897 0.159564
0.977462 0.745266 0.183932
1 0.765591 0.204257
0.102556 0.804211 0.120974
0.189593 0.837934 0.154696
0.303456 0.86099 0.177752
0.482841 0.86154 0.178302
0.670512 0.854292 0.171038
0.823301 0.851331 0.168093
0.916243 0.859907 0.176669
0.981979 0.871687 0.188449
1 0.880705 0.197467
0.192828 0.962524 0.211246
0.267552 0.983917 0.232654
0.367864 0.993408 0.242145
0.533898 0.980621 0.229358
0.709453 0.961257 0.209979
0.851392 0.947463 0.196185
0.934997 0.9467 0.195422
0.992996 0.950729 0.199466
1 0.953582 0.202319
0.253285 1 0.271702
0.31635 1 0.281453
0.406317 1 0.280613
0.563607 1 0.259068
0.732006 1 0.232532
0.86833 1 0.213123
0.947601 1 0.208026
1 1 0.208835
1 1 0.209567
0.00987259 0 0.0764782
0.0646525 0 0.0779431
0.148302 0 0.0707713
0.301122 0 0.04477
0.467079 0 0.0157931
0.603235 0 0
0.684825 0 0
0.74461 0 0
0.806821 0 0.00827039
0.0168002 0.0493019 0.0834058
0.0716411 0.0508278 0.0849165
0.157214 0.045594 0.0796826
0.313832 0.0233921 0.0574807
0.485527 0.00015259 0.0342412
0.629755 0 0.0227207
0.721904 0 0.0305028
0.794842 0.0153964 0.049485
0.872572 0.0399176 0.0740215
0.0215457 0.11603 0.0881514
0.0829175 0.124071 0.0961929
0.177462 0.12781 0.0999313
0.345571 0.117098 0.0892195
0.531334 0.107927 0.0800488
0.691814 0.112673 0.0847791
0.800992 0.137484 0.10959
0.889326 0.171862 0.143984
0.978332 0.20766 0.179782
0.0109712 0.233082 0.0775769
0.0872663 0.256046 0.100542
0.198611 0.276585 0.12108
0.383459 0.282597 0.127108
0.583398 0.287617 0.132113
0.753094 0.301579 0.146075
0.865431 0.329534 0.174044
0.953414 0.363561 0.208072
1 0.399115 0.243626
0.0168765 0.418921 0.0834821
0.105806 0.454536 0.119097
0.224186 0.482094 0.146654
0.410239 0.489311 0.153872
0.609766 0.493919 0.15848
0.779446 0.507851 0.172427
0.892851 0.536889 0.201465
0.98114 0.571221 0.235798
1 0.603464 0.26804
0.0451057 0.624857 0.111711
0.133684 0.660121 0.146975
0.252354 0.687968 0.174823
0.439796 0.696574 0.183429
0.638315 0.700175 0.18703
0.803357 0.709484 0.196323
0.908507 0.730266 0.217121
0.985351 0.753155 0.240009
1 0.772137 0.258991
0.114778 0.816449 0.181384
0.201022 0.849378 0.214313
0.313756 0.871275 0.23621
0.491646 0.870344 0.235294
0.677897 0.861677 0.226612
0.829389 0.857435 0.22237
0.921187 0.864851 0.229786
0.985885 0.875593 0.240528
1 0.883711 0.248646
0.201099 0.970794 0.267704
0.274449 0.990814 0.287739
0.373526 0.999084 0.295995
0.538445 0.985168 0.282094
0.713024 0.964813 0.261723
0.854139 0.950195 0.247105
0.937133 0.948821 0.245747
0.994629 0.952361 0.249287
1 0.954833 0.251743
0.25745 1 0.324056
0.319585 1 0.33286
0.408835 1 0.331289
0.565545 1 0.309194
0.733486 1 0.2822
0.869474 1 0.26244
0.948516 1 0.257115
1 1 0.257801
1 1 0.258534
0.00846876 0 0.160464
0.0629587 0 0.161639
0.146517 0 0.154376
0.299428 0 0.128466
0.46569 0 0.099794
0.602319 0 0.0806897
0.684565 0 0.0785687
0.745251 0 0.0852979
0.808698 0 0.0955367
0.015198 0.0476997 0.167193
0.0703899 0.0495766 0.16907
0.156512 0.044892 0.16437
0.313863 0.0234226 0.142901
0.486595 0.00122072 0.120699
0.632136 0 0.110506
0.725811 0.000320439 0.119814
0.800504 0.0210575 0.140551
0.880156 0.0475013 0.166995
0.0218814 0.116381 0.173892
0.0844282 0.125597 0.183108
0.180377 0.130724 0.188235
0.350103 0.12163 0.179141
0.537682 0.11429 0.171801
0.700008 0.120867 0.178378
0.810437 0.146929 0.20444
0.899413 0.181949 0.23946
0.988434 0.217762 0.275273
0.016144 0.238254 0.168139
0.0943465 0.263127 0.193011
0.20734 0.285313 0.215198
0.39321 0.292363 0.222248
0.593561 0.29778 0.227665
0.763043 0.311528 0.241413
0.8748 0.338903 0.268803
0.963363 0.37351 0.30341
1 0.409293 0.339178
0.0268406 0.428885 0.178836
0.115953 0.464683 0.214633
0.233906 0.491814 0.241764
0.419852 0.498939 0.24889
0.619852 0.50399 0.253956
0.789593 0.518013 0.267964
0.902724 0.546761 0.296727
0.990372 0.580453 0.330419
1 0.611688 0.361654
0.0549325 0.634699 0.206928
0.143832 0.670268 0.242512
0.262455 0.69807 0.270314
0.44947 0.706264 0.278508
0.647227 0.709087 0.281331
0.811109 0.717235 0.289479
0.914794 0.736538 0.308782
0.990219 0.758007 0.330251
1 0.775708 0.347951
0.124224 0.825895 0.276219
0.209567 0.857908 0.308232
0.321004 0.878523 0.328862
0.497398 0.876097 0.326421
0.682277 0.866056 0.316381
0.832517 0.860563 0.310887
0.923201 0.866865 0.317189
0.986908 0.876616 0.32694
1 0.883894 0.334234
0.206332 0.976028 0.358328
0.278355 0.99472 0.377035
0.376226 1 0.384085
0.540078 0.986816 0.369116
0.71371 0.965515 0.347814
0.854093 0.950164 0.332464
0.936522 0.948211 0.330526
0.993561 0.951308 0.333608
1 0.953429 0.335729
0.258732 1 0.410727
0.319966 1 0.418647
0.408576 1 0.416434
0.564752 1 0.39379
0.73228 1 0.366384
0.867964 1 0.346334
0.946807 1 0.34081
1 1 0.341421
1 1 0.342168
0.00225834 0 0.3075
0.0565499 0 0.308461
0.140078 0 0.301167
0.293156 0 0.275425
0.459754 0 0.247105
0.596933 0 0.228534
0.679896 0 0.227131
0.741619 0 0.234897
0.806378 0 0.246448
0.00901808 0.0415351 0.31426
0.0646372 0.0438239 0.316548
0.151369 0.0397498 0.312474
0.309529 0.0190738 0.291798
0.483421 0 0.270756
0.63035 0 0.261952
0.725628 0.000137331 0.272862
0.802152 0.0227054 0.29543
0.88365 0.0509957 0.32372
0.0179446 0.112428 0.323171
0.0817273 0.122896 0.333639
0.179141 0.129488 0.34023
0.350561 0.122087 0.33283
0.540063 0.116655 0.327398
0.704036 0.124895 0.335637
0.815503 0.151995 0.362753
0.904891 0.187427 0.398184
0.993729 0.223056 0.433799
0.0172732 0.239368 0.322499
0.0973831 0.266178 0.349294
0.211826 0.289784 0.372915
0.398505 0.297642 0.380774
0.599054 0.303258 0.386389
0.768124 0.316594 0.399725
0.879744 0.343847 0.426978
0.968765 0.378912 0.462043
1 0.414771 0.497902
0.0322881 0.434333 0.337514
0.12137 0.4701 0.373281
0.238682 0.49659 0.399771
0.42501 0.504082 0.407279
0.625315 0.509468 0.412665
0.795041 0.523445 0.426642
0.907759 0.551797 0.454994
0.994629 0.584726 0.487922
1 0.614816 0.517998
0.0602426 0.639994 0.365469
0.14934 0.675761 0.401236
0.267781 0.703395 0.428885
0.454261 0.711055 0.43653
0.651102 0.712963 0.438453
0.813733 0.71986 0.445335
0.915908 0.737652 0.463142
0.989944 0.757748 0.483238
1 0.774197 0.499687
0.128725 0.830396 0.433951
0.213031 0.861372 0.464942
0.323064 0.880598 0.484169
0.497993 0.876692 0.480262
0.681544 0.865324 0.468879
0.830579 0.858625 0.462196
0.920195 0.863859 0.46743
0.982956 0.872663 0.476234
1 0.87921 0.48278
0.206439 0.97612 0.511666
0.277165 0.993545 0.529076
0.373892 0.999451 0.534981
0.536721 0.983444 0.51899
0.709453 0.961257 0.496788
0.84918 0.945251 0.480781
0.931075 0.942779 0.478309
0.987701 0.945434 0.48098
1 0.94725 0.482795
0.255024 1 0.56025
0.31545 1 0.567361
0.403449 1 0.564538
0.559152 1 0.541421
0.726299 1 0.513634
0.861708 1 0.493309
0.940398 1 0.487633
0.994919 1 0.488197
1 1 0.489021
0 0 0.466743
0.0491951 0 0.467552
0.132769 0 0.460304
0.286061 0 0.434791
0.453086 0 0.406882
0.59086 0 0.388922
0.674632 0 0.388312
0.737499 0 0.397223
0.803632 0 0.410163
0.00205997 0.0345769 0.473747
0.0581674 0.0373541 0.476524
0.145571 0.0339361 0.473121
0.304646 0.0141909 0.453361
0.479774 0 0.43357
0.628168 0 0.426215
0.725139 0 0.438819
0.803555 0.0241093 0.463294
0.886732 0.0540932 0.493263
0.0134737 0.107973 0.485161
0.0785992 0.119768 0.496956
0.177554 0.127901 0.505104
0.350729 0.122255 0.499458
0.542153 0.118746 0.495949
0.707561 0.12842 0.505623
0.819883 0.156359 0.533562
0.909483 0.19202 0.569223
0.997909 0.227237 0.60444
0.0181277 0.240238 0.489815
0.100069 0.268864 0.518441
0.215732 0.29369 0.543282
0.403021 0.302159 0.551751
0.603555 0.307774 0.557351
0.772 0.32047 0.570062
0.883955 0.348058 0.59765
0.973327 0.383474 0.633051
1 0.419303 0.668894
0.0368658 0.438911 0.508553
0.125719 0.474449 0.544091
0.242496 0.500404 0.570047
0.429389 0.508476 0.578119
0.629908 0.514061 0.583703
0.799466 0.527886 0.597528
0.91165 0.555703 0.625345
0.997635 0.587732 0.657374
1 0.616556 0.686213
0.064744 0.644511 0.536431
0.153903 0.680339 0.572274
0.272053 0.707683 0.599603
0.457877 0.714672 0.606607
0.653696 0.715557 0.607492
0.814923 0.72105 0.612985
0.915633 0.737392 0.629313
0.988342 0.756146 0.648066
1 0.771389 0.66331
0.132006 0.833677 0.603693
0.215152 0.863508 0.633524
0.32372 0.881239 0.651255
0.497215 0.875914 0.64593
0.679484 0.863249 0.63328
0.827359 0.855406 0.625422
0.915938 0.859602 0.629633
0.977798 0.867521 0.637537
1 0.873396 0.643427
0.205173 0.974868 0.67686
0.274678 0.991043 0.693034
0.370275 0.995834 0.697826
0.532128 0.978851 0.680842
0.704036 0.95584 0.657832
0.843168 0.939223 0.64123
0.924575 0.936263 0.638254
0.980819 0.938552 0.640543
1 0.940093 0.642084
0.250111 1 0.721782
0.309804 1 0.728176
0.397238 1 0.724788
0.552483 1 0.701213
0.719295 1 0.673091
0.854475 0.99913 0.652537
0.933043 0.993347 0.646738
0.987564 0.993896 0.647303
1 0.994827 0.648234
0 0 0.612558
0.0428168 0 0.613291
0.126482 0 0.606149
0.280079 0 0.580911
0.447578 0 0.553491
0.586023 0 0.536187
0.670695 0 0.536492
0.734813 0 0.546654
0.802411 0 0.561044
0 0.028748 0.62002
0.0528878 0.0320745 0.623362
0.141024 0.0293889 0.620676
0.301137 0.0106813 0.601968
0.477592 0 0.58349
0.627512 0 0.577691
0.726238 0.000762951 0.592035
0.806592 0.0271458 0.618433
0.891234 0.0585794 0.649866
0.0104372 0.104921 0.634226
0.0769513 0.11812 0.647425
0.177523 0.127871 0.657176
0.352529 0.124056 0.653361
0.545785 0.122377 0.651682
0.712444 0.133303 0.662608
0.825376 0.161868 0.691173
0.914977 0.197513 0.726818
1 0.232136 0.76144
0.0206607 0.242771 0.644465
0.104234 0.273014 0.674708
0.220905 0.298878 0.700557
0.408591 0.307744 0.709438
0.608911 0.313115 0.714809
0.776791 0.325277 0.726955
0.889326 0.353429 0.755123
0.978897 0.389044 0.790738
1 0.424735 0.826413
0.0424353 0.44448 0.666224
0.130846 0.479561 0.70132
0.247547 0.50544 0.727199
0.434882 0.513954 0.735714
0.635477 0.519615 0.741375
0.804746 0.53315 0.75491
0.916274 0.560327 0.782071
1 0.591333 0.813092
1 0.618784 0.840543
0.0702983 0.65005 0.694102
0.159411 0.685847 0.729885
0.27715 0.712764 0.756802
0.462181 0.718975 0.763012
0.65684 0.7187 0.762753
0.816587 0.722713 0.766751
0.915877 0.737621 0.781674
0.987289 0.755093 0.79913
1 0.769177 0.813214
0.135927 0.837598 0.759716
0.217792 0.866133 0.788251
0.324834 0.882368 0.804501
0.496971 0.875685 0.797803
0.677989 0.861769 0.783902
0.824765 0.852811 0.774929
0.912352 0.856016 0.778149
0.973388 0.863111 0.785229
1 0.868391 0.790509
0.204471 0.974166 0.82826
0.27277 0.989136 0.843244
0.367315 0.992859 0.846967
0.528206 0.974945 0.829038
0.699397 0.951202 0.80531
0.837964 0.93402 0.788128
0.918914 0.930602 0.784695
0.974807 0.93254 0.786648
1 0.933852 0.787961
0.245884 1 0.869688
0.304952 1 0.875425
0.391852 1 0.871504
0.546685 1 0.847517
0.713191 1 0.819089
0.848188 0.992844 0.798352
0.92668 0.986969 0.792477
0.981231 0.987564 0.793072
1 0.988632 0.794141
0 0 0.706096
0.0403143 0 0.706798
0.124147 0 0.699809
0.278111 0 0.674937
0.446143 0 0.648051
0.585321 0 0.631495
0.671031 0 0.632837
0.736461 0 0.644297
0.805585 0 0.660227
0 0.0269322 0.714229
0.0516823 0.0308843 0.718166
0.140642 0.0290074 0.716304
0.301915 0.0114748 0.698756
0.479774 0 0.681682
0.631296 0 0.67747
0.731853 0.00636301 0.69366
0.814054 0.0346075 0.721904
0.899947 0.0672923 0.754589
0.0116884 0.106188 0.731487
0.0796826 0.120851 0.746166
0.181949 0.132296 0.75761
0.358877 0.130404 0.755718
0.55378 0.130373 0.755688
0.721462 0.142321 0.767636
0.834806 0.171298 0.796597
0.924208 0.206744 0.832059
1 0.240772 0.866087
0.0276799 0.24979 0.747478
0.112673 0.281453 0.779156
0.230137 0.30811 0.805798
0.418021 0.317159 0.814862
0.617899 0.322118 0.819821
0.785687 0.334157 0.831861
0.898665 0.362768 0.860456
0.988327 0.398474 0.896162
1 0.433875 0.931579
0.0517739 0.453819 0.771572
0.139528 0.488258 0.806012
0.256626 0.514534 0.832288
0.444282 0.523369 0.841123
0.644846 0.529 0.846754
0.813703 0.542107 0.859876
0.924468 0.568505 0.886259
1 0.598367 0.916121
1 0.624338 0.942107
0.0797436 0.659495 0.799542
0.168673 0.695109 0.835142
0.285863 0.721477 0.861524
0.469978 0.726772 0.866819
0.663371 0.725231 0.865278
0.821622 0.727749 0.867796
0.919524 0.741283 0.881331
0.9897 0.757504 0.897536
1 0.770459 0.910506
0.143313 0.844984 0.863111
0.223758 0.872114 0.890242
0.329351 0.886885 0.905013
0.50016 0.878859 0.897002
0.679973 0.863752 0.88188
0.825681 0.853712 0.871855
0.912322 0.856001 0.874128
0.972625 0.862348 0.880476
1 0.867048 0.885176
0.207202 0.976898 0.927001
0.274342 0.990723 0.940826
0.367864 0.993423 0.943526
0.527871 0.974609 0.924712
0.698405 0.95021 0.900313
0.836439 0.932509 0.882612
0.916976 0.928664 0.878782
0.972564 0.930312 0.880415
1 0.931426 0.881529
0.245289 1 0.965087
0.303746 1 0.97023
0.390173 1 0.965835
0.544625 1 0.941466
0.710872 1 0.912779
0.845701 0.990372 0.891875
0.924163 0.984451 0.885969
0.97879 0.985122 0.886625
1 0.986374 0.887892
0 0 0.763317
0.040528 0 0.764065
0.12459 0 0.757305
0.278965 0 0.73286
0.447623 0 0.706569
0.587594 0 0.690822
0.674464 0 0.693309
0.741268 0 0.706172
0.812009 0 0.723705
0 0.0280003 0.772335
0.0534218 0.0326238 0.776959
0.143297 0.0316777 0.776013
0.305837 0.0153811 0.759716
0.485145 0 0.744106
0.638361 0 0.741588
0.740841 0.0153506 0.759686
0.824689 0.045243 0.789578
0.91162 0.0789807 0.823316
0.0161135 0.110613 0.792966
0.0856489 0.126818 0.809186
0.18967 0.140032 0.822385
0.368521 0.140063 0.822416
0.564858 0.141451 0.823819
0.733364 0.154223 0.836591
0.846922 0.183398 0.865766
0.935912 0.218448 0.900801
1 0.252323 0.934676
0.0379187 0.260029 0.814771
0.124132 0.292912 0.847654
0.242191 0.320165 0.874907
0.430045 0.329198 0.88394
0.629297 0.333501 0.888258
0.797436 0.345922 0.900664
0.91075 0.374853 0.92961
1 0.410529 0.96527
1 0.445533 1
0.0636454 0.46569 0.840482
0.150896 0.499611 0.874418
0.268559 0.526467 0.901274
0.456413 0.535485 0.910292
0.656794 0.540948 0.915755
0.825101 0.553521 0.928328
0.934966 0.579019 0.953826
1 0.607614 0.982422
1 0.63209 1
0.0918441 0.671595 0.868696
0.180468 0.706905 0.90399
0.296986 0.732601 0.929702
0.480079 0.736873 0.933959
0.672068 0.733928 0.931029
0.828855 0.734966 0.932067
0.925414 0.747173 0.944274
0.994385 0.762188 0.959289
1 0.774075 0.971176
0.152941 0.854612 0.929793
0.231907 0.880247 0.955428
0.33608 0.893614 0.96878
0.505592 0.884306 0.959487
0.68426 0.86804 0.943221
0.828931 0.856977 0.932158
0.914687 0.858351 0.933532
0.974334 0.864042 0.939223
1 0.868223 0.943404
0.212207 0.981903 0.989059
0.278248 0.994614 1
0.370779 0.996338 1
0.529976 0.976715 0.983871
0.699916 0.95172 0.958877
0.837446 0.933516 0.940673
0.917601 0.929305 0.936461
0.97293 0.930663 0.937819
1 0.93164 0.938796
0.247166 1 1
0.305058 1 1
0.391028 1 1
0.545144 1 0.999039
0.711162 1 0.970123
0.845884 0.990555 0.949111
0.924346 0.984634 0.943191
0.979065 0.985412 0.943969
1 0.986877 0.945449
