luts/color5.cube
TITLE "Generated by Resolve"
LUT_3D_SIZE 33
0 0.00254826 0.0419623
0 0.00236515 0.0417945
0 0.00218204 0.0415961
0.0019379 0.00239567 0.0418097
0.0163424 0.00259403 0.0420233
0.0310521 0.00263981 0.0420539
0.0457923 0.00260929 0.0420233
0.061265 0.00231937 0.0417334
0.0783398 0.00155642 0.0409705
0.0979477 7.62951e-05 0.0394903
0.12137 0 0.0369573
0.150088 0 0.03299
0.185351 0 0.0272526
0.228244 0 0.0194553
0.277317 0 0.0100252
0.329351 0 0
0.381003 0 0
0.432044 0 0
0.484825 0 0
0.537362 0 0
0.587594 0 0
0.633433 0 0
0.673289 0 0
0.707546 0 0
0.736934 0 0
0.762188 0 0
0.784298 0 0
0.804211 0 0
0.822599 0 0
0.840085 0 0
0.857328 0 0
0.875029 0 0
0.893904 0 0
0 0.0172274 0.0420691
0 0.0171817 0.0420081
0 0.0171359 0.0419623
0.00210575 0.0171511 0.0419776
0.0163424 0.0171817 0.0420233
0.0309148 0.0170901 0.0419165
0.0455329 0.0169375 0.0417639
0.0609293 0.0165713 0.0413977
0.0779583 0.0157473 0.0405737
0.0975357 0.0142519 0.0390784
0.120958 0.0117189 0.0365454
0.149722 0.0077821 0.0326085
0.185046 0.00210575 0.0269322
0.228016 0 0.0192416
0.277226 0 0.00991836
0.329412 0 0
0.381247 0 0
0.432502 0 0
0.485512 0 0
0.538323 0 0
0.588861 0 0
0.635019 0 0
0.675227 0 0
0.709865 0 0
0.739681 0 0
0.765377 0 0
0.787961 0 0
0.808377 0 0
0.827314 0 0
0.845426 0 0
0.863355 0 0
0.881788 0 0
0.901442 0 0
0 0.0317998 0.0424811
0 0.0316014 0.0422675
0 0.0314183 0.0420996
0.00213626 0.031342 0.0420081
0.0162814 0.0312963 0.0419776
0.0308232 0.0311437 0.041825
0.0454261 0.0309911 0.0416724
0.0608377 0.0306401 0.0413214
0.0779126 0.0298619 0.0405432
0.0975662 0.0284428 0.0391089
0.121096 0.0260166 0.0366979
0.149996 0.0222019 0.0328832
0.185473 0.0166934 0.0273747
0.228641 0.00918593 0.0198672
0.278065 9.15541e-05 0.0107729
0.33051 0 0.000976577
0.38262 0 0
0.43418 0 0
0.487541 0 0
0.540719 0 0
0.591653 0 0
0.638224 0 0
0.678889 0 0
0.714031 0 0
0.74435 0 0
0.770642 0 0
0.793866 0 0
0.814984 0 0
0.834684 0 0
0.853574 0 0
0.872328 0 0
0.891615 0 0
0.912154 0 0
0 0.0458991 0.0426184
0 0.0456245 0.042359
0 0.0454261 0.0421454
0.00218204 0.0453346 0.0420539
0.0163577 0.0453193 0.0420386
0.0309606 0.0452277 0.0419471
0.045655 0.0451667 0.041886
0.0611734 0.0449226 0.0416419
0.0783856 0.0442969 0.0410163
0.0982223 0.0430304 0.039765
0.12195 0.0408179 0.0375372
0.15108 0.0372473 0.0339666
0.186816 0.0319829 0.0287175
0.230289 0.0247807 0.0215
0.280018 0.0160067 0.012726
0.332815 0.00654612 0.00328069
0.385306 0 0
0.437263 0 0
0.491066 0 0
0.544701 0 0
0.596124 0 0
0.643259 0 0
0.68452 0 0
0.720317 0 0
0.751385 0 0
0.778424 0 0
0.802441 0 0
0.824414 0 0
0.844968 0 0
0.864759 0 0
0.884459 0 0
0.904723 0 0
0.926268 0 0
0 0.06009 0.0421912
0 0.0598611 0.0419623
0 0.0597238 0.041825
0.00195315 0.0597238 0.041825
0.0162661 0.0598459 0.0419471
0.0310063 0.0599069 0.0420081
0.0458839 0.0600137 0.0421302
0.0616312 0.0599985 0.0420996
0.0790875 0.0596017 0.0417182
0.0991836 0.0586252 0.0407263
0.123217 0.0567025 0.0388037
0.152667 0.0534524 0.0355688
0.188785 0.0485695 0.0306706
0.232624 0.0417487 0.0238499
0.282795 0.0333867 0.0154879
0.336034 0.0243839 0.00648508
0.388998 0.0156405 0
0.441474 0.00724804 0
0.495827 0 0
0.550103 0 0
0.602213 0 0
0.65008 0 0
0.692119 0 0
0.72874 0 0
0.760632 0 0
0.788571 0 0
0.813504 0 0
0.836423 0 0
0.857954 0 0
0.878782 0 0
0.899535 0 0
0.920882 0 0
0.943557 0 0
0 0.0749828 0.0409094
0 0.074876 0.0408026
0 0.0749065 0.0408331
0.00115969 0.0751049 0.0410315
0.0156863 0.0754406 0.0413672
0.0306859 0.075761 0.0416876
0.0458534 0.0761578 0.0420844
0.0619059 0.0764477 0.0423743
0.0796979 0.0764019 0.0423285
0.100175 0.0757763 0.0417029
0.12459 0.0742657 0.0401923
0.154482 0.0714427 0.0373693
0.191043 0.0670176 0.0329442
0.235386 0.0606699 0.0265965
0.286076 0.052842 0.0187686
0.339895 0.0444343 0.0103609
0.393515 0.036347 0.00227359
0.446693 0.0286564 0
0.501808 0.0207523 0
0.556878 0.0131685 0
0.609812 0.00650034 0
0.658534 0.00129702 0
0.701473 0 0
0.739025 0 0
0.771893 0 0
0.800809 0 0
0.82678 0.00120546 0
0.850767 0.00500496 0
0.873411 0.00959792 0
0.895354 0.0148165 0
0.917281 0.0205081 0
0.939849 0.0265049 0
0.96376 0.0325933 0
0 0.0911269 0.0384222
0 0.0912642 0.0385595
0 0.0915541 0.0388495
0 0.0920577 0.039353
0.0143282 0.0927138 0.0400092
0.0296788 0.0933852 0.0406806
0.0452125 0.0941634 0.0414588
0.061677 0.0948501 0.0421454
0.0799115 0.0952468 0.0425422
0.100862 0.0951095 0.0424048
0.12578 0.0940871 0.0413825
0.156222 0.0918135 0.0391089
0.193393 0.0879835 0.0352789
0.238407 0.0823224 0.0296178
0.289815 0.075227 0.0225223
0.344411 0.0675669 0.0148775
0.398825 0.0602884 0.00758373
0.452857 0.0534371 0.000732433
0.508843 0.0464027 0
0.564813 0.0397345 0
0.618692 0.0339971 0
0.668391 0.0297704 0
0.712337 0.0274968 0
0.750927 0.0270848 0
0.784878 0.0283513 0
0.814908 0.0310979 0
0.842039 0.0350958 0
0.867216 0.0400854 0
0.891081 0.0458991 0
0.91426 0.0523384 0
0.937362 0.059205 0.00650034
0.961013 0.0663005 0.0135958
0.985901 0.0733654 0.0206607
0 0.109194 0.0343481
0 0.109651 0.0348211
0 0.110307 0.035462
0 0.111192 0.0363622
0.0117494 0.112276 0.0374304
0.0275578 0.11339 0.0385595
0.0435798 0.114656 0.0398108
0.0605478 0.115862 0.0410163
0.0793622 0.116823 0.0419928
0.100938 0.117311 0.0424659
0.126558 0.116991 0.0421454
0.157733 0.115465 0.0406195
0.195682 0.112413 0.037583
0.24152 0.107576 0.0327306
0.293782 0.10132 0.0264897
0.349264 0.0945602 0.0197147
0.404593 0.0881819 0.0133516
0.459571 0.0822919 0.00746166
0.516548 0.0762493 0.00141909
0.573541 0.0706035 0
0.628473 0.065919 0
0.679271 0.0627909 0
0.724346 0.0616465 0
0.764096 0.0623941 0
0.799252 0.0648661 0
0.830533 0.0688487 0
0.858854 0.074052 0
0.885176 0.0801862 0.00535592
0.910109 0.0870527 0.0122225
0.934234 0.0944533 0.0196231
0.95819 0.102174 0.0273442
0.982605 0.110018 0.0351873
1 0.117769 0.0429236
0 0.129915 0.027924
0 0.130816 0.0288243
0 0.13193 0.0299382
0 0.133303 0.0313115
0.00724804 0.134905 0.032929
0.0236362 0.136629 0.034638
0.0403143 0.138537 0.0365454
0.0579995 0.140459 0.038468
0.0775769 0.142184 0.0401923
0.0999313 0.143465 0.041474
0.12639 0.143969 0.0419776
0.158419 0.143297 0.0413214
0.197284 0.141161 0.0391699
0.244038 0.13724 0.0352636
0.297276 0.13196 0.0299687
0.35375 0.126192 0.0242161
0.410132 0.120867 0.0188754
0.466178 0.116045 0.0140536
0.524254 0.111101 0.0091249
0.582391 0.1066 0.00460822
0.638498 0.103105 0.00111391
0.690517 0.101183 0
0.736828 0.101274 0
0.777768 0.103212 0.00123598
0.814038 0.106798 0.00480659
0.846326 0.111788 0.00981155
0.875578 0.117922 0.0159304
0.902724 0.124865 0.0228885
0.928359 0.132464 0.0304723
0.953109 0.14049 0.0384985
0.9776 0.14873 0.0467536
1 0.157 0.055024
1 0.165072 0.0630961
0 0.153948 0.018677
0 0.155398 0.0201267
0 0.157122 0.0218509
0 0.159182 0.0239109
0.000579843 0.161532 0.0262608
0.0177462 0.164019 0.028748
0.0352331 0.166735 0.0314641
0.0537575 0.169497 0.034226
0.0742046 0.172091 0.0368353
0.0974746 0.174289 0.0390173
0.124865 0.175738 0.0404669
0.157885 0.176043 0.0407874
0.197757 0.174914 0.0396429
0.245563 0.172045 0.0367895
0.299886 0.167849 0.032578
0.357473 0.16321 0.0279393
0.415015 0.15903 0.0237583
0.472251 0.155398 0.0201267
0.531563 0.15169 0.0164187
0.590906 0.148409 0.013138
0.648203 0.146075 0.0108034
0.701289 0.145251 0.0099794
0.748577 0.146304 0.0110475
0.790402 0.149142 0.0138705
0.827466 0.153506 0.0182345
0.860441 0.159197 0.0239261
0.890272 0.165896 0.0306401
0.917906 0.173342 0.0380865
0.943954 0.181338 0.046067
0.968994 0.189639 0.0543679
0.993683 0.198093 0.0628214
1 0.206455 0.0711833
1 0.214527 0.0792554
0 0.182147 0.00639353
0 0.184344 0.00859083
0 0.186862 0.0111086
0 0.189731 0.0139773
0 0.192935 0.0171817
0.00955215 0.196307 0.0205539
0.0279545 0.199939 0.0241855
0.0474403 0.203662 0.0279088
0.0688792 0.207263 0.0314946
0.0931868 0.210468 0.0347143
0.12163 0.212985 0.037232
0.155749 0.214405 0.0386511
0.19675 0.214405 0.0386358
0.245731 0.212696 0.0369421
0.301259 0.209705 0.0339513
0.360082 0.206302 0.0305333
0.418814 0.203326 0.0275578
0.477195 0.200839 0.0250706
0.537545 0.198169 0.0224155
0.597848 0.195819 0.0200656
0.655985 0.194354 0.0185855
0.709819 0.194263 0.0185092
0.757763 0.195987 0.0202182
0.800137 0.199359 0.0236057
0.837659 0.204181 0.0284276
0.870985 0.210224 0.0344701
0.901076 0.217197 0.0414435
0.928878 0.224796 0.0490425
0.954986 0.232853 0.0570993
0.979995 0.241138 0.0653697
1 0.249439 0.0736858
1 0.257588 0.0818341
1 0.265324 0.0895705
0 0.215198 0
0 0.218265 0
0 0.221668 0
0 0.225467 0.00157168
0 0.229648 0.00573739
0 0.234012 0.0101167
0.018555 0.238697 0.0148013
0.0391241 0.243503 0.0195926
0.0616617 0.248188 0.0242924
0.0871138 0.252552 0.0286564
0.116747 0.256245 0.0323491
0.152087 0.258885 0.0349889
0.194308 0.260105 0.0362097
0.24448 0.259602 0.0356909
0.301106 0.257725 0.033814
0.360937 0.255314 0.0314031
0.4206 0.253254 0.0293431
0.479789 0.251575 0.0276646
0.540856 0.249622 0.0257115
0.60177 0.247898 0.0239872
0.660426 0.246937 0.0230259
0.714672 0.247272 0.0233616
0.762936 0.249302 0.025391
0.805539 0.252903 0.0290074
0.843168 0.257847 0.0339513
0.876539 0.26392 0.0400244
0.906554 0.270817 0.0469215
0.934188 0.278264 0.0543526
0.960021 0.286046 0.0621347
0.984665 0.29395 0.0700542
1 0.301808 0.0778973
1 0.30959 0.0856947
1 0.31725 0.0933394
0 0.252781 0
0 0.25684 0
0 0.261265 0
0 0.266117 0
0 0.271382 0
0 0.276875 0
0.00914015 0.282719 0.00537118
0.0308995 0.288716 0.011368
0.0546731 0.294636 0.0172885
0.0813306 0.300206 0.0228733
0.112139 0.305074 0.0277409
0.148547 0.308782 0.0314336
0.191745 0.310964 0.0336309
0.242786 0.31133 0.0339971
0.300191 0.310231 0.0328985
0.360708 0.308492 0.0311589
0.420935 0.307012 0.0296788
0.480613 0.305821 0.0284886
0.542062 0.30425 0.0269169
0.60325 0.302815 0.0254826
0.662089 0.302037 0.0247044
0.716442 0.302464 0.0251316
0.764706 0.304494 0.0271611
0.807202 0.307988 0.0306554
0.844633 0.312734 0.0354009
0.877684 0.318502 0.0411688
0.907301 0.325002 0.0476692
0.934462 0.331975 0.0546273
0.960037 0.339498 0.06215
0.98471 0.347417 0.0700847
1 0.355566 0.078233
1 0.363745 0.0863966
1 0.371725 0.094377
0 0.294469 0
0 0.299611 0
0 0.30518 0
0 0.311208 0
0 0.317678 0
0 0.324407 0
0.00218204 0.331441 0
0.0250706 0.338582 0.00553903
0.0498817 0.345541 0.0124971
0.0774853 0.352056 0.0190127
0.109117 0.357748 0.0247196
0.146273 0.362203 0.02916
0.190112 0.365042 0.0319982
0.241688 0.365942 0.0329137
0.299535 0.36527 0.0322423
0.360403 0.363897 0.0308537
0.420874 0.362661 0.029633
0.480705 0.361624 0.0285801
0.542199 0.360113 0.0270695
0.603357 0.358618 0.0255894
0.662058 0.357702 0.0246738
0.716167 0.357885 0.0248569
0.76408 0.359579 0.0265507
0.806149 0.362646 0.0296025
0.843153 0.366964 0.0339361
0.876051 0.37258 0.0395361
0.905791 0.379187 0.0461585
0.933318 0.386526 0.0534981
0.959258 0.394415 0.0613718
0.984237 0.402655 0.0696117
1 0.411048 0.0780041
1 0.419394 0.0863661
1 0.427497 0.0944686
0 0.339773 0
0 0.346151 0
0 0.352926 0
0 0.360159 0
0 0.367712 0
0 0.375448 0
0 0.383383 0
0.0228733 0.391318 0.00334173
0.0483864 0.398978 0.0110018
0.076585 0.406104 0.0181277
0.108736 0.412314 0.0243381
0.146304 0.417166 0.0291905
0.190448 0.42031 0.0323339
0.242252 0.421439 0.033463
0.300221 0.42089 0.0329137
0.361089 0.419532 0.0315557
0.4215 0.418219 0.0302434
0.481147 0.416999 0.0290227
0.542367 0.415213 0.0272374
0.603143 0.413336 0.0253758
0.661372 0.411963 0.0239872
0.71516 0.41181 0.0238499
0.763012 0.413443 0.0254673
0.805295 0.416724 0.028748
0.842695 0.421439 0.033463
0.875929 0.42739 0.0394141
0.905959 0.434287 0.0463111
0.933715 0.441855 0.0538796
0.959808 0.449897 0.0619364
0.984894 0.458244 0.0702678
1 0.466682 0.0787213
1 0.475044 0.087068
1 0.483085 0.0951095
0 0.3888 0
0 0.396231 0
0 0.403983 0
0 0.41207 0
0 0.420401 0
0 0.428794 0
0 0.437293 0
0.0234836 0.445701 0.00395209
0.0493629 0.453742 0.0119936
0.0778515 0.461143 0.0193942
0.110185 0.467521 0.0257725
0.147814 0.472465 0.0307164
0.191959 0.475593 0.0338445
0.243641 0.4766 0.0348516
0.301396 0.475837 0.0340887
0.361959 0.474174 0.0324254
0.421942 0.47245 0.0307012
0.481147 0.470771 0.0290227
0.542138 0.468742 0.0269932
0.60296 0.466926 0.0251774
0.661509 0.465858 0.0241093
0.715663 0.466102 0.0243534
0.763836 0.46804 0.0262913
0.806378 0.47158 0.0298314
0.843976 0.476509 0.0347601
0.877363 0.482597 0.0408484
0.907469 0.48957 0.0478218
0.935256 0.497169 0.0554208
0.961334 0.505196 0.063447
0.986328 0.513451 0.0717021
1 0.521752 0.0800031
1 0.5299 0.0881514
1 0.537682 0.0959335
0 0.44152 0
0 0.449683 0
0 0.458061 0
0 0.466682 0
0 0.475456 0
0 0.484184 0
0 0.492927 0
0.023682 0.501488 0.00415045
0.0496071 0.50956 0.0122377
0.0780499 0.516915 0.0195773
0.110216 0.52314 0.0258183
0.147601 0.527825 0.0305028
0.191394 0.530602 0.0332799
0.242618 0.531167 0.0338445
0.299992 0.530022 0.0326848
0.360418 0.528206 0.030869
0.420539 0.526619 0.0292973
0.48011 0.525322 0.0280003
0.541466 0.523659 0.0263371
0.602579 0.522133 0.0248112
0.661372 0.521309 0.0239872
0.715724 0.521737 0.0243992
0.764019 0.523796 0.0264744
0.806622 0.527413 0.0300755
0.844236 0.532341 0.0350042
0.877577 0.538384 0.0410468
0.907576 0.545251 0.0479286
0.935195 0.552682 0.0553597
0.961044 0.560479 0.0631571
0.985748 0.568444 0.0711223
1 0.57641 0.0790723
1 0.584161 0.0868238
1 0.591485 0.0941482
0 0.496345 0
0 0.504906 0
0 0.513588 0
0 0.522423 0
0 0.531289 0
0 0.540032 0
0 0.548699 0
0.0235142 0.557061 0.0039826
0.0491646 0.564858 0.01178
0.0772106 0.571817 0.0187533
0.108919 0.577585 0.0245212
0.145998 0.581964 0.0289006
0.189746 0.58471 0.0316472
0.24123 0.585519 0.0324559
0.298985 0.584756 0.031693
0.359747 0.583291 0.0302129
0.420157 0.581979 0.0289006
0.479942 0.580896 0.0278325
0.541451 0.579385 0.0263218
0.60267 0.577981 0.0249027
0.661509 0.577188 0.0241245
0.715846 0.5776 0.0245212
0.764065 0.579599 0.0265202
0.806546 0.583078 0.0299992
0.843976 0.587823 0.0347448
0.877058 0.593622 0.0405432
0.906752 0.600183 0.0471199
0.93402 0.607248 0.0541848
0.959442 0.614633 0.0615549
0.983673 0.622126 0.0690623
1 0.629541 0.0764782
1 0.636698 0.0836347
1 0.643381 0.0903029
0 0.551675 0
0 0.560311 0
0 0.568963 0
0 0.577661 0
0 0.586313 0
0 0.594736 0
0 0.602975 0
0.0232548 0.610895 0.0037232
0.0486915 0.618479 0.0113069
0.0767987 0.625513 0.0183413
0.108843 0.631617 0.024445
0.146304 0.636362 0.0291905
0.190372 0.639429 0.0322576
0.2421 0.640497 0.0333257
0.300053 0.639933 0.0327611
0.360967 0.63859 0.0314183
0.421454 0.637369 0.0301976
0.48127 0.636316 0.0291447
0.542748 0.634775 0.0276036
0.603876 0.633265 0.0260929
0.662562 0.632334 0.0251621
0.71667 0.632532 0.0253605
0.76463 0.634256 0.0270848
0.806775 0.637415 0.0302434
0.843824 0.641764 0.0346075
0.876478 0.64712 0.0399634
0.905669 0.653193 0.0460365
0.932372 0.659709 0.0525368
0.957183 0.666468 0.0592966
0.980743 0.673289 0.0661173
1 0.679988 0.0728161
1 0.686351 0.0791791
1 0.692164 0.085008
0 0.605859 0
0 0.614237 0
0 0.622538 0
0 0.630777 0
0 0.639063 0
0 0.647379 0
0.00172427 0.655787 0
0.0257877 0.664088 0.0062562
0.0515755 0.672023 0.0142061
0.0799725 0.679347 0.0215152
0.112261 0.685679 0.0278477
0.149889 0.690608 0.0327916
0.19408 0.693797 0.0359655
0.245869 0.694911 0.0370947
0.303822 0.694347 0.0365301
0.364675 0.692958 0.0351415
0.425055 0.69163 0.0337987
0.484703 0.69041 0.032578
0.545937 0.688624 0.030808
0.60679 0.686839 0.0290074
0.665125 0.685557 0.0277256
0.718837 0.685344 0.0275273
0.766339 0.686625 0.0287938
0.807965 0.68925 0.0314336
0.844434 0.693034 0.0352026
0.876448 0.697749 0.0399329
0.904952 0.703136 0.045304
0.930892 0.708888 0.0510567
0.954894 0.714839 0.0570077
0.977584 0.72079 0.0629587
0.999588 0.726543 0.0687266
1 0.73196 0.0741283
1 0.736828 0.0790112
0 0.657328 0
0 0.665415 0
0 0.673716 0
0 0.682231 0
0 0.690898 0
0 0.699535 0
0.00874342 0.708217 0.00497444
0.0330205 0.716731 0.013489
0.0589609 0.724834 0.0215915
0.0874647 0.73225 0.0290074
0.119783 0.738628 0.0353857
0.157412 0.743542 0.0402991
0.201511 0.746639 0.0434119
0.253178 0.747631 0.0443885
0.310933 0.746868 0.0436255
0.371527 0.74522 0.0419928
0.431601 0.743587 0.0403449
0.490867 0.741985 0.0387579
0.55169 0.739803 0.0365606
0.612055 0.737514 0.0342718
0.669856 0.735698 0.0324559
0.722972 0.73489 0.0316472
0.769802 0.7355 0.0322576
0.810712 0.737423 0.0341802
0.846418 0.740429 0.0371862
0.877592 0.74432 0.0410773
0.905211 0.748806 0.0455634
0.930205 0.753613 0.0503853
0.953262 0.758618 0.055375
0.97499 0.763607 0.0603799
0.996078 0.76846 0.0652171
1 0.772961 0.0697337
1 0.776959 0.0737163
0 0.707179 0
0 0.715633 0
0 0.724239 0
0 0.733013 0
0 0.741863 0
0 0.750637 0.00808728
0.0206149 0.759396 0.016846
0.0449073 0.767941 0.0253758
0.0708171 0.775998 0.0334325
0.0992142 0.783307 0.0407568
0.13138 0.789532 0.0469825
0.16878 0.794232 0.0516823
0.212619 0.79707 0.0545052
0.263951 0.797726 0.0551766
0.321324 0.796582 0.0540322
0.381476 0.794491 0.0519417
0.441032 0.79234 0.0497902
0.499748 0.790188 0.0476387
0.559945 0.787366 0.0448157
0.619623 0.784405 0.0418555
0.676677 0.781857 0.039292
0.729 0.780255 0.0376898
0.77499 0.780011 0.0374456
0.815 0.781018 0.0384527
0.849744 0.783078 0.0405127
0.879957 0.786007 0.0434424
0.90663 0.789548 0.0469978
0.930724 0.793454 0.0509041
0.95288 0.797559 0.0549935
0.973754 0.801694 0.0591287
0.993988 0.805692 0.0631266
1 0.809369 0.066804
1 0.812558 0.0699931
0 0.756466 0
0 0.765103 0
0 0.773816 0
0 0.782635 0.00628672
0 0.791501 0.0151369
0.0128634 0.800214 0.0238499
0.0362554 0.80885 0.0324865
0.0603799 0.817197 0.0408484
0.0860456 0.825025 0.0486763
0.114153 0.832059 0.0556954
0.145968 0.837919 0.0615702
0.182956 0.842206 0.0658579
0.226322 0.844572 0.0682231
0.277134 0.844709 0.0683604
0.333928 0.842985 0.0666209
0.393439 0.840253 0.0638895
0.452293 0.8374 0.0610513
0.510246 0.834485 0.0581369
0.569635 0.830854 0.0545052
0.628443 0.827024 0.05066
0.684565 0.823529 0.0471809
0.735943 0.820981 0.0446174
0.780972 0.819791 0.0434272
0.820035 0.819852 0.0435035
0.85388 0.821012 0.0446479
0.883223 0.823056 0.0467079
0.909026 0.825742 0.0493935
0.93228 0.828809 0.0524453
0.953613 0.83209 0.0557259
0.973678 0.835416 0.0590677
0.993133 0.838636 0.0622873
1 0.841566 0.0652018
1 0.844007 0.0676585
0 0.804715 0
0 0.813321 0.00805676
0 0.821942 0.0166781
0 0.83064 0.0253605
0.00834669 0.839292 0.0340276
0.0314794 0.847745 0.0424811
0.0545815 0.856077 0.0508125
0.0783246 0.864057 0.058793
0.103563 0.871458 0.0661936
0.131182 0.877989 0.0727245
0.162448 0.883314 0.0780499
0.198825 0.886992 0.0817273
0.241535 0.888701 0.0834211
0.291615 0.888106 0.0828412
0.347631 0.885603 0.0803388
0.406302 0.882033 0.0767681
0.464271 0.878294 0.0730144
0.521279 0.874434 0.0691691
0.579705 0.869841 0.0645762
0.637568 0.865064 0.0597848
0.692775 0.860655 0.0553902
0.743252 0.857206 0.0519265
0.787411 0.855131 0.0498665
0.82562 0.854353 0.0490883
0.858625 0.854673 0.0494087
0.88716 0.855909 0.0506447
0.912169 0.857801 0.0525368
0.934661 0.86009 0.0548257
0.955245 0.862623 0.0573587
0.974578 0.865217 0.0599527
0.993317 0.86772 0.0624552
1 0.869963 0.0646983
1 0.871733 0.0664683
0 0.851423 0.0215
0 0.859815 0.0298924
0 0.868177 0.0382391
0.00671397 0.876524 0.0465858
0.0291752 0.884779 0.0548562
0.0518654 0.89279 0.0628672
0.0744488 0.900603 0.0706798
0.0976272 0.908019 0.0780957
0.12224 0.914794 0.0848554
0.149172 0.920638 0.0907149
0.17969 0.925231 0.0952926
0.21529 0.928115 0.0981765
0.25713 0.928954 0.0990158
0.306294 0.927443 0.0975204
0.361364 0.923995 0.0940566
0.419074 0.919463 0.0895399
0.476097 0.914778 0.0848402
0.532204 0.910018 0.0800793
0.589731 0.90454 0.0746014
0.646723 0.898878 0.0689555
0.701091 0.893629 0.0637064
0.750744 0.889357 0.0594186
0.794079 0.886473 0.0565499
0.831525 0.884916 0.0549783
0.863767 0.884474 0.0545357
0.891539 0.884962 0.055024
0.915846 0.886122 0.056199
0.937621 0.887724 0.0577859
0.957519 0.88957 0.0596323
0.976196 0.891508 0.0615702
0.994293 0.89337 0.0634318
1 0.894987 0.0650492
1 0.896162 0.0662394
0 0.896178 0.0450904
0 0.904158 0.0530709
0.00662242 0.912047 0.0609445
0.0288853 0.91986 0.0687572
0.0507515 0.927535 0.0764324
0.0728008 0.93489 0.0838026
0.094667 0.942 0.0909133
0.117082 0.948653 0.0975662
0.140871 0.954589 0.103502
0.166934 0.959564 0.108476
0.196521 0.963211 0.112123
0.231159 0.965148 0.114061
0.272053 0.965042 0.113939
0.320302 0.9626 0.111513
0.374456 0.958251 0.107149
0.431281 0.952834 0.101747
0.487449 0.947295 0.0962081
0.542718 0.941695 0.0906081
0.599435 0.935393 0.0843061
0.655634 0.928954 0.0778515
0.709209 0.922911 0.0718242
0.758099 0.917876 0.0667887
0.800717 0.91426 0.0631723
0.83743 0.911986 0.0608988
0.868986 0.910842 0.0597543
0.896086 0.910658 0.0595712
0.919722 0.911177 0.06009
0.940871 0.912139 0.0610361
0.960159 0.913375 0.0622721
0.978241 0.914717 0.0636301
0.995773 0.916014 0.0649119
1 0.917067 0.06598
1 0.917739 0.0666514
0 0.938582 0.068864
0.00691234 0.945953 0.0762341
0.0291142 0.95317 0.0834516
0.05066 0.960266 0.0905318
0.0717479 0.967147 0.0974289
0.0929427 0.973663 0.103944
0.113924 0.979873 0.110155
0.135393 0.98558 0.115862
0.158221 0.99057 0.120851
0.183337 0.994598 0.124865
0.212009 0.99733 0.127596
0.245747 0.998352 0.128634
0.285756 0.997375 0.127657
0.33315 0.994095 0.124376
0.386481 0.988907 0.119173
0.442496 0.982681 0.112963
0.497871 0.976349 0.10663
0.552377 0.96997 0.100252
0.608347 0.962921 0.0932021
0.663798 0.955749 0.0860304
0.716686 0.94902 0.0792859
0.764889 0.943282 0.0735637
0.806821 0.93901 0.0692912
0.842908 0.93608 0.0663615
0.873823 0.934325 0.0645914
0.900328 0.933532 0.0638132
0.923384 0.933455 0.0637369
0.943954 0.933852 0.0641337
0.962707 0.934554 0.0648203
0.980301 0.935409 0.0656748
0.997375 0.936248 0.0665293
1 0.936904 0.0671855
1 0.937179 0.0674601
0.00717174 0.978149 0.0917525
0.0289921 0.98471 0.0983139
0.0503395 0.991058 0.104662
0.0709544 0.997238 0.110826
0.0910964 1 0.116777
0.11133 1 0.122332
0.131365 1 0.127611
0.151934 1 0.132403
0.173877 1 0.136507
