luts/color1.cube
TITLE "Generated by Resolve"
LUT_3D_SIZE 33
0.00959792 0 0
0.0181277 0 0
0.0264897 0 0
0.0351873 0 0
0.0447089 0 0
0.0552834 0 0
0.0673228 0 0
0.0814069 0 0
0.0985428 0 0
0.119768 0 0
0.146075 0 0
0.178683 0 0
0.216846 0 0
0.257893 0 0
0.299107 0 0
0.338643 0 0
0.379538 0 0
0.421118 0 0
0.461784 0 0
0.499962 0 0
0.534035 0 0
0.563012 0 0
0.587701 0 0
0.608698 0 0
0.626642 0 0
0.642115 0 0
0.655772 0 0
0.668132 0 0
0.679454 0 0
0.690013 0 0
0.700069 0 0
0.709895 0 0
0.719738 0 0
0.0111543 0.00335698 0
0.019913 0.00418097 0
0.0284123 0.0049897 0
0.0370947 0.0056611 0
0.0464179 0.00610361 0
0.0567941 0.00619516 0
0.0686961 0.00584421 0
0.0826429 0.00488289 0
0.0996872 0.00308232 0
0.120836 0.000137331 0
0.147112 0 0
0.179721 0 0
0.217914 0 0
0.259007 0 0
0.300313 0 0
0.33994 0 0
0.380972 0 0
0.422736 0 0
0.463615 0 0
0.502007 0 0
0.536339 0 0
0.565621 0 0
0.590616 0 0
0.611978 0 0
0.630289 0 0
0.646174 0 0
0.660273 0 0
0.673091 0 0
0.684916 0 0
0.695994 0 0
0.706615 0 0
0.717052 0 0
0.727596 0 0
0.0125582 0.0142214 0
0.0211032 0.014847 0
0.0294347 0.0154879 0
0.0379797 0.016022 0
0.0471809 0.0163424 0
0.0574807 0.0163424 0
0.0693217 0.0159304 0
0.0832532 0.0149538 0
0.100298 0.0131533 0
0.121477 0.0102388 0
0.147829 0.00598154 0
0.180529 4.57771e-05 0
0.218845 0 0
0.26009 0 0
0.301564 0 0
0.341421 0 0
0.382696 0 0
0.42472 0 0
0.465904 0 0
0.504631 0 0
0.53933 0 0
0.568978 0 0
0.5944 0 0
0.616205 0 0
0.635004 0 0
0.651392 0 0
0.666026 0 0
0.679423 0 0
0.69189 0 0
0.7037 0 0
0.715129 0 0
0.726436 0 0
0.737926 0 0
0.0139925 0.0242924 0
0.0224308 0.0248112 0
0.0306859 0.0253758 0
0.0391852 0.025864 0
0.0483711 0.0261692 0
0.0586862 0.0261997 0
0.0705577 0.0258335 0
0.0845655 0.024918 0
0.101732 0.0232242 0
0.123049 0.0204471 0
0.149554 0.0163424 0
0.182452 0.010605 0
0.220996 0.00343328 0
0.262486 0 0
0.30425 0 0
0.344411 0 0
0.386038 0 0
0.428428 0 0
0.470008 0 0
0.509163 0 0
0.54432 0 0
0.574456 0 0
0.600397 0 0
0.622766 0 0
0.642161 0 0
0.65922 0 0
0.674601 0 0
0.688838 0 0
0.702205 0 0
0.714977 0 0
0.727443 0 0
0.739864 0 0
0.752529 0 0
0.0152285 0.0341192 0
0.0236667 0.034638 0
0.0319524 0.0352178 0
0.0404974 0.0357671 0
0.0497749 0.0361639 0
0.0602121 0.0363012 0
0.0722362 0.0360723 0
0.0864118 0.0353399 0
0.103777 0.0338293 0
0.125338 0.0312963 0
0.152102 0.0274662 0
0.18529 0.0220035 0
0.224155 0.0151522 0
0.266011 0.00764477 0
0.308156 0.000198367 0
0.34873 0 0
0.390784 0 0
0.433661 0 0
0.475731 0 0
0.515435 0 0
0.551141 0 0
0.581918 0 0
0.608545 0 0
0.631678 0 0
0.651942 0 0
0.669917 0 0
0.686305 0 0
0.70161 0 0
0.716106 0 0
0.730083 0 0
0.743816 0 0
0.75758 0 0
0.771664 0 0
0.0160983 0.0442359 0
0.0246433 0.0448463 0
0.0330358 0.0455482 0
0.0417487 0.0462501 0
0.0512093 0.0468299 0
0.0618601 0.0471809 0
0.0741283 0.0471962 0
0.0885786 0.0467384 0
0.106249 0.0455482 0
0.128145 0.0433509 0
0.155276 0.0398718 0
0.188861 0.0348058 0
0.228153 0.0283818 0
0.270451 0.0213169 0
0.313085 0.0143587 0
0.354162 0.00802625 0
0.396765 0.00151064 0
0.440223 0 0
0.482948 0 0
0.523369 0 0
0.559899 0 0
0.591546 0 0
0.619135 0 0
0.64329 0 0
0.664622 0 0
0.683772 0 0
0.701381 0 0
0.717983 0 0
0.733852 0 0
0.749264 0.00419623 0
0.764492 0.0110933 0
0.779843 0.0185855 0
0.79556 0.026627 0
0.0164034 0.0551766 0
0.0251316 0.0559854 0
0.0337682 0.0569314 0
0.0427253 0.0578775 0
0.0524758 0.0587472 0
0.0634318 0.0594186 0
0.076051 0.0597696 0
0.0908827 0.0596933 0
0.108949 0.0588998 0
0.131273 0.0571298 0
0.158877 0.0541085 0
0.192966 0.049546 0
0.232761 0.0436408 0
0.275624 0.0371252 0
0.318868 0.0307774 0
0.360616 0.0251316 0
0.403983 0.0193637 0
0.44828 0.0136873 0
0.491905 0.00857557 0
0.533303 0.00445563 0
0.570871 0.00181582 0
0.603647 0.000915541 0
0.63241 0.00157168 0
0.657816 0.00366217 0
0.680476 0.00700389 0
0.70103 0.0115053 0
0.720088 0.016968 0
0.738216 0.0233005 0
0.755688 0.0304417 0
0.772763 0.0383612 0
0.789792 0.0470436 0
0.807065 0.0564431 0
0.824765 0.0664683 0
0.0159304 0.0675212 0
0.0249485 0.0686198 0
0.0339055 0.0698863 0
0.0432288 0.0711833 0
0.0533608 0.0724346 0
0.0647288 0.073518 0
0.0777905 0.0743267 0
0.0930953 0.0747234 0
0.111681 0.0744335 0
0.134539 0.0731823 0
0.162707 0.0707408 0
0.197421 0.066804 0
0.237934 0.0616007 0
0.28159 0.0558938 0
0.325689 0.0504005 0
0.368383 0.0456855 0
0.412757 0.0409094 0
0.458106 0.0363165 0
0.502892 0.0323339 0
0.545495 0.0294347 0
0.584344 0.0280613 0
0.618448 0.0285191 0
0.64863 0.0306096 0
0.675517 0.034165 0
0.699748 0.0390784 0
0.721904 0.0451972 0
0.742672 0.0523537 0
0.762646 0.0605325 0
0.782071 0.0696422 0
0.801129 0.07953 0
0.82005 0.0901045 0.00247196
0.839017 0.101213 0.0135958
0.858228 0.112749 0.0251164
0.0144198 0.0818036 0
0.0238499 0.083299 0
0.0332341 0.0849928 0
0.0429999 0.0867475 0
0.0536202 0.0884871 0
0.065507 0.0900893 0
0.079118 0.0914321 0
0.0950179 0.0924086 0
0.114244 0.0927749 0
0.137835 0.0922713 0
0.166827 0.0906539 0
0.202441 0.087602 0
0.243915 0.08336 0
0.288594 0.0786603 0
0.333776 0.0742809 0
0.377646 0.0707256 0
0.423255 0.0671855 0
0.469917 0.0638895 0
0.51606 0.0612955 0
0.560113 0.0598306 0
0.600458 0.059968 0
0.636149 0.0620127 0
0.667979 0.0657359 0
0.696635 0.0710613 0
0.722744 0.0778668 0
0.746868 0.0859388 0
0.769604 0.095079 0
0.791394 0.105074 0.00166323
0.812451 0.115816 0.0123903
0.832975 0.127169 0.023743
0.853147 0.138994 0.0355688
0.873198 0.151186 0.0477607
0.893309 0.163607 0.0601968
0.0110933 0.0988174 0
0.0210117 0.100816 0
0.0309148 0.103029 0
0.0412451 0.105348 0
0.0524758 0.107698 0
0.0650492 0.109972 0
0.0794232 0.112093 0
0.0961624 0.113924 0
0.116304 0.115206 0
0.140887 0.115679 0
0.170932 0.115114 0
0.207675 0.113176 0
0.25034 0.110124 0
0.296269 0.106691 0
0.342794 0.103639 0
0.388052 0.101472 0
0.435126 0.0994125 0
0.48333 0.0976577 0
0.531075 0.0966659 0
0.576806 0.0968795 0
0.618967 0.0988174 0
0.65658 0.102785 0
0.690394 0.108507 0
0.720974 0.115755 0
0.748837 0.1243 0.000534066
0.774533 0.133959 0.0101778
0.798657 0.144472 0.0207065
0.821637 0.155673 0.0318914
0.843702 0.167422 0.0436408
0.865034 0.179583 0.0558022
0.885863 0.19205 0.0682689
0.90634 0.204685 0.0809186
0.926711 0.21738 0.0935988
0.00500496 0.119432 0
0.0155489 0.122057 0
0.0261692 0.124987 0
0.0373083 0.128099 0
0.0493935 0.131319 0
0.0629129 0.134539 0
0.078294 0.137667 0
0.0961318 0.140566 0
0.117418 0.142992 0
0.143221 0.144686 0
0.174548 0.145403 0
0.212634 0.144823 0
0.256733 0.143191 0
0.304158 0.141253 0
0.352239 0.139742 0
0.39913 0.139223 0
0.447913 0.138872 0
0.497978 0.138979 0
0.547692 0.139925 0
0.595392 0.142138 0
0.639414 0.145953 0
0.678721 0.151598 0.00112917
0.714046 0.158816 0.00836194
0.745922 0.167376 0.0169223
0.774914 0.177066 0.0265965
0.801556 0.187655 0.0371862
0.826429 0.198932 0.0484627
0.849989 0.210697 0.0602426
0.872435 0.222827 0.0723735
0.893965 0.235187 0.0847334
0.914778 0.247654 0.0972
0.935103 0.260121 0.109667
0.955108 0.27245 0.121996
0 0.144747 0
0.00703441 0.148272 0
0.018616 0.152163 0
0.0307774 0.156313 0
0.0439765 0.160632 0
0.0586557 0.165026 0
0.075288 0.16939 0
0.0944228 0.173602 0
0.117098 0.177401 0
0.14435 0.180545 0
0.177203 0.182788 0
0.216876 0.183795 0
0.262623 0.183825 0
0.311818 0.183627 0
0.361807 0.184039 0
0.410666 0.185504 0.000274662
0.461418 0.187106 0.00189212
0.513283 0.189014 0.0037995
0.564614 0.191577 0.00637827
0.613733 0.195209 0.0100099
0.659007 0.200275 0.0150759
0.699382 0.206989 0.0217899
0.735561 0.215091 0.0298772
0.768139 0.224323 0.0391241
0.79762 0.234516 0.0493019
0.824582 0.245426 0.0602121
0.849592 0.256825 0.0716259
0.873091 0.268544 0.0833448
0.895293 0.280415 0.0952163
0.916381 0.292348 0.107149
0.936599 0.304204 0.119005
0.956146 0.315908 0.130724
0.975708 0.327779 0.14258
0 0.176165 0
0 0.180819 0
0.00764477 0.185901 0
0.0210727 0.191318 0
0.0356146 0.196979 0
0.0517128 0.202777 0
0.06981 0.208606 0
0.090486 0.214359 0
0.114763 0.219776 0
0.143709 0.224613 0
0.178378 0.228656 0
0.219989 0.231601 0.00167849
0.267735 0.233616 0.00369268
0.318837 0.23534 0.00541695
0.370565 0.237491 0.00756847
0.420981 0.240497 0.0105745
0.473091 0.243473 0.01355
0.526131 0.246555 0.0166323
0.578454 0.250111 0.0202029
0.628382 0.254551 0.0246433
0.674296 0.260243 0.0303349
0.715084 0.267384 0.0374762
0.751507 0.275731 0.0458228
0.784146 0.285039 0.0551308
0.813504 0.295094 0.0651865
0.840146 0.305684 0.0757916
0.864668 0.316594 0.0867018
0.88748 0.327626 0.0977188
0.908965 0.338796 0.108888
0.929747 0.350423 0.120516
0.950118 0.362417 0.132525
0.97026 0.374716 0.144823
0.990402 0.387167 0.157275
0 0.213779 0
0 0.219791 0
0 0.226307 0
0.0107271 0.233219 0
0.0268254 0.240452 0
0.0445563 0.247883 0
0.0643778 0.255436 0
0.0869306 0.26305 0
0.113176 0.270451 0
0.144091 0.277241 0
0.180621 0.283146 0.000961318
0.223911 0.28777 0.0055848
0.273136 0.291249 0.00907912
0.325536 0.294286 0.0121157
0.378378 0.297551 0.0153658
0.429725 0.301472 0.0192874
0.482567 0.30518 0.0230106
0.536156 0.308812 0.0266423
0.588846 0.312749 0.0305791
0.638972 0.317372 0.0352026
0.68484 0.323049 0.0408789
0.725444 0.330007 0.047837
0.761501 0.337957 0.055787
0.793561 0.3467 0.0645457
0.822187 0.356008 0.0738537
0.848249 0.366033 0.0838788
0.872602 0.376791 0.0946365
0.895735 0.388128 0.105974
0.917861 0.399939 0.1178
0.939223 0.412131 0.129976
0.960021 0.424582 0.142428
0.980499 0.437217 0.155062
1 0.449912 0.167758
0 0.257053 0
0 0.264652 0
0 0.272831 0
0.00387579 0.281529 0
0.0218967 0.290669 0
0.0415961 0.300069 0
0.0633707 0.30959 0
0.0877241 0.319005 0
0.115572 0.327977 0
0.147906 0.336202 0
0.185657 0.343328 0.0059968
0.229999 0.348989 0.0116579
0.280079 0.353338 0.0160067
0.33315 0.357046 0.0197147
0.386465 0.360784 0.0234531
0.438102 0.365011 0.0276646
0.491066 0.368826 0.0314946
0.544594 0.372381 0.0350652
0.597009 0.376059 0.0387274
0.646693 0.38024 0.0429084
0.691936 0.38529 0.0479591
0.731777 0.39147 0.0541543
0.767407 0.399008 0.0616922
0.799481 0.407767 0.0704509
0.828595 0.417578 0.0802625
0.855283 0.428214 0.090898
0.880156 0.439506 0.10219
0.9037 0.451255 0.113939
0.926131 0.463355 0.126055
0.947662 0.475731 0.13843
0.968566 0.488273 0.150973
0.989013 0.500862 0.163561
1 0.51342 0.17612
0 0.305547 0
0 0.315099 0
0 0.325261 0
0.00479133 0.335866 0
0.0245365 0.346716 0
0.0457771 0.357656 0
0.0688945 0.368521 0
0.0944076 0.379095 0
0.123232 0.389059 0
0.156359 0.398062 0.00730907
0.19472 0.405783 0.0150454
0.239475 0.411872 0.0211185
0.289784 0.416449 0.0256962
0.342901 0.420203 0.0294499
0.396078 0.423789 0.033051
0.447395 0.42768 0.0369421
0.49984 0.430991 0.0402533
0.552651 0.43386 0.0431067
0.604395 0.436851 0.0460975
0.653803 0.440757 0.0500191
0.699229 0.445991 0.0552529
0.739681 0.452781 0.0620432
0.775891 0.460899 0.0701762
0.808454 0.470161 0.0794232
0.837934 0.480323 0.089601
0.864881 0.491218 0.100496
0.889906 0.502663 0.111925
0.913481 0.514443 0.12372
0.935836 0.526482 0.13576
0.957198 0.538689 0.147951
0.977798 0.550927 0.160204
0.997833 0.563119 0.172396
1 0.575143 0.184421
0 0.36054 0
0 0.371756 0
0 0.383383 0
0.0107271 0.395254 0
0.0315557 0.407202 0
0.0537118 0.419043 0
0.0775616 0.43064 0
0.103593 0.441749 0
0.132769 0.452049 0.00782788
0.166064 0.461219 0.0169985
0.20441 0.468925 0.0247044
0.248951 0.474784 0.0305791
0.298863 0.478981 0.0347753
0.351415 0.482139 0.0379339
0.40383 0.484977 0.0407721
0.454582 0.488334 0.0441291
0.50692 0.491539 0.0473335
0.560113 0.494759 0.0505531
0.612497 0.49839 0.0542
0.66244 0.502846 0.0586557
0.708324 0.508522 0.0643168
0.749096 0.515648 0.071458
0.785519 0.523995 0.0797894
0.818204 0.533349 0.0891585
0.847669 0.543511 0.099321
0.87451 0.554314 0.110124
0.899306 0.565515 0.121324
0.922545 0.576974 0.132784
0.944472 0.588571 0.144396
0.965286 0.600214 0.156024
0.985199 0.611795 0.167605
1 0.623209 0.179019
1 0.634348 0.190173
0 0.420859 0
0 0.433082 0
0 0.445548 0
0.0183261 0.458076 0
0.0396124 0.470497 0
0.0620584 0.482628 0
0.0859998 0.494316 0
0.11194 0.505333 0.00587472
0.140841 0.515358 0.0158999
0.173678 0.524056 0.0245975
0.211368 0.531121 0.0316625
0.255177 0.536248 0.0367895
0.304707 0.540032 0.040589
0.357305 0.543252 0.0438087
0.410239 0.546624 0.0471809
0.461616 0.550591 0.0511482
0.514488 0.554314 0.0548714
0.568063 0.557931 0.0584878
0.620737 0.561852 0.0624094
0.670863 0.566491 0.0670481
0.716793 0.572229 0.0727855
0.757534 0.579309 0.079881
0.79382 0.587518 0.0880751
0.826215 0.596597 0.0971695
0.855314 0.606394 0.106966
0.881666 0.616709 0.117266
0.905867 0.627314 0.127886
0.92842 0.638071 0.138643
0.949523 0.648859 0.149432
0.969406 0.659571 0.160143
0.988296 0.670115 0.170687
1 0.680385 0.180972
1 0.690272 0.19086
0 0.483604 0
0 0.496223 0
0.00688182 0.508904 0
0.027451 0.521462 0
0.0486 0.53373 0
0.0706798 0.54551 0
0.0941024 0.556664 0.00294499
0.119326 0.566964 0.0132448
0.14757 0.576333 0.0226139
0.180179 0.584802 0.0310979
0.218112 0.592096 0.0383917
0.262531 0.597848 0.0441291
0.312642 0.602213 0.0485084
0.365698 0.605905 0.0522011
0.419013 0.609628 0.0559243
0.470649 0.61384 0.0601511
0.523644 0.6177 0.0640116
0.577249 0.621363 0.0676585
0.629831 0.625193 0.0715038
0.679774 0.629633 0.0759442
0.725399 0.635081 0.0813916
0.765728 0.641764 0.0880751
0.80148 0.649424 0.0957351
0.833249 0.657877 0.104189
0.861601 0.666926 0.113252
0.887098 0.676387 0.122698
0.910338 0.68603 0.132357
0.931807 0.69572 0.142031
0.95172 0.705318 0.151629
0.970306 0.714733 0.161059
0.987793 0.723873 0.170199
1 0.732616 0.178943
1 0.740948 0.187274
0 0.545907 0
0 0.558297 0
0.0180209 0.570565 0
0.037995 0.582528 0
0.058381 0.594018 0
0.0799573 0.60531 0.00106813
0.103304 0.616388 0.0121462
0.128939 0.627085 0.022858
0.157839 0.637095 0.0328679
0.190982 0.646128 0.0419013
0.229343 0.653849 0.0496223
0.274083 0.659907 0.0556802
0.324407 0.664485 0.0602579
0.377569 0.668284 0.0640574
0.430854 0.671992 0.0677653
0.482383 0.676097 0.07187
0.535134 0.679713 0.0754864
0.588403 0.683009 0.0787976
0.640543 0.686397 0.0821851
0.689906 0.690288 0.0860609
0.734874 0.695048 0.090837
0.774395 0.700954 0.0967422
0.809262 0.707713 0.103502
0.840024 0.715175 0.110964
0.867262 0.72311 0.118898
0.891524 0.731334 0.127123
0.913436 0.739651 0.135454
0.933455 0.74789 0.143679
0.951827 0.755932 0.151736
0.968841 0.76379 0.159594
0.984833 0.77142 0.167224
1 0.778775 0.174578
1 0.785794 0.181598
0 0.604868 0
0.0122835 0.616526 0
0.0319066 0.628443 0
0.0519875 0.640513 0
0.0729076 0.652567 0.0043183
0.0951095 0.664454 0.0162203
0.118959 0.676036 0.0278019
0.144976 0.687129 0.03888
0.174151 0.697429 0.0491798
0.207462 0.706615 0.058381
0.245884 0.714397 0.0661479
0.290578 0.720394 0.0721599
0.340734 0.724819 0.076585
0.393637 0.728344 0.0800946
0.44654 0.73167 0.0834363
0.497566 0.735271 0.0870375
0.549722 0.738293 0.0900587
0.602274 0.740871 0.0926528
0.653574 0.74345 0.0952163
0.702007 0.74638 0.0981613
0.745937 0.750118 0.101884
0.784314 0.754849 0.10663
0.817899 0.760357 0.112139
0.847288 0.76643 0.118212
0.87303 0.772885 0.124666
0.895735 0.779553 0.131334
0.916091 0.786328 0.138109
0.934646 0.793088 0.144869
0.951644 0.799771 0.151553
0.967376 0.806332 0.158114
0.982086 0.812696 0.164492
0.996078 0.818845 0.170626
1 0.824674 0.176455
0.0125124 0.660777 0
0.0327306 0.673075 0
0.0529183 0.685573 0.00122072
0.0734569 0.6981 0.0137331
0.0947433 0.710491 0.0261387
0.117174 0.722622 0.0382696
0.141146 0.73434 0.0499733
0.167178 0.745449 0.0610819
0.196277 0.755657 0.0713054
0.229389 0.76463 0.0802777
0.267491 0.772091 0.0877546
0.311757 0.777676 0.0933394
0.361379 0.781567 0.0972152
0.413657 0.784451 0.100099
0.465797 0.787015 0.102678
0.515953 0.789761 0.105409
0.567132 0.791806 0.107454
0.618601 0.793301 0.108965
0.668711 0.794675 0.110338
0.715846 0.796323 0.111986
0.758343 0.798627 0.11429
0.795193 0.801846 0.11751
0.827207 0.805783 0.121447
0.85507 0.81033 0.125994
0.879393 0.815351 0.131014
0.900755 0.820691 0.136355
0.919829 0.826169 0.141833
0.937133 0.831678 0.147356
0.952926 0.837171 0.152834
0.967498 0.842573 0.158236
0.981109 0.847822 0.1635
0.994003 0.852872 0.168551
1 0.857664 0.173342
0.0388342 0.71664 0.00274662
0.0593729 0.729259 0.0153658
0.0797589 0.741955 0.0280461
0.100374 0.754559 0.0406653
0.121645 0.766934 0.0530404
0.143938 0.778943 0.0650339
0.167666 0.790402 0.0765087
0.193362 0.801175 0.0872663
0.221988 0.81091 0.0970016
0.25452 0.819318 0.105425
0.291951 0.826093 0.1122
0.335439 0.830884 0.116991
0.384161 0.833875 0.119982
0.435401 0.835737 0.121843
0.486427 0.837186 0.123293
0.535348 0.838682 0.124788
0.585184 0.839384 0.12549
0.635187 0.839429 0.125536
0.683757 0.839246 0.125368
0.72932 0.839338 0.125444
0.770321 0.840146 0.126253
0.805768 0.841962 0.128084
0.836484 0.844587 0.130709
0.863081 0.847868 0.133989
0.886152 0.851667 0.137789
0.90634 0.855802 0.141924
0.924269 0.860151 0.146273
0.940459 0.864561 0.150668
0.9552 0.868971 0.155093
0.968734 0.87335 0.159472
0.981353 0.877623 0.163745
0.993317 0.881727 0.167849
1 0.885618 0.17174
0.069749 0.771557 0.0336461
0.0902266 0.784115 0.0462043
0.11043 0.796628 0.058732
0.13077 0.808957 0.071046
0.151644 0.820951 0.0830396
0.173434 0.832441 0.0945296
0.196567 0.843305 0.105394
0.22153 0.85333 0.115419
0.249317 0.862226 0.124331
0.280903 0.869703 0.131792
0.317281 0.875425 0.137514
0.359609 0.879042 0.141146
0.40705 0.880751 0.142855
0.456916 0.881224 0.143328
0.506432 0.881178 0.143282
0.55378 0.881117 0.143221
0.60209 0.880278 0.142382
0.650629 0.878859 0.140963
0.697841 0.877333 0.139437
0.742107 0.876112 0.138216
0.781857 0.875669 0.137774
0.816083 0.87628 0.138384
0.845624 0.877729 0.139834
0.871077 0.879881 0.142
0.893065 0.882582 0.144686
0.9122 0.885679 0.147784
0.929122 0.889006 0.15111
0.94435 0.892439 0.154559
0.958144 0.895933 0.158053
0.97081 0.899428 0.161532
0.982574 0.902846 0.164965
0.993729 0.906157 0.168276
1 0.909285 0.171405
0.103258 0.824567 0.067155
0.123293 0.836683 0.0792706
0.142962 0.848646 0.091249
0.162646 0.860319 0.102922
0.182742 0.87155 0.114137
0.203677 0.88217 0.124773
0.225818 0.892042 0.134646
0.249683 0.900969 0.143572
0.276265 0.908675 0.151278
0.306554 0.914824 0.157427
0.341497 0.919127 0.16173
0.382284 0.921218 0.163821
0.428168 0.921355 0.163958
0.476509 0.920317 0.162921
0.52462 0.918837 0.16144
0.570642 0.917449 0.160052
0.617655 0.915328 0.157931
0.664958 0.912673 0.155276
0.710964 0.909941 0.152544
0.754086 0.907561 0.150179
0.792706 0.906004 0.148623
0.825864 0.905531 0.14815
0.854368 0.905959 0.148577
0.878828 0.907118 0.149722
0.899855 0.908858 0.151476
0.918074 0.91104 0.153658
0.934112 0.913497 0.156115
0.948516 0.916106 0.158724
0.961532 0.918807 0.161425
0.973434 0.921553 0.164172
0.984497 0.924269 0.166888
0.994995 0.926909 0.169528
1 0.929412 0.17203
0.137346 0.874678 0.101259
0.156588 0.886 0.112566
0.175341 0.897063 0.123629
0.194003 0.907698 0.134279
0.21297 0.9178 0.144366
0.232654 0.927169 0.153735
0.253437 0.935683 0.162249
0.275837 0.94316 0.169726
0.300862 0.949294 0.17586
0.329595 0.953887 0.180468
0.363058 0.956695 0.183276
0.402457 0.957412 0.183978
0.447044 0.956237 0.182818
0.494118 0.953933 0.180514
0.540993 0.951232 0.177813
0.585824 0.948653 0.175235
0.631708 0.945388 0.171969
0.677913 0.941634 0.168215
0.72285 0.937835 0.164416
0.764935 0.934447 0.161028
0.802579 0.931899 0.15848
0.834806 0.930495 0.157076
0.862409 0.930022 0.156603
0.886015 0.930327 0.156909
0.906233 0.931258 0.157839
0.923674 0.932662 0.159243
0.938979 0.934386 0.160967
0.952682 0.936309 0.16289
0.965042 0.938354 0.164935
0.976333 0.940475 0.167071
0.986847 0.942641 0.169223
0.996826 0.944778 0.171359
1 0.946822 0.173404
0.170047 0.920974 0.133944
0.188113 0.931121 0.144091
0.20557 0.940887 0.153857
0.222843 0.950149 0.163119
0.240314 0.958724 0.171695
0.258412 0.966537 0.179507
0.277668 0.97351 0.186481
0.298619 0.979522 0.192508
0.322301 0.984329 0.197299
0.349737 0.987625 0.200595
0.381949 0.989181 0.202152
0.420142 0.988678 0.201648
0.463554 0.986343 0.199313
0.509499 0.98291 0.19588
0.555291 0.979126 0.192096
0.599084 0.975509 0.188479
0.643946 0.971222 0.184207
0.689189 0.966506 0.179477
0.733211 0.961791 0.174762
0.774411 0.957504 0.170489
0.811215 0.954131 0.167102
0.842634 0.951919 0.164904
0.869474 0.950683 0.163668
0.892363 0.950271 0.163256
0.911894 0.950515 0.1635
0.928695 0.951293 0.164279
0.94342 0.952422 0.165408
0.956588 0.953796 0.166781
0.96846 0.955367 0.168353
0.979309 0.957046 0.170031
0.98938 0.958785 0.171771
0.998962 0.96051 0.173495
1 0.962158 0.175143
0.199725 0.962356 0.163622
0.216236 0.970947 0.172213
0.232136 0.979156 0.180423
0.247898 0.986908 0.188174
0.263951 0.994064 0.195346
0.280735 1 0.201831
0.298711 1 0.207523
0.318425 1 0.212314
0.340917 1 0.2159
