luts/color5.cube
TITLE "Generated by Resolve"
LUT_3D_SIZE 5
0 0.00254826 0.0419623
0.0783398 0.00155642 0.0409705
0.381003 0 0
0.736934 0 0
0.893904 0 0
0 0.129915 0.027924
0.0775769 0.142184 0.0401923
0.410132 0.120867 0.0188754
0.814038 0.106798 0.00480659
1 0.165072 0.0630961
0 0.44152 0
0.0496071 0.50956 0.0122377
0.420539 0.526619 0.0292973
0.844236 0.532341 0.0350042
1 0.591485 0.0941482
0 0.851423 0.0215
0.12224 0.914794 0.0848554
0.476097 0.914778 0.0848402
0.863767 0.884474 0.0545357
1 0.896162 0.0662394
0.0851759 1 0.169757
0.221866 1 0.184482
0.532601 1 0.141344
0.888548 1 0.0793317
1 1 0.0703899
0 0 0.196551
0.0750896 0 0.195254
0.37821 0 0.144488
0.736095 0 0.0843977
0.896834 0 0.089128
0 0.130159 0.185702
0.0824598 0.147066 0.202609
0.421607 0.132342 0.187884
0.832547 0.125307 0.18085
1 0.186007 0.24155
0 0.461494 0.121691
0.070161 0.530129 0.190326
0.440986 0.547066 0.207279
0.864912 0.553017 0.213214
1 0.609369 0.269581
0 0.871427 0.199039
0.138369 0.930922 0.258518
0.486336 0.925017 0.252613
0.869001 0.889708 0.217304
1 0.897475 0.225071
0.0888533 1 0.330968
0.222141 1 0.34229
0.5308 1 0.297078
0.885573 1 0.233875
1 1 0.224643
0 0 0.52079
0.0586404 0 0.518944
0.362707 0 0.469139
0.723079 0 0.411521
0.888411 0 0.420844
0 0.118502 0.514183
0.0762036 0.14081 0.536507
0.422568 0.133303 0.528984
0.839261 0.132021 0.527703
1 0.193423 0.58912
0 0.469047 0.469398
0.0766003 0.536568 0.536904
0.448661 0.554742 0.555093
0.871794 0.559899 0.560235
1 0.612451 0.612802
0 0.877272 0.545022
0.13933 0.931884 0.599619
0.481575 0.920256 0.588006
0.859602 0.880308 0.548043
1 0.884627 0.552377
0.0780346 1 0.660288
0.208423 1 0.668727
0.515312 1 0.621729
0.8692 1 0.557641
1 1 0.54844
0 0 0.794797
0.0462196 0 0.792905
0.351766 0 0.744579
0.71519 0 0.690028
0.885878 0 0.704707
0 0.112352 0.79443
0.0760815 0.140688 0.822766
0.429923 0.140658 0.822736
0.85066 0.14342 0.825498
1 0.203815 0.885893
0 0.480674 0.767407
0.0870375 0.54699 0.833722
0.460288 0.566369 0.853101
0.88159 0.569696 0.856428
1 0.617456 0.904189
0 0.885679 0.839811
0.142092 0.934646 0.888777
0.478996 0.917678 0.871809
0.85275 0.873457 0.827588
1 0.874861 0.828977
0.0699016 1 0.938537
0.197894 1 0.944579
0.503304 1 0.896117
0.856626 1 0.831464
1 0.997864 0.822568
0 0 0.917052
0.0459297 0 0.915633
0.353475 0 0.869307
0.720714 0 0.81857
0.897383 0 0.839216
0 0.119844 0.924941
0.0901961 0.154803 0.959899
0.451011 0.161746 0.966842
0.874083 0.166842 0.971939
1 0.225986 1
0 0.503685 0.913436
0.110018 0.56997 0.979721
0.483436 0.589517 0.999268
0.9019 0.590005 0.999756
1 0.632166 1
0 0.904204 0.981353
0.154726 0.94728 1
0.486641 0.925322 1
0.856489 0.877195 0.954345
1 0.876158 0.953307
0.0726177 1 1
0.19855 1 1
0.5028 1 1
0.855848 1 0.953704
1 0.997711 0.945434
