luts/color1.cube
TITLE "Generated by Resolve"
LUT_3D_SIZE 5
0.00959792 0 0
0.0985428 0 0
0.379538 0 0
0.626642 0 0
0.719738 0 0
0.0144198 0.0818036 0
0.114244 0.0927749 0
0.423255 0.0671855 0
0.722744 0.0778668 0
0.893309 0.163607 0.0601968
0 0.36054 0
0.132769 0.452049 0.00782788
0.50692 0.491539 0.0473335
0.847669 0.543511 0.099321
1 0.634348 0.190173
0.103258 0.824567 0.067155
0.276265 0.908675 0.151278
0.617655 0.915328 0.157931
0.899855 0.908858 0.151476
1 0.929412 0.17203
0.292683 1 0.256565
0.396887 1 0.271839
0.686183 1 0.226337
0.933837 1 0.185412
1 1 0.185321
0.0096437 0 0.0643626
0.098436 0 0.064332
0.379614 0 0.0109712
0.628428 0 0
0.724834 0 0
0.0172122 0.0845808 0.0719005
0.121263 0.099794 0.0871138
0.438071 0.0819715 0.0693065
0.74902 0.104112 0.0914626
0.925872 0.19617 0.18352
0 0.390204 0.0367437
0.16527 0.48452 0.131075
0.538796 0.523339 0.169909
0.879835 0.575647 0.222232
1 0.661097 0.307698
0.134096 0.85539 0.188754
0.299657 0.932052 0.265415
0.63241 0.930037 0.263416
0.908309 0.917281 0.250675
1 0.933715 0.267109
0.299351 1 0.353994
0.400229 1 0.365927
0.687449 1 0.318334
0.933883 1 0.276219
1 1 0.275853
0 0 0.431693
0.0779126 0 0.430838
0.359808 0 0.37818
0.610849 0 0.340383
0.711406 0 0.356146
0.000823987 0.0681773 0.442557
0.110246 0.0887465 0.463127
0.436057 0.0799115 0.454322
0.758206 0.113298 0.487709
0.938109 0.208392 0.582818
0 0.401617 0.435218
0.176242 0.495445 0.529076
0.55111 0.535607 0.569268
0.890501 0.586297 0.619959
1 0.664424 0.698116
0.142763 0.864042 0.584466
0.299413 0.931777 0.652216
0.624491 0.922072 0.642527
0.894804 0.903761 0.624231
0.992584 0.916808 0.637278
0.284352 1 0.72604
0.382452 1 0.73521
0.667903 1 0.685832
0.913451 1 0.642847
0.997864 1 0.642542
0 0 0.726116
0.0627756 0 0.724941
0.345937 0 0.673503
0.59971 0 0.638468
0.705531 0 0.65948
0 0.0584878 0.742123
0.107195 0.0856794 0.769314
0.443381 0.0872053 0.77084
0.774853 0.129915 0.813565
0.954513 0.224796 0.908446
0.0111696 0.419257 0.762127
0.191867 0.51104 0.853925
0.568841 0.553292 0.896193
0.904646 0.600427 0.943328
1 0.669688 1
0.154192 0.875471 0.905119
0.301656 0.933989 0.963668
0.619776 0.917327 0.94699
0.885222 0.894179 0.923858
0.980194 0.904402 0.934096
0.273579 1 1
0.369299 1 1
0.653284 1 0.980392
0.898268 0.993957 0.936858
0.983001 0.993973 0.936889
0 0 0.814649
0.0630198 0 0.813672
0.347936 0 0.763989
0.605035 0 0.732296
0.717418 0 0.759854
0 0.0657664 0.837919
0.122347 0.100801 0.872953
0.470039 0.113817 0.885969
0.80763 0.162676 0.934829
0.985168 0.255436 1
0.0437781 0.45185 0.883238
0.223926 0.543084 0.974487
0.601129 0.585519 1
0.931426 0.627161 1
1 0.687221 1
0.177523 0.898787 1
0.316396 0.948714 1
0.62829 0.925795 1
0.889647 0.898589 1
0.982208 0.906401 1
0.277012 1 1
0.370672 1 1
0.653513 1 1
0.898207 0.993881 1
0.983597 0.994568 1
