luts/color1.cube
TITLE "Generated by Resolve"
LUT_3D_SIZE 9
0.00959792 0 0
0.0447089 0 0
0.0985428 0 0
0.216846 0 0
0.379538 0 0
0.534035 0 0
0.626642 0 0
0.679454 0 0
0.719738 0 0
0.0152285 0.0341192 0
0.0497749 0.0361639 0
0.103777 0.0338293 0
0.224155 0.0151522 0
0.390784 0 0
0.551141 0 0
0.651942 0 0
0.716106 0 0
0.771664 0 0
0.0144198 0.0818036 0
0.0536202 0.0884871 0
0.114244 0.0927749 0
0.243915 0.08336 0
0.423255 0.0671855 0
0.600458 0.059968 0
0.722744 0.0778668 0
0.812451 0.115816 0.0123903
0.893309 0.163607 0.0601968
0 0.176165 0
0.0356146 0.196979 0
0.114763 0.219776 0
0.267735 0.233616 0.00369268
0.473091 0.243473 0.01355
0.674296 0.260243 0.0303349
0.813504 0.295094 0.0651865
0.908965 0.338796 0.108888
0.990402 0.387167 0.157275
0 0.36054 0
0.0315557 0.407202 0
0.132769 0.452049 0.00782788
0.298863 0.478981 0.0347753
0.50692 0.491539 0.0473335
0.708324 0.508522 0.0643168
0.847669 0.543511 0.099321
0.944472 0.588571 0.144396
1 0.634348 0.190173
0 0.604868 0
0.0729076 0.652567 0.0043183
0.174151 0.697429 0.0491798
0.340734 0.724819 0.076585
0.549722 0.738293 0.0900587
0.745937 0.750118 0.101884
0.87303 0.772885 0.124666
0.951644 0.799771 0.151553
1 0.824674 0.176455
0.103258 0.824567 0.067155
0.182742 0.87155 0.114137
0.276265 0.908675 0.151278
0.428168 0.921355 0.163958
0.617655 0.915328 0.157931
0.792706 0.906004 0.148623
0.899855 0.908858 0.151476
0.961532 0.918807 0.161425
1 0.929412 0.17203
0.225299 0.998169 0.189197
0.284367 1 0.215747
0.356863 1 0.231846
0.489937 1 0.225666
0.663447 1 0.203662
0.825147 0.98999 0.181018
0.921645 0.982193 0.173236
0.97499 0.983841 0.174884
1 0.988022 0.179049
0.292683 1 0.256565
0.336736 1 0.268101
0.396887 1 0.271839
0.520241 1 0.255909
0.686183 1 0.226337
0.842008 1 0.197833
0.933837 1 0.185412
0.983658 1 0.183536
1 1 0.185321
0.00982681 0 0.0160372
0.0451667 0 0.0188754
0.0987259 0 0.0161288
0.216953 0 0
0.379751 0 0
0.534539 0 0
0.627649 0 0
0.681132 0 0
0.722301 0 0
0.0153506 0.034226 0.0215457
0.0500649 0.0364385 0.0237583
0.104433 0.0344854 0.0218204
0.225391 0.0163729 0.00369268
0.392782 0 0
0.554131 0 0
0.656413 0 0
0.722499 0 0
0.780423 0.00224308 0
0.0158999 0.0832685 0.0220951
0.0559091 0.0907759 0.0296025
0.117708 0.0962387 0.0350652
0.249042 0.0884718 0.0272984
0.430472 0.0743877 0.0132143
0.610208 0.0697032 0.00854505
0.735622 0.0907301 0.0295567
0.82771 0.131075 0.0699016
0.909743 0.180041 0.118883
0 0.181979 0
0.0437018 0.205051 0.0173648
0.125566 0.230564 0.0428931
0.281621 0.247486 0.0598154
0.48893 0.259281 0.0716259
0.690867 0.276799 0.0891432
0.829633 0.311192 0.123552
0.924575 0.354391 0.166751
1 0.403601 0.215961
0 0.375265 0
0.0478065 0.423438 0.0214694
0.149325 0.468574 0.0666209
0.314519 0.494606 0.0926528
0.522942 0.507515 0.105577
0.72488 0.525063 0.123125
0.864073 0.559899 0.157977
0.959991 0.604089 0.202167
1 0.648295 0.246372
0.00801099 0.620157 0.0141756
0.089189 0.668833 0.0628519
0.190738 0.714 0.108003
0.356909 0.740978 0.134997
0.564767 0.753307 0.147341
0.759121 0.763302 0.157321
0.883741 0.783581 0.17763
0.960235 0.808347 0.202396
1 0.831403 0.225452
0.119081 0.840391 0.125231
0.197192 0.885985 0.17084
0.288609 0.921004 0.205859
0.438087 0.931243 0.216098
0.625559 0.923201 0.208072
0.798856 0.912139 0.197009
0.904509 0.913512 0.198383
0.964965 0.92224 0.207111
1 0.931899 0.21677
0.23444 1 0.240574
0.291585 1 0.265217
0.362432 1 0.279652
0.494133 1 0.272099
0.666514 1 0.248966
0.82739 0.992203 0.225498
0.923232 0.98378 0.217075
0.976059 0.984894 0.218189
1 0.988663 0.221958
0.296422 1 0.302556
0.339452 1 0.313069
0.398886 1 0.316075
0.521645 1 0.29955
0.687099 1 0.26949
0.842542 1 0.240604
0.934112 1 0.227924
0.98378 1 0.22591
1 1 0.227665
0.0096437 0 0.0643626
0.0450752 0 0.0672923
0.098436 0 0.064332
0.216648 0 0.0435035
0.379614 0 0.0109712
0.534783 0 0
0.628428 0 0
0.682673 0 0
0.724834 0 0
0.0150607 0.0339361 0.0697642
0.0500343 0.036408 0.0722362
0.104845 0.0348821 0.0707256
0.226429 0.0173953 0.0532235
0.394644 0 0.0259403
0.557153 0 0.00401312
0.661051 0 0.00350958
0.729213 0 0.0199283
0.789685 0.01149 0.0473335
0.0172122 0.0845808 0.0719005
0.0581216 0.0929885 0.0803082
0.121263 0.099794 0.0871138
0.254398 0.0938125 0.0811475
0.438071 0.0819715 0.0693065
0.620508 0.0800031 0.0673381
0.74902 0.104112 0.0914626
0.843076 0.146426 0.133776
0.925872 0.19617 0.18352
0 0.188083 0.0489204
0.0522164 0.213565 0.074403
0.137087 0.242069 0.102907
0.295888 0.261723 0.122576
0.504738 0.275059 0.135912
0.706996 0.292912 0.15378
0.844877 0.326436 0.187304
0.940124 0.36994 0.230808
1 0.419715 0.280598
0 0.390204 0.0367437
0.0638437 0.43946 0.0860151
0.16527 0.48452 0.131075
0.329412 0.509468 0.156039
0.538796 0.523339 0.169909
0.741039 0.541207 0.187778
0.879835 0.575647 0.222232
0.97464 0.618723 0.265324
1 0.661097 0.307698
0.0232853 0.635431 0.0779431
0.105226 0.684871 0.127382
0.206836 0.730083 0.17261
0.372351 0.75639 0.198917
0.578836 0.767361 0.209903
0.771115 0.775265 0.217807
0.893263 0.793103 0.23566
0.967742 0.815854 0.258412
1 0.837156 0.279713
0.134096 0.85539 0.188754
0.210575 0.899367 0.232731
0.299657 0.932052 0.265415
0.44686 0.940002 0.273365
0.63241 0.930037 0.263416
0.804044 0.917311 0.25069
0.908309 0.917281 0.250675
0.96762 0.924895 0.258274
1 0.933715 0.267109
0.242466 1 0.297108
0.297795 1 0.319936
0.367071 1 0.332799
0.497475 1 0.323934
0.668833 1 0.299779
0.828977 0.993774 0.275578
0.924208 0.984756 0.26656
0.976547 0.985382 0.267185
1 0.988769 0.270573
0.299351 1 0.353994
0.341466 1 0.363592
0.400229 1 0.365927
0.522438 1 0.348837
0.687449 1 0.318334
0.842557 1 0.289113
0.933883 1 0.276219
0.983459 1 0.274098
1 1 0.275853
0.00389105 0 0.193469
0.0389715 0 0.196048
0.092195 0 0.19295
0.210468 0 0.172183
0.373663 0 0.139879
0.529259 0 0.11104
0.623529 0 0.100893
0.678584 0 0.104189
0.721889 0 0.114443
0.00892653 0.0278019 0.198505
0.0442054 0.0305791 0.201282
0.0995193 0.0295567 0.200275
0.22182 0.0127565 0.183474
0.390921 0 0.157076
0.554757 0 0.136492
0.660441 0 0.137774
0.730831 0 0.156435
0.793973 0.0157778 0.186526
0.0128786 0.0802472 0.202441
0.0548104 0.0896773 0.211872
0.119463 0.0979782 0.220188
0.254551 0.0939345 0.216159
0.44062 0.0845045 0.206729
0.626032 0.0854963 0.207736
0.75729 0.112383 0.234623
0.852934 0.156268 0.278523
0.93608 0.206378 0.328618
0 0.189044 0.184756
0.0557412 0.217075 0.212787
0.143755 0.248722 0.24445
0.304891 0.27071 0.266438
0.51487 0.285161 0.280903
0.717052 0.302937 0.298711
0.853849 0.335378 0.331151
0.950027 0.379843 0.375616
1 0.429938 0.425711
0 0.399741 0.18117
0.0740826 0.449699 0.231128
0.175006 0.494224 0.275669
0.33875 0.518776 0.300237
0.548913 0.53344 0.314916
0.751247 0.551369 0.332845
0.889372 0.585168 0.366659
0.982818 0.626902 0.408392
1 0.667201 0.448722
0.0329747 0.645106 0.222522
0.115434 0.695064 0.27248
0.216861 0.740093 0.31751
0.381491 0.765515 0.342947
0.586374 0.774868 0.3523
0.776318 0.780438 0.357885
0.896162 0.795987 0.373449
0.968704 0.816815 0.394278
1 0.836439 0.413916
0.142718 0.864012 0.33225
0.217334 0.906111 0.374365
0.303929 0.936309 0.404562
0.449027 0.942153 0.410407
0.632746 0.930358 0.398627
0.802808 0.91606 0.384344
0.90576 0.914733 0.383017
0.964034 0.921309 0.389593
1 0.929381 0.397681
0.243931 1 0.433463
0.29752 1 0.454536
0.365332 1 0.465934
0.494545 1 0.455863
0.664973 1 0.430793
0.824414 0.989212 0.405905
0.919081 0.979629 0.396323
0.970962 0.979797 0.396506
1 0.982849 0.399573
0.296025 1 0.485542
0.337331 1 0.494347
0.395453 1 0.49604
0.517143 1 0.478416
0.681743 1 0.447517
0.836561 1 0.418006
0.927703 1 0.404929
0.977203 1 0.402747
1 1 0.404562
0 0 0.431693
0.0247654 0 0.434012
0.0779126 0 0.430838
0.196307 0 0.410163
0.359808 0 0.37818
0.515892 0 0.349844
0.610849 0 0.340383
0.666789 0 0.344564
0.711406 0 0.356146
0 0.0137179 0.436591
0.0305028 0.0168612 0.439734
0.0863813 0.0164187 0.439292
0.209445 0.000366217 0.423255
0.379553 0 0.397879
0.544884 0 0.378775
0.652491 0 0.38201
0.725277 0 0.403037
0.791379 0.0131838 0.436088
0.000823987 0.0681773 0.442557
0.0439307 0.0787823 0.453162
0.110246 0.0887465 0.463127
0.24744 0.0868086 0.461189
0.436057 0.0799115 0.454322
0.624598 0.0840467 0.458457
0.758206 0.113298 0.487709
0.854994 0.158343 0.532753
0.938109 0.208392 0.582818
0 0.182788 0.430671
0.0522164 0.213535 0.461433
0.143313 0.248264 0.496178
0.306386 0.27216 0.520088
0.517067 0.287343 0.535286
0.718776 0.304646 0.55259
0.855116 0.336645 0.584588
0.952102 0.381888 0.629847
1 0.432074 0.680049
0 0.401617 0.435218
0.0762493 0.45185 0.485466
0.176242 0.495445 0.529076
0.340398 0.520409 0.554055
0.55111 0.535607 0.569268
0.753246 0.553368 0.58703
0.890501 0.586297 0.619959
0.982361 0.626413 0.660105
1 0.664424 0.698116
0.0348821 0.647013 0.4766
0.117647 0.697261 0.526864
0.218631 0.741863 0.57145
0.382132 0.766125 0.595743
0.585153 0.773617 0.60325
0.77261 0.776715 0.606348
0.890349 0.790158 0.619791
0.961044 0.80914 0.638773
1 0.827192 0.656855
0.142763 0.864042 0.584466
0.215259 0.904021 0.62446
0.299413 0.931777 0.652216
0.442512 0.935622 0.656062
0.624491 0.922072 0.642527
0.793057 0.90631 0.626749
0.894804 0.903761 0.624231
0.952148 0.909407 0.629877
0.992584 0.916808 0.637278
0.236744 1 0.678431
0.288685 1 0.697871
0.355123 1 0.707897
0.483207 1 0.696696
0.652827 1 0.670802
0.811627 0.97641 0.645289
0.90576 0.966293 0.635172
0.957229 0.966064 0.634943
0.993027 0.968811 0.63772
0.284352 1 0.72604
0.324926 1 0.734112
0.382452 1 0.73521
0.50367 1 0.717098
0.667903 1 0.685832
0.822461 1 0.656062
0.913451 1 0.642847
0.962921 1 0.640635
0.997864 1 0.642542
0 0 0.636332
0.0129702 0 0.638437
0.0661021 0 0.635248
0.18468 0 0.614755
0.348562 0 0.583139
0.505211 0 0.555337
0.6009 0 0.546639
0.657847 0 0.551827
0.70396 0 0.564874
0 0.0021973 0.641291
0.0194247 0.00578317 0.644877
0.0759442 0.00596628 0.64506
0.199832 0 0.629847
0.371115 0 0.605631
0.538079 0 0.588174
0.647776 0 0.593484
0.723095 0 0.61706
0.792325 0.0141299 0.653239
0 0.0589151 0.6495
0.0360266 0.0708782 0.661463
0.104143 0.0826429 0.673243
0.243595 0.082948 0.673548
0.434928 0.0787671 0.669367
0.626566 0.0859998 0.676616
0.762127 0.117205 0.70782
0.859648 0.162982 0.753613
0.942306 0.212589 0.80322
0 0.179858 0.643961
0.0523079 0.213626 0.677745
0.14612 0.251057 0.71519
0.310719 0.276478 0.740612
0.521721 0.291966 0.756115
0.722515 0.30837 0.772519
0.85919 0.340703 0.804868
0.956741 0.386526 0.85069
1 0.436561 0.90074
0 0.406165 0.656001
0.0806897 0.456275 0.706111
0.179644 0.498848 0.748684
0.344778 0.524758 0.774624
0.555779 0.540261 0.790127
0.757519 0.55761 0.807477
0.893629 0.58941 0.839292
0.983642 0.627695 0.877577
1 0.663218 0.913115
0.0394446 0.65156 0.697368
0.122255 0.701854 0.747662
0.222568 0.745769 0.791577
0.38468 0.768658 0.814466
0.585611 0.77406 0.819883
0.770611 0.774701 0.820539
0.886336 0.78613 0.831983
0.955276 0.803357 0.84921
1 0.819944 0.865797
0.14461 0.865888 0.802518
0.214755 0.903517 0.840162
0.296651 0.929 0.865644
0.437842 0.930922 0.867567
0.618158 0.915724 0.852384
0.785351 0.898573 0.835233
0.885954 0.894911 0.831571
0.942458 0.899718 0.836378
0.982269 0.906477 0.843153
0.231418 1 0.889326
0.281804 1 0.90721
0.34696 1 0.915923
0.474037 1 0.9037
0.642908 0.992004 0.877073
0.801114 0.965881 0.85095
0.894759 0.955276 0.84036
0.945846 0.954665 0.839765
0.981384 0.957168 0.842252
0.274861 1 0.932754
0.314763 1 0.940154
0.37174 1 0.940688
0.492531 1 0.922133
0.656428 1 0.890532
0.810758 1 0.860548
0.90164 0.997345 0.847227
0.951125 0.995132 0.845029
0.986175 0.997162 0.847044
0 0 0.726116
0.00959792 0 0.728084
0.0627756 0 0.724941
0.181613 0 0.704692
0.345937 0 0.673503
0.503197 0 0.646342
0.59971 0 0.638468
0.657801 0 0.6448
0.705531 0 0.65948
0 0 0.731365
0.0169833 0.00334173 0.735454
0.0742046 0.00421149 0.736339
0.198993 0 0.722011
0.371618 0 0.699138
0.540368 0 0.683482
0.652308 0 0.691035
0.730312 0 0.717296
0.802655 0.024445 0.756588
0 0.0584878 0.742123
0.0371252 0.0719615 0.755596
0.107195 0.0856794 0.769314
0.249058 0.0883955 0.77203
0.443381 0.0872053 0.77084
0.637766 0.0971847 0.780819
0.774853 0.129915 0.813565
0.872724 0.176059 0.859709
0.954513 0.224796 0.908446
0 0.186282 0.743435
0.0618906 0.223194 0.780346
0.158022 0.262943 0.820111
0.323735 0.289464 0.846632
0.53463 0.30486 0.862028
0.734356 0.320195 0.877363
0.871977 0.353491 0.910674
0.969848 0.399619 0.956817
1 0.449256 1
0.0111696 0.419257 0.762127
0.0932631 0.468833 0.811704
0.191867 0.51104 0.853925
0.357778 0.537728 0.880613
0.568841 0.553292 0.896193
0.769924 0.570001 0.912886
0.904646 0.600427 0.943328
0.992584 0.636622 0.979538
1 0.669688 1
0.0525216 0.664637 0.803479
0.135134 0.714733 0.853574
0.234546 0.757733 0.896574
0.395056 0.778988 0.917845
0.593622 0.782055 0.920897
0.776349 0.780423 0.91928
0.890135 0.789929 0.928786
0.957412 0.805493 0.944366
1 0.820676 0.959548
0.154192 0.875471 0.905119
0.221836 0.910597 0.940261
0.301656 0.933989 0.963668
0.441016 0.934081 0.963745
0.619776 0.917327 0.94699
0.785657 0.898863 0.928542
0.885222 0.894179 0.923858
0.940993 0.898238 0.927932
0.980194 0.904402 0.934096
0.233982 1 0.984909
0.282902 1 1
0.346853 1 1
0.473014 1 0.995697
0.64123 0.990295 0.968383
0.798856 0.963607 0.941711
0.892042 0.95256 0.930663
0.942809 0.951629 0.929717
0.978119 0.953902 0.932006
0.273579 1 1
0.31284 1 1
0.369299 1 1
0.489677 1 1
0.653284 1 0.980392
0.807446 1 0.95024
0.898268 0.993957 0.936858
0.947784 0.991791 0.934707
0.983001 0.993973 0.936889
0 0 0.771771
0.00944533 0 0.773663
0.0627604 0 0.770642
0.181903 0 0.750698
0.346731 0 0.720012
0.504677 0 0.693538
0.602075 0 0.686549
0.661494 0 0.694209
0.711025 0 0.710689
0 0 0.777539
0.0179904 0.00434882 0.782193
0.0759747 0.00598154 0.783841
0.201801 0 0.77052
0.375921 0 0.749157
0.546624 0 0.735439
0.660945 0 0.745388
0.741924 0 0.774624
0.817029 0.038819 0.816693
0 0.0617685 0.791135
0.0420691 0.0769055 0.806256
0.11426 0.0927291 0.822095
0.258686 0.0979934 0.827359
0.456138 0.0999466 0.829313
0.652857 0.112261 0.841627
0.791089 0.146136 0.875517
0.888884 0.192203 0.921584
0.969573 0.239841 0.969223
0.00315862 0.196963 0.799847
0.075639 0.236927 0.839811
0.173663 0.278584 0.881468
0.340078 0.305791 0.90869
0.550469 0.320684 0.923583
0.749783 0.335607 0.938521
0.888197 0.36968 0.972595
0.98613 0.4159 1
1 0.464897 1
0.0274662 0.435554 0.824155
0.108598 0.484169 0.87277
0.20766 0.526833 0.915434
0.374105 0.55404 0.942672
0.585 0.569421 0.958053
0.785168 0.585214 0.973861
0.918288 0.614054 1
1 0.647929 1
1 0.678691 1
0.068864 0.68098 0.865538
0.151034 0.730617 0.91519
0.249287 0.772473 0.957046
0.407935 0.791852 0.976425
0.604013 0.792416 0.977005
0.784634 0.788693 0.973281
0.89659 0.796368 0.980957
0.962295 0.810361 0.994949
1 0.824231 1
0.166201 0.88748 0.96286
0.231418 0.92018 0.995575
0.309224 0.941558 1
0.446876 0.93991 1
0.624155 0.921675 0.997086
0.788815 0.902007 0.977417
0.887449 0.896391 0.971801
0.94255 0.899794 0.975204
0.981186 0.905394 0.980804
0.239261 1 1
0.286793 1 1
0.349645 1 1
0.474998 1 1
0.642573 0.991623 1
0.79968 0.964416 0.988235
0.892454 0.952956 0.976776
0.942901 0.95172 0.97554
0.978042 0.953811 0.977646
0.275303 1 1
0.313985 1 1
0.369955 1 1
0.489982 1 1
0.65333 1 1
0.80734 1 0.99585
0.898131 0.993805 0.982437
0.947738 0.991745 0.980362
0.983154 0.994125 0.982757
0 0 0.814649
0.00953689 0 0.816526
0.0630198 0 0.813672
0.182544 0 0.794095
0.347936 0 0.763989
0.506645 0 0.738277
0.605035 0 0.732296
0.665949 0 0.741451
0.717418 0 0.759854
0 0.000488289 0.821134
0.01944 0.00578317 0.826429
0.0782635 0.00825513 0.828901
0.205264 0 0.81677
0.381048 0 0.79704
0.553826 0 0.785428
0.670695 0 0.797925
0.754803 0.0096437 0.830304
0.832273 0.0540627 0.874708
0 0.0657664 0.837919
0.0478828 0.0827192 0.854871
0.122347 0.100801 0.872953
0.269505 0.108797 0.880949
0.470039 0.113817 0.885969
0.668681 0.128069 0.900221
0.80763 0.162676 0.934829
0.904936 0.208255 0.980407
0.985168 0.255436 1
0.0151827 0.208988 0.854658
0.0903639 0.251652 0.897322
0.189883 0.294774 0.940459
0.356588 0.322286 0.967971
0.566079 0.336248 0.981949
0.765774 0.351568 0.997269
0.904723 0.386206 1
1 0.432242 1
1 0.480369 1
0.0437781 0.45185 0.883238
0.123888 0.499458 0.930846
0.223926 0.543084 0.974487
0.390677 0.570581 1
0.601129 0.585519 1
0.800168 0.600183 1
0.931426 0.627161 1
1 0.658564 1
1 0.687221 1
0.0853437 0.697444 0.924788
0.166812 0.746395 0.973754
0.263676 0.786847 1
0.420218 0.80412 1
0.61387 0.802258 1
0.792477 0.796506 1
0.902678 0.802441 1
0.966903 0.814954 1
1 0.827619 1
0.177523 0.898787 1
0.240497 0.929244 1
0.316396 0.948714 1
0.452399 0.945418 1
0.62829 0.925795 1
0.791836 0.905013 1
0.889647 0.898589 1
0.944091 0.901335 1
0.982208 0.906401 1
0.244236 1 1
0.290486 1 1
0.352316 1 1
0.476951 1 1
0.643931 0.99295 1
0.800549 0.96527 1
0.892943 0.953445 1
0.943145 0.951949 1
0.978134 0.953902 1
0.277012 1 1
0.315129 1 1
0.370672 1 1
0.490379 1 1
0.653513 1 1
0.807416 1 1
0.898207 0.993881 1
0.947936 0.991943 1
0.983597 0.994568 1
