luts/color3.cube
TITLE "Generated by Resolve"
LUT_3D_SIZE 33
0 0 0
0 0 0
0.00401312 0 0
0.0191653 0 0
0.034165 0 0
0.0489662 0 0
0.064622 0 0
0.0821241 0 0
0.102586 0 0
0.127596 0 0
0.158541 0 0
0.196628 0 0
0.241596 0 0
0.290272 0 0
0.339208 0 0
0.386816 0 0
0.435981 0 0
0.485023 0 0
0.531914 0 0
0.574624 0 0
0.611566 0 0
0.643107 0 0
0.670008 0 0
0.692988 0 0
0.713024 0 0
0.731014 0 0
0.74757 0 0
0.763333 0 0
0.778881 0 0
0.794827 0 0
0.811749 0 0
0.828168 0 0
0.84477 0 0
0 0.0130465 0
0 0.0130922 0
0.0056611 0.0130465 0
0.0209201 0.0128939 0
0.0357214 0.0127871 0
0.0503548 0.0126802 0
0.0658579 0.0122988 0
0.0832685 0.011368 0
0.103655 0.00962844 0
0.128634 0.00663767 0
0.159564 0.00202945 0
0.197681 0 0
0.242695 0 0
0.291432 0 0
0.340459 0 0
0.388205 0 0
0.437522 0 0
0.486748 0 0
0.533852 0 0
0.576791 0 0
0.614008 0 0
0.645838 0 0
0.67306 0 0
0.696406 0 0
0.716823 0 0
0.735225 0 0
0.752239 0 0
0.768475 0 0
0.784527 0 0
0.801053 0 0
0.818601 0 0
0.835721 0 0
0.853071 0 0
0 0.0273747 0
0 0.0272374 0
0.00665293 0.027039 0
0.0217746 0.0267491 0
0.0364843 0.0265507 0
0.0510567 0.0263676 0
0.0665293 0.0259556 0
0.0839246 0.0250095 0
0.104326 0.0232853 0
0.129366 0.0203403 0
0.160388 0.0158236 0
0.198627 0.00939956 0
0.243793 0.00115969 0
0.292699 0 0
0.341924 0 0
0.389883 0 0
0.43946 0 0
0.488975 0 0
0.5364 0 0
0.57966 0 0
0.617227 0 0
0.64947 0 0
0.677119 0 0
0.700908 0 0
0.721813 0 0
0.740734 0 0
0.758343 0 0
0.775219 0 0
0.792004 0 0
0.809293 0 0
0.827634 0 0
0.845579 0 0
0.863783 0 0
0 0.041001 0
0 0.0407568 0
0.00784314 0.0405127 0
0.0229343 0.0401923 0
0.037644 0.0399939 0
0.0522469 0.0398566 0
0.0677806 0.0394903 0
0.0852827 0.0386511 0
0.105806 0.0370336 0
0.130999 0.034226 0
0.162203 0.0298772 0
0.200671 0.0236667 0
0.246082 0.015671 0
0.295262 0.00675975 0
0.344762 0 0
0.393057 0 0
0.443 0 0
0.492897 0 0
0.540719 0 0
0.584421 0 0
0.622446 0 0
0.655161 0 0
0.68336 0 0
0.707759 0 0
0.729335 0 0
0.749004 0 0
0.767376 0 0
0.785061 0 0
0.802686 0 0
0.820844 0 0
0.840101 0 0
0.858991 0 0
0.878187 0 0
0 0.0544594 0
0 0.0542306 0
0.00903334 0.0540322 0
0.0242008 0.0537728 0
0.0390021 0.0536812 0
0.053727 0.053666 0
0.0694285 0.0534524 0
0.0871138 0.0527962 0
0.107866 0.0514076 0
0.133318 0.0488441 0
0.164813 0.04477 0
0.203586 0.0388495 0
0.249348 0.0311894 0
0.298894 0.0226444 0
0.348791 0.0141756 0
0.397513 0.00619516 0
0.447898 0 0
0.498268 0 0
0.546609 0 0
0.590875 0 0
0.629526 0 0
0.662943 0 0
0.691875 0 0
0.717052 0 0
0.739452 0 0
0.75996 0 0
0.779232 0 0
0.797833 0 0
0.816419 0 0
0.835584 0 0
0.855879 0 0
0.875837 0 0
0.896147 0.00230411 0
0 0.0682994 0
0 0.0681773 0
0.00999466 0.0681163 0
0.02533 0.06804 0
0.0403296 0.0681315 0
0.0552987 0.0683452 0
0.0712444 0.0683909 0
0.0892195 0.0680247 0
0.110307 0.0669413 0
0.13611 0.0647288 0
0.167987 0.0610208 0
0.207187 0.0555123 0
0.253376 0.0482795 0
0.303395 0.0402075 0
0.353796 0.0322271 0
0.403037 0.0247807 0
0.454017 0.0171206 0
0.505058 0.00973526 0
0.554101 0.00317388 0
0.599115 0 0
0.63856 0 0
0.672801 0 0
0.702602 0 0
0.728679 0 0
0.75201 0 0
0.773495 3.0518e-05 0
0.793774 0.00407416 0
0.813428 0.00866712 0
0.833082 0.0137026 0
0.853376 0.0189975 0
0.874815 0.024445 0
0.895964 0.0304265 0
0.91751 0.0367895 0
0 0.0830701 0
0 0.0831617 0
0.0105287 0.0833295 0
0.0261387 0.0835279 0
0.0414282 0.0839246 0
0.0567178 0.0844587 0
0.0730297 0.0848554 0
0.0914015 0.0848707 0
0.112902 0.0841993 0
0.139162 0.0824292 0
0.171527 0.0791943 0
0.211231 0.0741894 0
0.258 0.0675059 0
0.308629 0.0600443 0
0.359716 0.0527504 0
0.409705 0.0460365 0
0.461463 0.0391699 0
0.513298 0.0325933 0
0.563195 0.0268711 0
0.609079 0.0225986 0
0.649439 0.0201724 0
0.684627 0.0195163 0
0.715389 0.0204623 0
0.742489 0.0227817 0
0.766873 0.0262608 0
0.789456 0.0306554 0
0.810849 0.0358282 0
0.831678 0.0415961 0
0.852552 0.047837 0
0.874067 0.0543832 0
0.896742 0.0610513 0
0.919081 0.0682231 0
0.941711 0.0756695 0
0 0.0993057 0
0 0.0997024 0
0.0104219 0.100221 0
0.0263981 0.100771 0
0.0420844 0.101564 0
0.0578012 0.102525 0
0.0745708 0.103395 0
0.093431 0.103883 0
0.11545 0.103731 0
0.142306 0.102541 0
0.175326 0.0999466 0
0.215763 0.0956283 0
0.263279 0.0897078 0
0.314702 0.0830243 0
0.366598 0.0765545 0
0.417441 0.0707103 0
0.470115 0.0647288 0
0.522881 0.0590829 0
0.573724 0.0543374 0
0.620615 0.0510567 0
0.661997 0.0496681 0
0.698238 0.0500954 0
0.730114 0.0521401 0
0.758343 0.0556191 0
0.783902 0.0602731 0
0.807706 0.0658885 0
0.830335 0.0722972 0
0.852384 0.0793011 0
0.874403 0.0866865 0
0.896986 0.0942855 0
0.920623 0.1019 0
0.943816 0.109926 0.00476081
0.967178 0.118135 0.0129702
0 0.117647 0
0 0.118441 0
0.00929274 0.119402 0
0.0257267 0.120409 0
0.0419165 0.121706 0
0.0581674 0.123201 0
0.0755474 0.124666 0
0.0950637 0.125826 0.000320439
0.11783 0.12639 0.000900282
0.145449 0.125963 0.000457771
0.179278 0.124163 0
0.220569 0.120684 0
0.268971 0.115633 0
0.321309 0.109865 0
0.374136 0.104341 0
0.425971 0.0994583 0
0.479637 0.0944991 0
0.533455 0.0898909 0
0.585397 0.0862287 0
0.633387 0.0840772 0
0.675914 0.0838483 0
0.713344 0.0854658 0
0.746441 0.0887617 0
0.775906 0.0934768 0
0.80267 0.0993362 0
0.827588 0.106081 0
0.85124 0.113497 0
0.874205 0.121416 0
0.897047 0.12961 0.00411994
0.920348 0.137926 0.0124361
0.944579 0.146166 0.020676
0.968292 0.154711 0.029221
0.992096 0.163333 0.0378424
0 0.13875 0
0 0.140063 0
0.00660716 0.141573 0
0.0236667 0.143221 0
0.040528 0.14519 0
0.0575418 0.147433 0
0.0756847 0.149676 0
0.0960403 0.151644 0.00123598
0.119646 0.153063 0.00267033
0.148165 0.153521 0.00311284
0.182925 0.152636 0.00224308
0.225177 0.150103 0
0.274586 0.146044 0
0.327947 0.141299 0
0.381842 0.136828 0
0.434775 0.133059 0
0.489586 0.129213 0
0.544564 0.12578 0
0.597696 0.123339 0
0.646922 0.122423 0
0.690669 0.12343 0
0.729274 0.126238 0
0.763455 0.130602 0
0.793881 0.136294 0
0.82153 0.143038 0
0.847227 0.150576 0.000183108
0.87155 0.158663 0.00828565
0.895094 0.167163 0.0167849
0.918425 0.17586 0.0254673
0.942107 0.184543 0.034165
0.966644 0.193072 0.0426947
0.990524 0.201801 0.0514229
1 0.210513 0.0601358
0 0.163333 0
0 0.165362 0
0.00231937 0.16762 0
0.0201724 0.170062 0
0.0378729 0.172869 0
0.0557259 0.175967 0
0.0747845 0.17911 0
0.0960708 0.18201 0.00123598
0.120668 0.184405 0.00363165
0.150179 0.18584 0.00508125
0.186007 0.186007 0.00523384
0.229343 0.184543 0.00378424
0.279866 0.181582 0.000823987
0.334386 0.177981 0
0.389456 0.174701 0
0.44361 0.172152 0
0.499672 0.169558 0
0.555871 0.167346 0
0.610132 0.166049 0
0.660395 0.166186 0
0.705074 0.168139 0
0.744518 0.171786 0
0.779431 0.176898 0
0.810513 0.183246 0.00248722
0.838697 0.190539 0.00978103
0.864836 0.198505 0.0177615
0.889509 0.206958 0.026215
0.913298 0.215702 0.0349584
0.936782 0.224537 0.0437934
0.96051 0.23328 0.0525368
0.984985 0.241749 0.0610208
1 0.25034 0.0695964
1 0.258793 0.0780652
0 0.192294 0
0 0.195163 0
0 0.198291 0
0.0150149 0.201648 0
0.0336461 0.205386 0
0.0525063 0.209476 0
0.0725719 0.213626 0
0.0949111 0.217578 4.57771e-05
0.120607 0.221057 0.00352483
0.151263 0.223621 0.00608835
0.188251 0.224933 0.00740063
0.232792 0.224674 0.00714122
0.284566 0.22295 0.00541695
0.340322 0.220584 0.0030518
0.396597 0.218494 0.000976577
0.45185 0.21706 0
0.508919 0.215473 0
0.566033 0.214176 0
0.621103 0.213687 0
0.672068 0.214527 0
0.717357 0.21709 0
0.75729 0.221256 0.00373846
0.792615 0.22678 0.00926223
0.824002 0.233448 0.0159304
0.852384 0.24094 0.0234379
0.878645 0.249027 0.0315251
0.903319 0.257496 0.0399939
0.927031 0.266148 0.0486458
0.950317 0.2748 0.0572976
0.97377 0.283253 0.0657664
0.997864 0.291341 0.0738537
1 0.299443 0.0819562
1 0.307591 0.0901045
0 0.226047 0
0 0.229862 0
0 0.233997 0
0.00852979 0.238376 0
0.0282444 0.243183 0
0.048188 0.248371 0
0.069398 0.253651 0
0.0929122 0.258778 0
0.119829 0.263478 0.00268559
0.15172 0.267277 0.00650034
0.18996 0.269825 0.0090486
0.235691 0.270726 0.00994888
0.288533 0.270069 0.00929274
0.345281 0.268666 0.00790417
0.402411 0.26746 0.00669871
0.458457 0.266789 0.00602731
0.516197 0.265873 0.00511177
0.573877 0.265156 0.0043946
0.629419 0.265141 0.00437934
0.680751 0.266361 0.00560006
0.726299 0.2692 0.0084535
0.766415 0.273533 0.0127871
0.801801 0.279149 0.0184024
0.833158 0.285786 0.0250401
0.861418 0.293172 0.0324254
0.887449 0.30103 0.0402991
0.911803 0.309178 0.0484321
0.935088 0.317418 0.056672
0.957916 0.325612 0.0648814
0.981155 0.333852 0.0731212
1 0.342 0.0812695
1 0.350439 0.0897078
1 0.358968 0.0982376
0 0.264363 0
0 0.269261 0
0 0.274495 0
0.00273136 0.280018 0
0.023621 0.28603 0
0.0448005 0.292439 0
0.0672618 0.29897 0
0.0919814 0.305303 0
0.120043 0.311131 0.00285344
0.153002 0.315969 0.00770581
0.192172 0.319432 0.0111849
0.238743 0.321172 0.0129091
0.292348 0.321248 0.0130007
0.349722 0.3205 0.012253
0.407401 0.319829 0.0115816
0.463874 0.3196 0.0113527
0.521965 0.31902 0.0107729
0.579873 0.318532 0.0102998
0.635554 0.318669 0.0104219
0.686931 0.319921 0.0116884
0.732403 0.322713 0.0144808
0.772351 0.326909 0.018677
0.807462 0.33225 0.0240177
0.838468 0.338537 0.0303044
0.866255 0.345449 0.037232
0.891905 0.352941 0.0447089
0.916136 0.360952 0.0527352
0.93959 0.36936 0.0611429
0.962814 0.377935 0.0697337
0.986404 0.386542 0.0783246
1 0.39498 0.0867781
1 0.403662 0.0954604
1 0.412375 0.104173
0 0.306905 0
0 0.313008 0
0 0.319493 0
0 0.326253 0
0.021912 0.33344 0
0.0441901 0.340963 0
0.0676585 0.348486 0
0.0932784 0.355718 0
0.122148 0.362341 0.00491341
0.15581 0.36788 0.0104524
0.19559 0.371954 0.0145266
0.242695 0.374182 0.0167697
0.296696 0.37467 0.0172427
0.354391 0.374212 0.0168002
0.412268 0.373754 0.0163424
0.468849 0.373617 0.0162203
0.52694 0.373053 0.0156405
0.584756 0.372457 0.0150607
0.640238 0.372396 0.0149996
0.691295 0.373373 0.0159762
0.73637 0.375769 0.0183871
0.775845 0.379492 0.0220951
0.810666 0.384543 0.0271611
0.841627 0.390814 0.0334325
0.869688 0.398001 0.0406195
0.89572 0.405875 0.0484932
0.920287 0.414237 0.0568551
0.944015 0.422919 0.0655375
0.967453 0.431708 0.074342
0.991211 0.440467 0.0831006
1 0.449012 0.0916457
1 0.45774 0.100374
1 0.466423 0.109071
0 0.353323 0
0 0.360586 0
0 0.368139 0
0.0011902 0.37586 0
0.0241398 0.383917 0
0.0471809 0.392203 0
0.0713207 0.400381 0
0.0975204 0.408179 0.00247196
0.126848 0.415274 0.00956741
0.160891 0.42118 0.0154726
0.200961 0.425513 0.0198215
0.248234 0.427909 0.0222171
0.302312 0.428458 0.0227665
0.359976 0.42797 0.0222782
0.417716 0.427375 0.0216831
0.474067 0.427008 0.0213321
0.531838 0.426108 0.0204318
0.589212 0.425101 0.0194247
0.644251 0.424598 0.0189212
0.695109 0.425376 0.0196994
0.740261 0.427863 0.0221866
0.780072 0.431937 0.0262608
0.815244 0.437354 0.031693
0.846525 0.443946 0.0382849
0.874846 0.451392 0.0457313
0.901061 0.459464 0.0538033
0.92578 0.467964 0.0623026
0.949569 0.476722 0.0710613
0.973022 0.485542 0.079881
0.99675 0.494255 0.0886091
1 0.502693 0.0970474
1 0.511254 0.105623
1 0.519738 0.114092
0 0.403021 0
0 0.411109 0
0 0.419379 0
0.00567636 0.427741 0
0.0291447 0.436332 0
0.0526284 0.445029 0
0.0770886 0.453559 0.000411994
0.103517 0.461585 0.00843824
0.132998 0.468803 0.015671
0.167071 0.474739 0.0215915
0.20708 0.478996 0.025864
0.2542 0.481224 0.0280919
0.308034 0.481498 0.0283665
0.365316 0.480644 0.0275273
0.422614 0.479591 0.0264744
0.478599 0.478859 0.025742
0.536263 0.477867 0.0247501
0.593835 0.477043 0.0239261
0.649256 0.476936 0.0238193
0.70045 0.47808 0.0249638
0.745892 0.480858 0.0277409
0.785931 0.485161 0.0320592
0.821271 0.490761 0.0376593
0.852659 0.497459 0.0443732
0.881025 0.504967 0.0518807
0.90724 0.513039 0.0599527
0.931884 0.521477 0.0683909
0.955566 0.530114 0.0770275
0.978851 0.53875 0.0856641
1 0.547234 0.0941482
1 0.555383 0.102296
1 0.563577 0.110506
1 0.571633 0.118563
0 0.455543 0
0 0.464118 0
0 0.472786 0
0.0104219 0.481437 0
0.0340887 0.490227 0
0.0576638 0.499031 0
0.0821241 0.507546 0.00541695
0.108461 0.515465 0.0133364
0.137728 0.522484 0.0203555
0.171527 0.528115 0.0259861
0.211139 0.531975 0.0298466
0.257801 0.53373 0.0316014
0.311376 0.53373 0.0316167
0.368673 0.532876 0.0307622
0.426246 0.532113 0.0299992
0.482628 0.531777 0.0296635
0.540627 0.531106 0.0290074
0.598459 0.530556 0.0284581
0.654093 0.530663 0.0285649
0.70544 0.53196 0.0298619
0.750957 0.534829 0.0327459
0.791012 0.539178 0.0370794
0.826337 0.544762 0.0426642
0.857633 0.551385 0.0493019
0.885847 0.55874 0.056672
0.911864 0.566613 0.0645304
0.936248 0.574792 0.0727092
0.959609 0.583108 0.0810407
0.982498 0.591363 0.0892958
1 0.599405 0.0973373
1 0.607065 0.104997
1 0.61471 0.112657
1 0.622156 0.120089
0 0.509346 0
0 0.51809 0
0 0.526818 0
0.0153506 0.535439 0
0.03888 0.544076 0
0.062211 0.552636 0.00141909
0.0863355 0.56083 0.00959792
0.112245 0.568307 0.0170901
0.1411 0.574884 0.0236667
0.174716 0.580346 0.0291295
0.214466 0.584314 0.0330968
0.261509 0.586419 0.0352178
0.31545 0.586786 0.035584
0.373068 0.586252 0.03505
0.430884 0.585733 0.0345312
0.487449 0.585595 0.0343938
0.545586 0.585061 0.0338598
0.603494 0.584573 0.0333867
0.659129 0.584695 0.0335088
0.71043 0.585946 0.0347601
0.755825 0.588724 0.0375372
0.795712 0.592905 0.0417182
0.830808 0.598276 0.0470893
0.861814 0.604608 0.0534371
0.889693 0.611643 0.0604715
0.915297 0.619104 0.0679332
0.939223 0.626825 0.0756542
0.962066 0.634623 0.0834669
0.98439 0.642313 0.0911574
1 0.649714 0.098558
1 0.656687 0.105516
1 0.663569 0.112413
1 0.670207 0.119051
0 0.562905 0
0 0.571481 0
0 0.579934 0
0.0204318 0.588159 0
0.0434882 0.596338 0
0.0664836 0.604562 0.0056611
0.090547 0.612665 0.0137636
0.116655 0.620356 0.0214542
0.145922 0.627344 0.0284428
0.179904 0.633143 0.0342412
0.219944 0.637385 0.0384985
0.267216 0.639735 0.0408331
0.321355 0.640269 0.0413825
0.37908 0.639841 0.0409552
0.436927 0.639368 0.0404822
0.493507 0.639216 0.0403449
0.551568 0.638621 0.0397498
0.609354 0.638025 0.0391546
0.664805 0.637949 0.0390784
0.715846 0.638972 0.0401007
0.760922 0.641443 0.0425727
0.800443 0.645258 0.0463874
0.835111 0.650202 0.0513466
0.865644 0.656077 0.0572061
0.892973 0.662562 0.0637064
0.917983 0.669429 0.070573
0.941238 0.676493 0.0776379
0.963363 0.683574 0.0847334
0.984909 0.690486 0.0916457
1 0.697063 0.0982223
1 0.703136 0.104295
1 0.709087 0.110246
1 0.714748 0.115908
0 0.614649 0
0 0.622751 0
0.00309758 0.630961 0
0.0267796 0.639216 0
0.0501564 0.647715 0.0040589
0.0735332 0.656321 0.012665
0.0979171 0.664744 0.0211032
0.1243 0.672709 0.0290532
0.15378 0.679896 0.0362554
0.187915 0.685832 0.0421912
0.228046 0.690166 0.0465248
0.27538 0.692546 0.0489052
0.329488 0.693049 0.0494087
0.387121 0.692531 0.0488899
0.444831 0.69192 0.0482948
0.501213 0.691569 0.0479438
0.558999 0.6907 0.0470741
0.616464 0.689769 0.0461433
0.671519 0.689326 0.0457008
0.722103 0.689891 0.0462806
0.76669 0.691875 0.048249
0.805631 0.69514 0.0515145
0.839673 0.699458 0.055848
0.86952 0.704646 0.0610361
0.896101 0.710414 0.066804
0.920317 0.716487 0.0728771
0.942718 0.722698 0.0790875
0.963928 0.728862 0.0852674
0.984527 0.734813 0.0912184
1 0.740429 0.0968338
1 0.745541 0.101946
1 0.750561 0.106966
1 0.755322 0.111742
0 0.66453 0
0 0.673014 0
0.0134585 0.68159 0
0.0374456 0.69015 0.00619516
0.0610666 0.698878 0.0149386
0.0846265 0.707668 0.0237278
0.109133 0.716228 0.0322881
0.135592 0.724254 0.0403143
0.165087 0.731441 0.0475013
0.199176 0.737346 0.0534066
0.239216 0.741558 0.0576333
0.286397 0.743755 0.0598306
0.340276 0.74403 0.0601053
0.397635 0.743236 0.0592966
0.454994 0.742275 0.0583505
0.510964 0.741527 0.0575875
0.568307 0.740185 0.05626
0.625238 0.738735 0.0548257
0.679713 0.737713 0.0537881
0.729656 0.737652 0.053727
0.77351 0.738933 0.0550088
0.811704 0.741436 0.0575265
0.844907 0.744945 0.0610361
0.873869 0.749264 0.0653544
0.899519 0.754086 0.0701762
0.922759 0.759197 0.075288
0.944213 0.764446 0.0805371
0.964462 0.769665 0.085771
0.984146 0.774716 0.0908064
1 0.779416 0.0955215
1 0.783658 0.0997635
1 0.787839 0.103944
1 0.791775 0.107866
0 0.714046 0
0.00459297 0.722759 0.0037995
0.028397 0.731502 0.0125429
0.052491 0.740169 0.02121
0.0761578 0.748943 0.0299992
0.0997024 0.757717 0.0387732
0.124147 0.766217 0.0472572
0.150469 0.774105 0.0551461
0.179782 0.781109 0.06215
0.213626 0.78674 0.0677958
0.253376 0.790661 0.0717174
0.300191 0.792493 0.0735485
0.353674 0.79234 0.0733959
0.410544 0.791043 0.0720989
0.467369 0.789548 0.0706035
0.522728 0.78819 0.0692454
0.5794 0.786191 0.0672465
0.635615 0.784024 0.065095
0.689296 0.782223 0.0632792
0.738384 0.781323 0.0623941
0.781338 0.781704 0.0627756
0.81857 0.783276 0.064332
0.850813 0.785824 0.0668803
0.878798 0.789166 0.0702373
0.903517 0.793057 0.0741283
0.925856 0.797269 0.0783398
0.94641 0.801633 0.0827039
0.965789 0.805997 0.087068
0.984634 0.810193 0.0912642
1 0.814069 0.0951553
1 0.817517 0.0985885
1 0.820905 0.101991
1 0.824079 0.105165
0 0.762722 0.0135653
0.0231327 0.77145 0.0223087
0.0469062 0.780163 0.0310063
0.0709087 0.788739 0.0395972
0.0944076 0.797375 0.0482185
0.117754 0.805936 0.0567941
0.141924 0.81416 0.0650034
0.167941 0.821714 0.0725719
0.196857 0.828336 0.0791791
0.230274 0.833524 0.0843824
0.26952 0.836927 0.0877852
0.315785 0.838193 0.0890364
0.368658 0.837415 0.0882582
0.424857 0.835447 0.086305
0.480919 0.833204 0.084062
0.535485 0.831037 0.0818952
0.591302 0.828183 0.0790417
0.646586 0.825101 0.0759594
0.699306 0.822339 0.0731975
0.747417 0.820462 0.0713359
0.789425 0.819898 0.0707713
0.825711 0.820554 0.0714122
0.857038 0.822202 0.0730602
0.884153 0.824674 0.0755474
0.908003 0.82771 0.078584
0.929488 0.831083 0.0819562
0.949233 0.834623 0.0854963
0.967834 0.838193 0.0890669
0.985885 0.841627 0.0924849
1 0.844755 0.095613
1 0.847456 0.0983291
1 0.850141 0.101015
1 0.852628 0.103502
0.0207828 0.81004 0.0349737
0.0443885 0.818601 0.043534
0.0679332 0.827085 0.0520027
0.0916457 0.835355 0.0602884
0.114794 0.843641 0.068574
0.137728 0.851804 0.0767376
0.16144 0.859556 0.0844892
0.186923 0.86659 0.0915236
0.215259 0.872602 0.0975509
0.248051 0.87715 0.102083
0.286595 0.87985 0.104784
0.332128 0.880339 0.105287
0.384161 0.878737 0.103685
0.43949 0.875898 0.100832
0.494621 0.872709 0.0976425
0.548211 0.869581 0.0945296
0.603067 0.865766 0.0906996
0.65742 0.861738 0.0866865
0.709209 0.858061 0.0830091
0.756436 0.855314 0.0802472
0.797543 0.85388 0.0788128
0.832975 0.853666 0.0786145
0.863478 0.85449 0.0794385
0.889754 0.856168 0.0811017
0.912825 0.858412 0.08336
0.933547 0.861021 0.0859693
0.952529 0.863828 0.088777
0.970397 0.866667 0.0916152
0.987762 0.869383 0.0943313
1 0.871839 0.096788
1 0.873884 0.0988327
1 0.875929 0.100877
1 0.877791 0.102739
0.0440833 0.855497 0.0582437
0.0673228 0.863676 0.0664225
0.090425 0.871717 0.074464
0.113649 0.879515 0.0822614
0.136248 0.887251 0.0899977
0.158572 0.894804 0.0975509
0.181628 0.901884 0.104631
0.206378 0.908186 0.110933
0.233951 0.91342 0.116182
0.265904 0.917128 0.119875
0.303563 0.918914 0.121675
0.34815 0.918456 0.121218
0.399222 0.915877 0.118639
0.45359 0.912077 0.114824
0.50779 0.907958 0.110719
0.560479 0.903929 0.106691
0.61445 0.899229 0.101976
0.667933 0.894331 0.0970932
0.718883 0.88983 0.0925765
0.76527 0.886244 0.0890059
0.80557 0.884016 0.0867781
0.840223 0.88304 0.0857862
0.869947 0.883101 0.0858625
0.895491 0.884031 0.0867933
0.91783 0.885573 0.0883345
0.93785 0.88748 0.0902419
0.956176 0.889616 0.0923629
0.973388 0.891798 0.0945602
0.990112 0.893889 0.0966506
1 0.89572 0.0984817
1 0.897185 0.0999466
1 0.89865 0.101411
1 0.899977 0.102739
0.0681468 0.898558 0.0822766
0.0908217 0.906172 0.0898909
0.113298 0.913588 0.0973068
0.135836 0.920699 0.104417
0.157687 0.927687 0.111406
0.179202 0.934432 0.118151
0.201389 0.940642 0.124361
0.225238 0.946029 0.129747
0.25185 0.950301 0.13402
0.282841 0.953033 0.136751
0.319554 0.953872 0.137591
0.363241 0.952499 0.136217
0.413428 0.94902 0.132738
0.466911 0.944335 0.128038
0.520256 0.939361 0.123079
0.572106 0.934493 0.118212
0.625269 0.928969 0.112688
0.677958 0.923293 0.107012
0.72813 0.918013 0.101732
0.773754 0.91368 0.0974136
0.813321 0.910735 0.0944533
0.847242 0.909041 0.0927596
0.87628 0.908431 0.0921492
0.901152 0.90869 0.0924086
0.92285 0.90959 0.0933089
0.942245 0.910872 0.0945907
0.959945 0.912398 0.0961166
0.976577 0.914 0.0977188
0.992737 0.915526 0.0992447
1 0.916838 0.100557
1 0.917815 0.101534
1 0.918837 0.102556
1 0.919753 0.103471
0.091722 0.938827 0.105821
0.113634 0.945678 0.112673
0.135271 0.95227 0.119265
0.156924 0.95848 0.125475
0.177844 0.964538 0.131518
0.198398 0.970306 0.137301
0.219623 0.975555 0.14255
0.242527 0.980011 0.147005
0.268223 0.983368 0.150362
