luts/color3.cube
TITLE "Generated by Resolve"
LUT_3D_SIZE 5
0 0 0
0.102586 0 0
0.435981 0 0
0.713024 0 0
0.84477 0 0
0 0.117647 0
0.11783 0.12639 0.000900282
0.479637 0.0944991 0
0.80267 0.0993362 0
0.992096 0.163333 0.0378424
0 0.403021 0
0.132998 0.468803 0.015671
0.536263 0.477867 0.0247501
0.881025 0.504967 0.0518807
1 0.571633 0.118563
0.0207828 0.81004 0.0349737
0.215259 0.872602 0.0975509
0.603067 0.865766 0.0906996
0.912825 0.858412 0.08336
1 0.877791 0.102739
0.178347 1 0.192279
0.32401 1 0.20589
0.667689 1 0.154467
0.943999 1 0.114214
1 1 0.111803
0 0 0.1075
0.102403 0 0.10428
0.436164 0 0.0446784
0.714916 0 0.00482185
0.850172 0 0.0146181
0 0.1205 0.113451
0.125124 0.133639 0.126574
0.493446 0.108125 0.101061
0.823682 0.120317 0.113237
1 0.18732 0.18024
0 0.425681 0.0909133
0.156832 0.492607 0.157855
0.559701 0.501152 0.166415
0.904921 0.528832 0.19411
1 0.592996 0.258289
0.0441138 0.833356 0.176654
0.235019 0.892302 0.235615
0.616999 0.879545 0.222843
0.921538 0.867094 0.210391
1 0.882414 0.225696
0.185473 1 0.317708
0.327596 1 0.327749
0.669184 1 0.274113
0.944121 1 0.232609
1 1 0.229816
0 0 0.434348
0.0864424 0 0.430365
0.421088 0 0.371511
0.702052 0 0.333959
0.841627 0 0.348058
0 0.108827 0.443793
0.1187 0.127138 0.462074
0.494148 0.108659 0.443549
0.83061 0.127184 0.462043
1 0.195468 0.530282
0 0.433616 0.440726
0.164218 0.499947 0.507042
0.567971 0.509285 0.516365
0.912596 0.536492 0.543557
1 0.597147 0.604196
0.0508888 0.840085 0.52517
0.237201 0.894423 0.579477
0.613413 0.875776 0.560784
0.913085 0.858595 0.543572
1 0.870314 0.555261
0.175555 1 0.649424
0.314672 1 0.656382
0.654459 1 0.600824
0.928344 0.997314 0.558358
1 0.994461 0.555459
0 0 0.748257
0.0715343 0 0.744091
0.407568 0 0.686549
0.691264 0 0.651881
0.835966 0 0.671138
0 0.0996262 0.763363
0.115358 0.123751 0.787488
0.498421 0.112764 0.776501
0.839445 0.135973 0.799695
1 0.203784 0.867506
0 0.442832 0.778836
0.172015 0.507698 0.843702
0.577325 0.518471 0.854505
0.920333 0.544213 0.880247
1 0.600305 0.936355
0.0573281 0.84651 0.860594
0.238148 0.895323 0.909407
0.608972 0.871168 0.885252
0.904143 0.849607 0.863691
1 0.858259 0.872343
0.165286 1 0.968246
0.301869 1 0.972702
0.640192 1 0.915587
0.913298 0.982223 0.872496
1 0.979599 0.869856
0 0 0.871107
0.0713054 0 0.867262
0.409247 0 0.811505
0.696406 0 0.780453
0.846876 0 0.805508
0 0.106584 0.893812
0.128832 0.137163 0.924392
0.519265 0.13344 0.920684
0.863111 0.159609 0.946838
1 0.225925 1
0 0.466255 0.925765
0.195041 0.530678 0.990204
0.600931 0.541939 1
0.941299 0.565148 1
1 0.615778 1
0.0766308 0.865766 1
0.251575 0.908675 1
0.61735 0.879377 1
0.908385 0.853803 0.991485
1 0.859892 0.997559
0.168429 1 1
0.302892 1 1
0.64004 1 1
0.912673 0.981552 0.995453
1 0.979461 0.993347
