luts/color3.cube
TITLE "Generated by Resolve"
LUT_3D_SIZE 9
0 0 0
0.034165 0 0
0.102586 0 0
0.241596 0 0
0.435981 0 0
0.611566 0 0
0.713024 0 0
0.778881 0 0
0.84477 0 0
0 0.0544594 0
0.0390021 0.0536812 0
0.107866 0.0514076 0
0.249348 0.0311894 0
0.447898 0 0
0.629526 0 0
0.739452 0 0
0.816419 0 0
0.896147 0.00230411 0
0 0.117647 0
0.0419165 0.121706 0
0.11783 0.12639 0.000900282
0.268971 0.115633 0
0.479637 0.0944991 0
0.675914 0.0838483 0
0.80267 0.0993362 0
0.897047 0.12961 0.00411994
0.992096 0.163333 0.0378424
0 0.226047 0
0.0282444 0.243183 0
0.119829 0.263478 0.00268559
0.288533 0.270069 0.00929274
0.516197 0.265873 0.00511177
0.726299 0.2692 0.0084535
0.861418 0.293172 0.0324254
0.957916 0.325612 0.0648814
1 0.358968 0.0982376
0 0.403021 0
0.0291447 0.436332 0
0.132998 0.468803 0.015671
0.308034 0.481498 0.0283665
0.536263 0.477867 0.0247501
0.745892 0.480858 0.0277409
0.881025 0.504967 0.0518807
0.978851 0.53875 0.0856641
1 0.571633 0.118563
0 0.614649 0
0.0501564 0.647715 0.0040589
0.15378 0.679896 0.0362554
0.329488 0.693049 0.0494087
0.558999 0.6907 0.0470741
0.76669 0.691875 0.048249
0.896101 0.710414 0.066804
0.984527 0.734813 0.0912184
1 0.755322 0.111742
0.0207828 0.81004 0.0349737
0.114794 0.843641 0.068574
0.215259 0.872602 0.0975509
0.384161 0.878737 0.103685
0.603067 0.865766 0.0906996
0.797543 0.85388 0.0788128
0.912825 0.858412 0.08336
0.987762 0.869383 0.0943313
1 0.877791 0.102739
0.113771 0.975769 0.127825
0.196078 0.997665 0.149722
0.282979 1 0.165072
0.438056 1 0.157168
0.643992 0.979156 0.131197
0.826734 0.955688 0.107729
0.931731 0.950057 0.102113
0.998123 0.952514 0.10457
1 0.954025 0.106065
0.178347 1 0.192279
0.248173 1 0.201694
0.32401 1 0.20589
0.469657 1 0.188357
0.667689 1 0.154467
0.843992 1 0.124681
0.943999 1 0.114214
1 1 0.112932
1 1 0.111803
0 0 0.0428626
0.0347448 0 0.0425727
0.102922 0 0.0396582
0.241932 0 0.0171359
0.436454 0 0
0.612329 0 0
0.714275 0 0
0.780819 0 0
0.847684 0 0
0 0.0547494 0.047776
0.0395056 0.0541695 0.0471962
0.108782 0.0522774 0.045304
0.250874 0.032639 0.0256657
0.450202 0.000167849 0
0.632898 0 0
0.744167 0 0
0.822751 0 0
0.904295 0.0104372 0.0034638
0 0.119356 0.0471504
0.0445106 0.124285 0.052079
0.12166 0.130205 0.0579995
0.274296 0.120867 0.048661
0.486656 0.101411 0.029221
0.68481 0.0926986 0.0204929
0.813352 0.110002 0.0377966
0.908904 0.141466 0.069276
1 0.175723 0.103532
0 0.231891 0.0243687
0.0358434 0.250797 0.0432898
0.129427 0.273045 0.0655528
0.299763 0.281209 0.0737316
0.528374 0.277974 0.0705119
0.738766 0.281621 0.0741588
0.873518 0.305257 0.0978103
0.96968 0.337362 0.129915
1 0.371237 0.163821
0 0.414603 0.0147402
0.0414588 0.448631 0.0487678
0.145388 0.481178 0.0813306
0.319905 0.493294 0.0934615
0.548302 0.48983 0.090013
0.758297 0.493217 0.0934005
0.893416 0.517357 0.117556
0.99086 0.550774 0.150973
1 0.58291 0.183124
0 0.62623 0.0358587
0.0623331 0.659876 0.0695201
0.166217 0.692302 0.101961
0.341833 0.705318 0.114977
0.570855 0.702464 0.112139
0.777615 0.70277 0.112444
0.905745 0.720043 0.129732
0.992615 0.742901 0.152605
1 0.76199 0.171695
0.0329442 0.822202 0.100435
0.126314 0.855146 0.133379
0.225772 0.883085 0.161318
0.393301 0.8878 0.166033
0.610697 0.873304 0.151553
0.803769 0.860044 0.138293
0.917784 0.863355 0.141604
0.991623 0.873228 0.151476
1 0.880659 0.158907
0.122286 0.984268 0.189624
0.203128 1 0.210071
0.288731 1 0.224079
0.442664 1 0.214984
0.647547 0.98262 0.187976
0.829343 0.958236 0.163577
0.933623 0.951934 0.15729
0.999466 0.953841 0.159197
1 0.95491 0.160266
0.182498 1 0.249714
0.251316 1 0.258137
0.326329 1 0.261479
0.471397 1 0.243305
0.66891 1 0.208911
0.844816 1 0.178759
0.944503 1 0.168002
1 1 0.166552
1 1 0.165362
0 0 0.1075
0.0343938 0 0.107378
0.102403 0 0.10428
0.241459 0 0.0817426
0.436164 0 0.0446784
0.612421 0 0.0138094
0.714916 0 0.00482185
0.782223 0 0.00798047
0.850172 0 0.0146181
0 0.0542458 0.112459
0.039292 0.0539406 0.112139
0.109041 0.0525063 0.110689
0.251804 0.0334936 0.0916762
0.452003 0.00187686 0.0600595
0.635904 0 0.0369726
0.748592 0 0.0383154
0.828824 0 0.0544442
0.912276 0.0184176 0.0765698
0 0.1205 0.113451
0.0466621 0.126421 0.119371
0.125124 0.133639 0.126574
0.279332 0.125826 0.118761
0.493446 0.108125 0.101061
0.693553 0.101396 0.0943313
0.823682 0.120317 0.113237
0.920195 0.152728 0.145663
1 0.18732 0.18024
0 0.237461 0.095079
0.0432746 0.258213 0.115831
0.138811 0.282414 0.140032
0.310567 0.291936 0.149569
0.53991 0.289433 0.147066
0.750362 0.293172 0.150805
0.884535 0.316258 0.173907
0.980835 0.348501 0.206149
1 0.382788 0.240452
0 0.425681 0.0909133
0.0530404 0.460197 0.125444
0.156832 0.492607 0.157855
0.330709 0.504036 0.169284
0.559701 0.501152 0.166415
0.769924 0.504799 0.170077
0.904921 0.528832 0.19411
1 0.561746 0.227024
1 0.592996 0.258289
0 0.637201 0.11191
0.0738079 0.671351 0.146075
0.177829 0.703899 0.178622
0.353231 0.716655 0.191379
0.581613 0.713146 0.187884
0.78735 0.712444 0.187182
0.914061 0.728328 0.203082
0.99939 0.749676 0.22443
1 0.767376 0.24213
0.0441138 0.833356 0.176654
0.136706 0.865522 0.208835
0.235019 0.892302 0.235615
0.401083 0.895506 0.238804
0.616999 0.879545 0.222843
0.808743 0.864973 0.20827
0.921538 0.867094 0.210391
0.994308 0.875898 0.219196
1 0.882414 0.225696
0.129473 0.99144 0.26186
0.208896 1 0.280873
0.293233 1 0.293599
0.446067 1 0.283345
0.649943 0.984924 0.255329
0.830869 0.959701 0.230091
0.934508 0.952789 0.223178
0.999832 0.954192 0.224567
1 0.954864 0.225238
0.185473 1 0.317708
0.25333 1 0.32517
0.327596 1 0.327749
0.472129 1 0.30898
0.669184 1 0.274113
0.844694 1 0.243595
0.944121 1 0.232609
1 1 0.231022
1 1 0.229816
0 0 0.240696
0.028809 0 0.240269
0.0967117 0 0.237034
0.235874 0 0.214557
0.430854 0 0.177722
0.607523 0 0.147295
0.710643 0 0.138949
0.77879 0 0.142947
0.847959 0 0.15079
0 0.0486763 0.245335
0.0340581 0.0486915 0.245335
0.104341 0.047776 0.244388
0.247868 0.0294652 0.226047
0.449042 0 0.195407
0.634211 0 0.173617
0.748394 0 0.176471
0.830381 0 0.194339
0.915816 0.0219272 0.218433
0 0.116793 0.248127
0.0440833 0.123827 0.255146
0.123949 0.132418 0.263722
0.279789 0.126207 0.257496
0.49575 0.110338 0.241627
0.69778 0.105562 0.23682
0.829282 0.125872 0.25713
0.926528 0.159045 0.290272
1 0.193744 0.324956
0 0.238499 0.23444
0.0462501 0.261173 0.257115
0.143587 0.287175 0.283101
0.316533 0.297841 0.293767
0.546395 0.295842 0.291768
0.756695 0.299458 0.295369
0.890166 0.321874 0.317784
0.987015 0.354681 0.350576
1 0.389242 0.385122
0 0.431846 0.23537
0.0595102 0.466667 0.270176
0.162951 0.498695 0.302205
0.336583 0.509834 0.313329
0.566079 0.507469 0.310964
0.776425 0.511254 0.314733
0.911131 0.535042 0.338521
1 0.56733 0.370794
1 0.597589 0.401053
0 0.643229 0.256184
0.0802319 0.677775 0.290715
0.184268 0.710307 0.323247
0.359319 0.722667 0.335592
0.586954 0.71841 0.331319
0.791501 0.716548 0.329458
0.916686 0.730938 0.343847
1 0.75082 0.363714
1 0.767208 0.380072
0.0499275 0.839155 0.320638
0.141619 0.87042 0.351904
0.238666 0.895918 0.377371
0.40322 0.897566 0.379004
0.617731 0.880186 0.361608
0.808148 0.864332 0.345739
0.919783 0.865309 0.346716
0.991547 0.873121 0.354498
1 0.878782 0.360143
0.131029 0.992981 0.401526
0.209094 1 0.419165
0.29221 1 0.430655
0.443976 1 0.419272
0.646891 0.981796 0.390265
0.827039 0.95581 0.364263
0.930068 0.948333 0.356771
0.994919 0.949264 0.357687
1 0.949584 0.357977
0.182971 1 0.453269
0.249928 1 0.4598
0.323522 1 0.461692
0.467552 1 0.442359
0.664179 1 0.40705
0.839353 1 0.376226
0.938552 1 0.365011
1 1 0.363333
1 1 0.362127
0 0 0.434348
0.0185855 0 0.433677
0.0864424 0 0.430365
0.225788 0 0.408011
0.421088 0 0.371511
0.59826 0 0.341619
0.702052 0 0.333959
0.77116 0 0.338933
0.841627 0 0.348058
0 0.0386053 0.438895
0.0244144 0.0390173 0.439292
0.0952773 0.0386816 0.438926
0.239612 0.0211337 0.421363
0.441901 0 0.391806
0.628428 0 0.371405
0.744198 0 0.375875
0.828 0 0.39556
0.915389 0.0214847 0.421622
0 0.108827 0.443793
0.0373693 0.117098 0.452049
0.1187 0.127138 0.462074
0.276265 0.122606 0.457511
0.494148 0.108659 0.443549
0.697963 0.105699 0.440574
0.83061 0.127184 0.462043
0.928374 0.160891 0.49572
1 0.195468 0.530282
0 0.235569 0.435142
0.045304 0.260227 0.459785
0.144244 0.2878 0.487343
0.318166 0.299397 0.498924
0.548333 0.297704 0.49723
0.758267 0.300984 0.500496
0.891386 0.323079 0.522591
0.988754 0.35642 0.555901
1 0.391104 0.5906
0 0.433616 0.440726
0.061326 0.468482 0.475593
0.164218 0.499947 0.507042
0.338079 0.511269 0.518349
0.567971 0.509285 0.516365
0.778286 0.513069 0.52015
0.912596 0.536492 0.543557
1 0.568032 0.575082
1 0.597147 0.604196
0 0.644862 0.461402
0.0821088 0.679637 0.496178
0.186023 0.712047 0.528572
0.360616 0.723873 0.540383
0.587335 0.71873 0.535225
0.7906 0.715602 0.532097
0.914214 0.72845 0.54493
0.996658 0.746914 0.563394
1 0.762005 0.57847
0.0508888 0.840085 0.52517
0.141558 0.870344 0.555413
0.237201 0.894423 0.579477
0.400275 0.89453 0.579568
0.613413 0.875776 0.560784
0.802579 0.858701 0.543694
0.913085 0.858595 0.543572
0.983856 0.865431 0.550393
1 0.870314 0.555261
0.12752 0.989456 0.601587
0.204257 1 0.617914
0.286198 1 0.628199
0.436957 1 0.615747
0.638956 0.973785 0.58584
0.818402 0.947127 0.559167
0.920867 0.939101 0.55111
0.985275 0.939605 0.551598
1 0.939605 0.551583
0.175555 1 0.649424
0.241672 1 0.655116
0.314672 1 0.656382
0.458228 1 0.636545
0.654459 1 0.600824
0.829328 1 0.569711
0.928344 0.997314 0.558358
0.990494 0.99559 0.556603
1 0.994461 0.555459
0 0 0.623926
0.00862135 0 0.623072
0.0765087 0 0.619791
0.216083 0 0.597635
0.41178 0 0.561517
0.589502 0 0.532204
0.694026 0 0.525338
0.764248 0 0.531411
0.836088 0 0.541909
0 0.0289616 0.628656
0.0152285 0.0298314 0.629511
0.0867628 0.0301213 0.629786
0.231998 0.0134279 0.613062
0.435508 0 0.584741
0.623453 0 0.565805
0.740871 0 0.571954
0.826596 0 0.593576
0.915816 0.0218814 0.621439
0 0.101564 0.635935
0.0314183 0.111131 0.645502
0.11429 0.122698 0.657053
0.273655 0.119905 0.654246
0.493507 0.107942 0.642267
0.698909 0.1066 0.640894
0.832471 0.12903 0.66334
0.930556 0.163043 0.697337
1 0.197299 0.731579
0 0.2336 0.632578
0.0452735 0.260197 0.659159
0.145571 0.289113 0.68809
0.320272 0.301427 0.700389
0.550515 0.299809 0.698772
0.759854 0.302541 0.701488
0.893111 0.324804 0.723751
0.990875 0.358526 0.757473
1 0.39324 0.792172
0 0.435752 0.642313
0.0633249 0.470466 0.677028
0.16556 0.501259 0.707805
0.340047 0.513146 0.719692
0.570199 0.511421 0.717968
0.780362 0.515099 0.721645
0.914137 0.538018 0.744549
1 0.568673 0.775204
1 0.596521 0.803052
0 0.646891 0.662898
0.0842756 0.681788 0.697795
0.18793 0.713939 0.729931
0.361929 0.725124 0.7411
0.58764 0.718944 0.73492
0.789471 0.714427 0.730404
0.911528 0.725765 0.741726
0.992584 0.742855 0.758801
1 0.756695 0.772656
0.0518196 0.841016 0.725582
0.141329 0.8701 0.75465
0.235477 0.892668 0.777203
0.397131 0.89131 0.77583
0.608942 0.871229 0.755749
0.796887 0.852964 0.737469
0.906325 0.851804 0.736294
0.976181 0.857725 0.742199
1 0.861936 0.746395
0.123827 0.985748 0.797391
0.199298 1 0.812436
0.28011 1 0.821576
0.429892 0.996536 0.808118
0.631052 0.965789 0.777356
0.809857 0.938521 0.750072
0.911788 0.929992 0.741543
0.975799 0.930114 0.741634
1 0.929824 0.741329
0.168109 1 0.841474
0.233463 1 0.846418
0.305898 1 0.847105
0.449042 1 0.826795
0.644923 1 0.790738
0.819516 0.998795 0.759396
0.918379 0.98732 0.747906
0.980499 0.98558 0.746151
1 0.984543 0.745098
0 0 0.748257
0.00355535 0 0.747295
0.0715343 0 0.744091
0.211414 0 0.722194
0.407568 0 0.686549
0.585901 0 0.657893
0.691264 0 0.651881
0.762692 0 0.65919
0.835966 0 0.671138
0 0.0243534 0.753384
0.0111696 0.0257572 0.754772
0.0834211 0.0267491 0.755764
0.229679 0.0110323 0.740032
0.434501 0 0.713024
0.623941 0 0.695613
0.743099 0 0.703532
0.830793 0 0.727138
0.921614 0.0276646 0.756649
0 0.0996262 0.763363
0.030869 0.110567 0.774319
0.115358 0.123751 0.787488
0.2766 0.122789 0.786526
0.498421 0.112764 0.776501
0.705165 0.112779 0.776516
0.839445 0.135973 0.799695
0.937606 0.170092 0.833814
1 0.203784 0.867506
0 0.237217 0.765591
0.0506905 0.265599 0.793988
0.152148 0.295659 0.824048
0.327382 0.308461 0.836866
0.557488 0.306706 0.835111
0.766125 0.308751 0.837171
0.899931 0.331609 0.860014
0.997955 0.365591 0.894011
1 0.400183 0.928618
0 0.442832 0.778836
0.0700389 0.47718 0.813184
0.172015 0.507698 0.843702
0.347051 0.520073 0.856092
0.577325 0.518471 0.854505
0.787213 0.52192 0.857954
0.920333 0.544213 0.880247
1 0.573846 0.90988
1 0.600305 0.936355
0 0.653941 0.79942
0.09131 0.688823 0.834302
0.194583 0.720562 0.866056
0.367849 0.730968 0.876463
0.592416 0.723644 0.869139
0.792706 0.717617 0.863127
0.913283 0.727489 0.873014
0.992996 0.743252 0.888777
1 0.755917 0.901427
0.0573281 0.84651 0.860594
0.145541 0.874296 0.888395
0.238148 0.895323 0.909407
0.398444 0.892531 0.906615
0.608972 0.871168 0.885252
0.795743 0.851774 0.865858
0.904143 0.849607 0.863691
0.973144 0.854673 0.868757
1 0.858259 0.872343
0.124605 0.986511 0.927733
0.19884 1 0.941543
0.278569 1 0.949599
0.427436 0.993988 0.935195
0.627832 0.962478 0.90367
0.806027 0.93463 0.875822
0.907469 0.925643 0.866835
0.971115 0.925414 0.86659
1 0.92488 0.866041
0.165286 1 0.968246
0.229969 1 0.972534
0.301869 1 0.972702
0.444617 1 0.951949
0.640192 1 0.915587
0.814572 0.993774 0.884047
0.913298 0.982223 0.872496
0.975433 0.980499 0.870771
1 0.979599 0.869856
0 0 0.817685
0.00263981 0 0.816678
0.0707713 0 0.813626
0.211032 0 0.79205
0.407691 0 0.756909
0.586709 0 0.728969
0.693019 0 0.723964
0.765728 0 0.73257
0.840528 0 0.746044
0 0.0240635 0.823407
0.0114748 0.0260319 0.825391
0.0845197 0.0278172 0.827161
0.231937 0.0131838 0.812543
0.438117 0 0.786908
0.629145 0 0.771115
0.750118 0 0.78088
0.83975 0.0071107 0.806455
0.93196 0.037995 0.837339
0 0.102266 0.836362
0.0349889 0.114687 0.848768
0.121187 0.129534 0.86363
0.284398 0.13048 0.864591
0.508003 0.122271 0.856367
0.715892 0.123461 0.857557
0.85066 0.147173 0.88127
0.948684 0.181155 0.915267
1 0.214176 0.948272
0 0.245655 0.844388
0.0607004 0.275608 0.874357
0.163104 0.3066 0.905348
0.338659 0.319677 0.918441
0.568414 0.317571 0.91635
0.77673 0.319326 0.91812
0.91104 0.342687 0.941497
1 0.376822 0.975631
1 0.41117 1
0 0.454002 0.86038
0.0806287 0.48777 0.894148
0.182834 0.518486 0.924895
0.358282 0.531243 0.937652
0.588556 0.529641 0.936065
0.798047 0.532708 0.939132
0.930388 0.554238 0.960678
1 0.582742 0.989197
1 0.607691 1
0.00723278 0.665156 0.881041
0.102403 0.699901 0.915801
0.205173 0.731121 0.947021
0.377569 0.740612 0.956527
0.600855 0.732006 0.947921
0.799588 0.724453 0.940383
0.918715 0.732921 0.948852
0.997147 0.747387 0.963348
1 0.758907 0.974853
0.0665904 0.855741 0.940276
0.153384 0.882139 0.966659
0.244495 0.901625 0.986145
0.403433 0.897459 0.981979
0.612741 0.874861 0.959396
0.798398 0.854368 0.938903
0.905806 0.851255 0.93579
0.974029 0.855558 0.940093
1 0.858549 0.943084
0.129107 0.990982 1
0.202152 1 1
0.280842 1 1
0.42884 0.9953 1
0.628565 0.963119 0.974777
0.80618 0.934737 0.946395
0.907164 0.925322 0.93698
0.970489 0.924773 0.936431
1 0.924025 0.935683
0.166354 1 1
0.230426 1 1
0.301854 1 1
0.444251 1 1
0.639536 1 0.985321
0.813718 0.992874 0.953643
0.912383 0.981277 0.942031
0.974563 0.979614 0.940368
1 0.978882 0.939635
0 0 0.871107
0.00296025 0 0.87013
0.0713054 0 0.867262
0.211994 0 0.846067
0.409247 0 0.811505
0.588998 0 0.784344
0.696406 0 0.780453
0.770474 0 0.790433
0.846876 0 0.805508
0 0.0251469 0.877638
0.0132296 0.0277714 0.880262
0.0871443 0.030396 0.882887
0.235828 0.0169985 0.86949
0.443473 0 0.845304
0.636164 0 0.831205
0.759014 0 0.842908
0.850462 0.017792 0.870283
0.943847 0.0498665 0.902342
0 0.106584 0.893812
0.0408637 0.120531 0.907774
0.128832 0.137163 0.924392
0.294057 0.140078 0.927306
0.519265 0.13344 0.920684
0.728069 0.135576 0.92282
0.863111 0.159609 0.946838
0.9608 0.193256 0.980499
1 0.225925 1
0 0.255909 0.907774
0.0723278 0.287221 0.939101
0.175448 0.318914 0.97081
0.35111 0.332052 0.983948
0.580301 0.329381 0.981277
0.788769 0.331319 0.98323
0.92343 0.355077 1
1 0.389212 1
1 0.423194 1
0 0.466255 0.925765
0.0922408 0.499367 0.958877
0.195041 0.530678 0.990204
0.370779 0.543679 1
0.600931 0.541939 1
0.809873 0.544488 1
0.941299 0.565148 1
1 0.592371 1
1 0.615778 1
0.0196689 0.677577 0.946593
0.11458 0.712077 0.981094
0.216709 0.742641 1
0.388113 0.751095 1
0.61001 0.74107 1
0.807187 0.732006 1
0.92491 0.739101 1
1 0.752346 1
1 0.762753 1
0.0766308 0.865766 1
0.161913 0.890639 1
0.251575 0.908675 1
0.409232 0.903166 1
0.61735 0.879377 1
0.801923 0.857847 0.995514
0.908385 0.853803 0.991485
0.975937 0.857435 0.995117
1 0.859892 0.997559
0.134401 0.996262 1
0.206302 1 1
0.284001 1 1
0.431189 0.997574 1
0.630304 0.964782 1
0.807401 0.935897 1
0.907973 0.926101 0.99089
0.971008 0.925261 0.990051
1 0.924346 0.989151
0.168429 1 1
0.231922 1 1
0.302892 1 1
0.444984 1 1
0.64004 1 1
0.814054 0.993164 1
0.912673 0.981552 0.995453
0.97496 0.97998 0.993881
1 0.979461 0.993347
