luts/color2.cube
TITLE "Generated by Resolve"
LUT_3D_SIZE 5
0 0 0
0.120455 0 0
0.403937 0 0
0.683543 0 0
0.828122 0 0
0 0.122133 0
0.12723 0.126207 0
0.437476 0.107408 0
0.761593 0.110018 0
0.962036 0.168688 0.0148165
0 0.419028 0
0.102815 0.478599 0
0.453681 0.50042 0
0.799878 0.525093 0
1 0.587335 0.056672
0 0.828916 0
0.163485 0.886397 0.00859083
0.500359 0.894224 0.016434
0.814832 0.887205 0.00939956
0.973816 0.904402 0.0265965
0.103059 1 0.101167
0.266514 1 0.11162
0.559274 1 0.075349
0.840406 1 0.0349584
0.976959 1 0.0297398
0 0 0.0901961
0.120333 0 0.0829023
0.404028 0 0.0375372
0.685328 0 0
0.83331 0 0.00354009
0 0.12491 0.0884871
0.134249 0.133227 0.0968032
0.450675 0.120607 0.084184
0.781918 0.130343 0.0939193
0.985489 0.192142 0.155718
0 0.441047 0.0278325
0.126207 0.501976 0.0887617
0.476387 0.523125 0.109895
0.823301 0.548531 0.135317
1 0.608591 0.195377
0 0.851881 0.0915236
0.183246 0.906157 0.1458
0.514504 0.90837 0.148013
0.823896 0.896254 0.135897
0.97879 0.909377 0.14902
0.110506 1 0.226062
0.270314 1 0.232868
0.560845 1 0.194354
0.840635 1 0.152636
0.976745 1 0.14696
0 0 0.473213
0.0995804 0 0.465385
0.383978 0 0.420737
0.667491 0 0.382757
0.819654 0 0.393118
0 0.108278 0.475105
0.122621 0.121599 0.488426
0.445808 0.115755 0.482582
0.783291 0.131716 0.498543
0.988357 0.194995 0.561822
0 0.443534 0.433555
0.128405 0.504173 0.494194
0.479103 0.525841 0.515862
0.825772 0.550988 0.541024
1 0.607919 0.597955
0 0.853544 0.496422
0.180697 0.903624 0.546502
0.506249 0.900114 0.543008
0.810895 0.883253 0.526146
0.962112 0.892699 0.535592
0.0960403 1 0.614832
0.252705 1 0.618494
0.541299 1 0.578058
0.820066 1 0.535302
0.956024 1 0.529503
0 0 0.847318
0.0795605 0 0.839185
0.365179 0 0.795758
0.651438 0 0.760525
0.80856 0 0.775845
0 0.0937972 0.854444
0.113771 0.112764 0.873396
0.444221 0.114168 0.8748
0.786404 0.134829 0.895476
0.991287 0.19794 0.958572
0 0.447135 0.830991
0.130556 0.506325 0.890181
0.48275 0.529473 0.913329
0.828168 0.553399 0.93724
1 0.606195 0.990051
0 0.85478 0.891478
0.176822 0.899733 0.936446
0.496941 0.890822 0.92752
0.797192 0.869566 0.906264
0.945235 0.875822 0.912535
0.0809796 1 0.993606
0.235004 1 0.994629
0.521981 1 0.95256
0.800015 1 0.909087
0.936141 1 0.903441
0 0 1
0.0766155 0 0.996201
0.363958 0 0.954498
0.653666 0 0.922698
0.816373 0 0.943618
0 0.0978561 1
0.124056 0.123033 1
0.461585 0.131533 1
0.806806 0.155245 1
1 0.216907 1
0 0.46746 1
0.15024 0.526009 1
0.503105 0.549844 1
0.846311 0.571527 1
1 0.619272 1
0 0.871397 1
0.187808 0.910719 1
0.502846 0.896727 1
0.799054 0.871412 1
0.944411 0.874998 1
0.0816815 1 1
0.233478 1 1
0.519142 1 1
0.79675 1 1
0.933349 1 1
