luts/color4.cube
TITLE "Generated by Resolve"
LUT_3D_SIZE 33
0.00782788 0 0
0.0213626 0 0
0.034287 0 0
0.0478981 0 0
0.0624399 0 0
0.0786297 0 0
0.0973068 0 0
0.119615 0 0
0.146456 0 0
0.178683 0 0
0.216327 0 0
0.257298 0 0
0.299275 0 0
0.340032 0 0
0.381277 0 0
0.423346 0 0
0.464851 0 0
0.504417 0 0
0.540642 0 0
0.572503 0 0
0.600244 0 0
0.624399 0 0
0.645441 0 0
0.663951 0 0
0.68069 0 0
0.696132 0 0
0.710704 0 0
0.724834 0 0
0.738964 0 0
0.753536 0 0
0.768902 0 0
0.783856 0 0
0.799008 0 0
0.00984207 0.0059968 0
0.0235294 0.00642405 0
0.0367132 0.00689708 0
0.0501259 0.00726329 0
0.0644846 0.00730907 0
0.0805219 0.0068513 0
0.0990768 0.00569162 0
0.121294 0.00350958 0
0.148074 9.15541e-05 0
0.18027 0 0
0.217899 0 0
0.2589 0 0
0.300938 0 0
0.341787 0 0
0.383139 0 0
0.425345 0 0
0.467033 0 0
0.506783 0 0
0.543252 0 0
0.575372 0 0
0.603403 0 0
0.627863 0 0
0.649256 0 0
0.668147 0 0
0.685283 0 0
0.701152 0 0
0.716197 0 0
0.730816 0 0
0.74548 0 0
0.760647 0 0
0.776684 0 0
0.79237 0 0
0.80827 0 0
0.01149 0.020264 0
0.0249943 0.0205234 0
0.0380407 0.0208743 0
0.0513466 0.0211185 0
0.0656291 0.021088 0
0.0816205 0.0205844 0
0.100145 0.0193942 0
0.122362 0.0172274 0
0.149187 0.0138399 0
0.181445 0.00900282 0
0.219165 0.00274662 0
0.260288 0 0
0.30248 0 0
0.343511 0 0
0.385077 0 0
0.427527 0 0
0.469474 0 0
0.509544 0 0
0.546334 0 0
0.578805 0 0
0.607217 0 0
0.632105 0 0
0.653941 0 0
0.673304 0 0
0.690959 0 0
0.707393 0 0
0.723049 0 0
0.738354 0 0
0.753765 0 0
0.769711 0 0
0.786542 0 0
0.803052 0 0
0.819837 0 0
0.0132143 0.033875 0
0.0266575 0.0340734 0
0.0396735 0.0343786 0
0.0529488 0.0346075 0
0.0672618 0.0345922 0
0.083299 0.0341344 0
0.101884 0.0330205 0
0.124224 0.0309606 0
0.151186 0.0277104 0
0.183612 0.0230411 0
0.221515 0.0169833 0
0.262867 0.0100862 0
0.305303 0.00300603 0
0.346624 0 0
0.388495 0 0
0.431281 0 0
0.473594 0 0
0.514061 0 0
0.551278 0 0
0.584207 0 0
0.613108 0 0
0.638514 0 0
0.660929 0 0
0.680934 0 0
0.699306 0 0
0.716487 0 0
0.732921 0 0
0.74905 0 0
0.765316 0 0
0.782132 0 0
0.799893 0 0
0.817349 0 0
0.835126 0 0
0.0148623 0.047364 0
0.0283207 0.0475776 0
0.0413825 0.0479438 0
0.0547646 0.0482643 0
0.0691844 0.0483711 0
0.085359 0.0480507 0
0.104128 0.0471199 0
0.126665 0.0452583 0
0.153857 0.042237 0
0.186542 0.0378271 0
0.22475 0.0320592 0
0.266423 0.0254826 0
0.309209 0.0187533 0
0.350896 0.0124819 0
0.393179 0.00619516 0
0.436408 0 0
0.479194 0 0
0.52015 0 0
0.5579 0 0
0.59144 0 0
0.621012 0 0
0.64715 0 0
0.670329 0 0
0.691127 0 0
0.710323 0 0
0.728359 0 0
0.745693 0 0
0.762753 0 0
0.77998 0.000534066 0
0.797803 0.00529488 0
0.816587 0.0102083 0
0.835111 0.0155947 0
0.853986 0.0213321 0
0.0161898 0.061265 0
0.0298009 0.0616007 0
0.0430152 0.0621195 0
0.0565652 0.0626383 0
0.0711986 0.0629435 0
0.0876326 0.0628824 0
0.106676 0.062211 0
0.129519 0.0606546 0
0.157031 0.0579538 0
0.190082 0.0539254 0
0.228672 0.0485389 0
0.270756 0.0423743 0
0.313985 0.0361028 0
0.356161 0.0302892 0
0.398947 0.0245365 0
0.442741 0.0187381 0
0.486152 0.0133364 0
0.52781 0.00868238 0
0.566308 0.00517281 0
0.60061 0.00311284 0
0.631006 0.00244144 0
0.657969 0.00302129 0
0.682017 0.0047303 0
0.703731 0.00743114 0
0.723873 0.0109407 0
0.742885 0.0151217 0
0.761242 0.0198978 0
0.779339 0.0251316 0
0.797635 0.0307469 0
0.816556 0.0366217 0
0.8365 0.0426642 0
0.856214 0.0492561 0
0.87628 0.0561837 0
0.0170443 0.076112 0
0.030869 0.0766766 0
0.0443427 0.0774395 0
0.0581826 0.078233 0
0.0731212 0.0788586 0
0.0898909 0.0791333 0
0.109316 0.0788434 0
0.132555 0.0776837 0
0.160494 0.0754101 0
0.194003 0.0718395 0
0.233082 0.0669413 0
0.2757 0.0613107 0
0.319524 0.0556191 0
0.362341 0.0504768 0
0.405859 0.0454261 0
0.450401 0.0403906 0
0.494591 0.0357519 0
0.537057 0.0319219 0
0.57641 0.0292821 0
0.611612 0.0281071 0
0.642908 0.028336 0
0.670832 0.0298772 0
0.695872 0.032578 0
0.718608 0.0363012 0
0.739803 0.0408637 0
0.759915 0.0461433 0
0.779385 0.0520333 0
0.798642 0.0584268 0
0.818143 0.0652476 0
0.83827 0.0723125 0
0.859373 0.0795453 0
0.880171 0.0872053 0.00189212
0.901244 0.09514 0.00982681
0.0172122 0.0924239 0
0.0313573 0.0933242 0
0.045182 0.0944381 0
0.0594034 0.095613 0
0.0747539 0.0966506 0
0.0919661 0.0973678 0
0.111849 0.0975357 0
0.135592 0.0968795 0
0.164096 0.0951705 0
0.198215 0.092195 0
0.237964 0.0879835 0
0.281315 0.0830854 0
0.325902 0.0781567 0
0.369512 0.0737926 0
0.413855 0.0695811 0
0.459266 0.0654154 0
0.504372 0.0616922 0
0.547768 0.058793 0
0.588083 0.0570993 0
0.624277 0.0569314 0
0.656611 0.0581979 0
0.685603 0.0608072 0
0.711757 0.0646067 0
0.735622 0.0694591 0
0.757992 0.0751965 0
0.779293 0.0816815 0
0.799954 0.0887617 0
0.820371 0.0963149 0
0.840925 0.104173 0.00270085
0.862013 0.112215 0.0107424
0.88397 0.120302 0.0188144
0.905547 0.12874 0.0272679
0.927291 0.137346 0.0358587
0.0163424 0.110842 0
0.0309148 0.112154 0
0.045182 0.113725 0
0.0598917 0.115373 0
0.075761 0.11693 0
0.0935378 0.118212 0
0.114061 0.11902 0
0.138491 0.119051 0
0.167742 0.11809 0
0.202625 0.115892 0
0.243198 0.11249 0
0.287388 0.108431 0
0.33286 0.104387 0
0.377386 0.100938 0
0.422675 0.097673 0
0.469062 0.0944839 0
0.515175 0.0917678 0
0.559625 0.0899214 0
0.601022 0.0893111 0
0.638331 0.0902419 0
0.671809 0.092668 0
0.701991 0.0964675 0
0.729335 0.101472 0
0.754391 0.107515 0
0.777874 0.114366 0
0.800198 0.121859 0.00109865
0.82179 0.12987 0.00910964
0.84303 0.138247 0.0174868
0.864302 0.146838 0.0260929
0.88603 0.15552 0.0347601
0.908553 0.164141 0.0433967
0.930571 0.173022 0.0522774
0.952651 0.181979 0.0612345
0.0139315 0.131991 0
0.0290379 0.133822 0
0.0439002 0.136004 0
0.059266 0.138308 0
0.0758526 0.140581 0
0.0943923 0.142626 0
0.115694 0.144228 0
0.140963 0.145083 0.000762951
0.171054 0.144961 0.000656138
0.206836 0.143664 0
0.248325 0.141176 0
0.293477 0.138094 0
0.339925 0.135027 0
0.385489 0.132601 0
0.43183 0.130388 0
0.479316 0.128298 0
0.526543 0.126711 0
0.572152 0.126009 0
0.614755 0.126604 0
0.653269 0.128756 0
0.687922 0.132342 0
0.719173 0.137209 0
0.747509 0.143206 0
0.773449 0.150134 0.00581369
0.797726 0.157778 0.0134585
0.820752 0.165972 0.0216678
0.842954 0.174594 0.0302739
0.864698 0.183474 0.0391546
0.886397 0.192493 0.0481727
0.908431 0.20148 0.0571603
0.931167 0.21033 0.0660105
0.953307 0.219333 0.0750134
0.975418 0.228321 0.0840009
0.00987259 0.156619 0
0.0256962 0.159197 0
0.0413367 0.162142 0
0.0575113 0.165255 0
0.0749218 0.168353 0
0.0943313 0.171267 0
0.116533 0.17377 0.000747692
0.142733 0.17557 0.00254826
0.1738 0.176425 0.00340276
0.21059 0.17612 0.00309758
0.253117 0.17467 0.00166323
0.299336 0.172656 0
0.346899 0.170687 0
0.393591 0.169421 0
0.441123 0.168383 0
0.489799 0.167483 0
0.538231 0.167086 0
0.58497 0.167529 0
0.628611 0.169177 0
0.668086 0.172274 0
0.703578 0.176715 0.00369268
0.735607 0.182345 0.00932326
0.764599 0.188998 0.0159762
0.791119 0.19649 0.0234836
0.815854 0.204608 0.0316014
0.839277 0.213199 0.040177
0.861738 0.222095 0.049073
0.88368 0.231159 0.0581369
0.905455 0.240253 0.0672465
0.927504 0.249241 0.0762341
0.950134 0.258 0.0849775
0.972091 0.266819 0.0937972
0.993912 0.275517 0.102495
0.00411994 0.185565 0
0.020798 0.188983 0
0.0373083 0.192798 0
0.0543984 0.196826 0
0.072755 0.200885 0
0.0931411 0.204761 0
0.116365 0.208286 0.000579843
0.143618 0.211124 0.00341802
0.175769 0.213077 0.00535592
0.213672 0.213886 0.0061799
0.257343 0.213596 0.00588998
0.304753 0.212757 0.00505074
0.353521 0.212009 0.00430304
0.401389 0.211902 0.00419623
0.450034 0.211978 0.00427253
0.499718 0.2121 0.0043946
0.549065 0.212619 0.00491341
0.596643 0.213886 0.0061799
0.641001 0.216251 0.00854505
0.681102 0.219974 0.0122683
0.717144 0.224948 0.0172427
0.749599 0.231022 0.0233158
0.778943 0.23801 0.0303044
0.805692 0.245762 0.038056
0.830579 0.254032 0.0463264
0.854047 0.262669 0.054963
0.876493 0.271519 0.0638132
0.898283 0.280461 0.072755
0.919844 0.289326 0.0816205
0.941558 0.297993 0.0902876
0.96376 0.30631 0.0986038
0.98529 0.314717 0.107012
1 0.323232 0.115526
0 0.21915 0
0.0146944 0.223545 0
0.0321965 0.228351 0
0.050309 0.233402 0
0.0697337 0.238529 0
0.0912184 0.243503 0
0.115572 0.248157 0
0.143984 0.252171 0.0037995
0.17734 0.255314 0.00694286
0.216449 0.257328 0.00895705
0.26128 0.258183 0.00981155
0.309758 0.258427 0.0100557
0.359503 0.25864 0.0102693
0.408255 0.259434 0.0110628
0.457664 0.260288 0.0119173
0.508064 0.261097 0.012726
0.557992 0.262211 0.0138399
0.606058 0.263981 0.01561
0.650843 0.266743 0.0183719
0.691234 0.270771 0.0224002
0.727489 0.275959 0.0275883
0.760067 0.282155 0.0337835
0.789425 0.289174 0.0408026
0.816114 0.296849 0.0484779
0.840833 0.304952 0.0565805
0.864042 0.313313 0.0649424
0.886122 0.321813 0.0734417
0.907454 0.330297 0.0819257
0.928664 0.338811 0.0904555
0.950301 0.347402 0.0990311
0.972717 0.355917 0.107561
0.994629 0.364706 0.116335
1 0.373556 0.1252
0 0.257206 0
0.009308 0.262654 0
0.027924 0.268574 0
0.0471809 0.274769 0
0.0677806 0.281071 0
0.0904707 0.287266 0
0.116014 0.293095 0.000228885
0.145571 0.298238 0.00537118
0.17995 0.302419 0.00955215
0.220005 0.305379 0.0125124
0.26569 0.307088 0.0142214
0.314916 0.30808 0.0152132
0.365316 0.308965 0.016083
0.414618 0.310292 0.0174258
0.4645 0.31162 0.0187533
0.515251 0.312795 0.0199283
0.565469 0.314183 0.0213169
0.613718 0.316121 0.0232548
0.658564 0.318975 0.0261082
0.698955 0.322988 0.0301213
0.735103 0.328069 0.0352026
0.767468 0.334051 0.0411841
0.796536 0.34078 0.0479133
0.822828 0.348058 0.0551919
0.847105 0.355703 0.0628367
0.870054 0.363821 0.0709544
0.892149 0.372351 0.079469
0.913787 0.381125 0.0882582
0.935378 0.390021 0.0971542
0.957336 0.398932 0.106065
0.979995 0.407706 0.114839
1 0.416693 0.123827
1 0.425696 0.13283
0 0.299413 0
0.00675975 0.306065 0
0.026566 0.313176 0
0.0469978 0.320546 0
0.0686961 0.327947 0
0.0923934 0.335134 0
0.118837 0.341878 0.0030518
0.149203 0.347845 0.00900282
0.184298 0.352728 0.013901
0.224964 0.356313 0.0174716
0.271183 0.358541 0.0197147
0.320836 0.35996 0.0211337
0.371572 0.361181 0.0223392
0.421118 0.362753 0.0239261
0.471153 0.364218 0.025391
0.52195 0.365454 0.0266117
0.572122 0.366796 0.0279545
0.620218 0.368597 0.0297551
0.664836 0.371206 0.0323796
0.70489 0.374884 0.0360571
0.740597 0.379522 0.0406958
0.772564 0.385107 0.0462806
0.801465 0.391684 0.052842
0.827878 0.399069 0.0602426
0.852522 0.40708 0.0682536
0.875822 0.415564 0.0767376
0.898222 0.424369 0.0855421
0.920089 0.433387 0.0945602
0.941863 0.442481 0.103655
0.963958 0.451514 0.112673
0.986694 0.460365 0.121538
1 0.469352 0.130526
1 0.478325 0.139498
0 0.345342 0
0.0087129 0.353048 0
0.0294957 0.361151 0
0.0507973 0.36939 0
0.0732738 0.377554 0
0.0976577 0.385428 0.00157168
0.124681 0.392767 0.00889601
0.155535 0.399207 0.0153353
0.191028 0.404486 0.0206302
0.231998 0.408362 0.024506
0.278401 0.410803 0.0269474
0.328176 0.412329 0.0284733
0.378927 0.413565 0.0296941
0.428382 0.415061 0.0311894
0.478233 0.416342 0.0324712
0.528771 0.417288 0.0334325
0.578561 0.418265 0.0344091
0.6262 0.419608 0.0357519
0.670512 0.421912 0.0380407
0.710506 0.425528 0.0416724
0.746441 0.430411 0.04654
0.77879 0.436362 0.0525063
0.808026 0.443275 0.0594034
0.834714 0.45095 0.0670787
0.859571 0.459174 0.0753185
0.88304 0.467811 0.0839399
0.905531 0.476722 0.0928664
0.927459 0.485801 0.10193
0.949233 0.494881 0.111009
0.971252 0.503838 0.119982
0.993866 0.512566 0.12871
1 0.521385 0.13753
1 0.530129 0.146258
0 0.394293 0
0.013962 0.402747 0
0.0354009 0.41149 0
0.0572519 0.420279 0
0.0801862 0.428901 0.000595102
0.104921 0.43714 0.00883497
0.132219 0.444739 0.016434
0.163241 0.451347 0.0230411
0.19881 0.456718 0.028397
0.23975 0.460563 0.0322576
0.286046 0.462898 0.0345769
0.335607 0.46421 0.0359045
0.386038 0.46511 0.0368048
0.435096 0.466209 0.0379034
0.484504 0.467048 0.0387427
0.534813 0.467781 0.0394751
0.584649 0.468803 0.0404974
0.632609 0.470466 0.0421454
0.677272 0.473121 0.0448157
0.717586 0.477058 0.0487526
0.75378 0.482185 0.0538796
0.786328 0.48835 0.0600443
0.815717 0.495399 0.0670939
0.842481 0.503151 0.0748455
0.867369 0.511421 0.0831159
0.890822 0.520027 0.091722
0.913222 0.528862 0.100557
0.935012 0.537789 0.109483
0.956588 0.54667 0.118364
0.978347 0.555383 0.127077
1 0.563806 0.1355
1 0.572259 0.143938
1 0.58056 0.152255
0 0.445762 0
0.0200046 0.454643 0
0.0417792 0.463706 0
0.0638437 0.472724 0
0.0869306 0.481483 0.00733959
0.111696 0.489754 0.01561
0.138933 0.497292 0.0231479
0.169802 0.503761 0.0296025
0.205127 0.508873 0.0347295
0.245731 0.512383 0.0382391
0.291585 0.51426 0.040116
0.340764 0.51519 0.0410468
0.391073 0.515984 0.0418402
0.440284 0.51722 0.0430762
0.490043 0.518441 0.0442969
0.540703 0.519524 0.0453803
0.590845 0.520821 0.0466773
0.639033 0.522728 0.0485847
0.683879 0.525567 0.0514076
0.7243 0.529625 0.0554818
0.760555 0.534813 0.0606699
0.793118 0.540978 0.0668345
0.822461 0.547982 0.0738384
0.849119 0.555627 0.0814832
0.873854 0.563729 0.0895857
0.897078 0.572122 0.0979782
0.919219 0.580682 0.106538
0.940673 0.589273 0.115129
0.961852 0.597772 0.123629
0.983169 0.606043 0.131899
1 0.613962 0.139818
1 0.621866 0.147723
1 0.629557 0.155413
0.00454719 0.498268 0
0.0267796 0.50724 0
0.0485389 0.51632 0
0.0705272 0.525246 0.0052491
0.0934005 0.533806 0.0138247
0.117891 0.541802 0.0218051
0.144762 0.548959 0.0289769
0.175174 0.554971 0.0349737
0.210208 0.559792 0.0397955
0.250767 0.563272 0.0432746
0.29688 0.565408 0.0454108
0.346426 0.56672 0.0467231
0.39707 0.567834 0.047837
0.44654 0.569345 0.0493477
0.496529 0.570764 0.050782
0.547356 0.572 0.052018
0.597589 0.573419 0.0534218
0.645823 0.575357 0.0553597
0.690654 0.57818 0.0581979
0.731014 0.582177 0.0621805
0.767147 0.587243 0.0672465
0.799527 0.593225 0.0732433
0.828626 0.599985 0.0800031
0.854994 0.60734 0.0873579
0.879362 0.615091 0.0950942
0.90219 0.623072 0.10309
0.923858 0.631174 0.111177
0.944793 0.639246 0.119249
0.965393 0.647166 0.127169
0.986084 0.654795 0.134798
1 0.662028 0.142031
1 0.669169 0.149187
1 0.676066 0.156069
0.0121767 0.550332 0
0.0341802 0.559075 0
0.0556344 0.567834 0.00341802
0.0772106 0.576349 0.0119326
0.0996567 0.584497 0.0200656
0.123949 0.592279 0.027863
0.150881 0.599512 0.0350958
0.181628 0.605844 0.0414282
0.217029 0.611032 0.0466163
0.257893 0.614832 0.0504158
0.30425 0.617197 0.052781
0.353994 0.618708 0.0542916
0.404776 0.619959 0.0555428
0.454337 0.621561 0.0571298
0.504341 0.623011 0.0585794
0.555123 0.624216 0.0597848
0.605264 0.625528 0.0611124
0.653361 0.627329 0.0628977
0.697993 0.629953 0.0655375
0.738094 0.633677 0.0692607
0.773907 0.638437 0.0740215
0.80592 0.644053 0.0796368
0.834592 0.650385 0.0859541
0.860471 0.657252 0.0928359
0.884306 0.664454 0.100038
0.906523 0.671839 0.107424
0.927535 0.679286 0.11487
0.947768 0.686641 0.122225
0.96759 0.693797 0.129366
0.987457 0.700603 0.136187
1 0.70695 0.142535
1 0.713161 0.148745
1 0.719112 0.154696
0.0207065 0.600458 0
0.042359 0.60885 0.00283818
0.0637064 0.617502 0.01149
0.0854505 0.6262 0.0201724
0.108278 0.634714 0.028687
0.132921 0.642847 0.0368353
0.160143 0.65037 0.0443427
0.191104 0.656931 0.0509194
0.226673 0.662287 0.0562753
0.267674 0.666194 0.0601816
0.314092 0.668635 0.062623
0.363836 0.670146 0.0641337
0.414557 0.671351 0.0653239
0.464012 0.672831 0.066804
0.513848 0.674113 0.068101
0.564401 0.67509 0.0690776
0.614267 0.676127 0.0701152
0.662028 0.677592 0.0715648
0.706264 0.67982 0.0738079
0.745922 0.683101 0.0770886
0.781231 0.687343 0.0813306
0.812665 0.692393 0.0863813
0.840726 0.698116 0.0920882
0.865934 0.704311 0.0982986
0.889036 0.710781 0.104768
0.91046 0.717372 0.11136
0.930632 0.72398 0.117952
0.94995 0.730434 0.124422
0.968856 0.736645 0.130632
0.987778 0.742519 0.136507
1 0.747951 0.141939
1 0.753277 0.147265
1 0.758358 0.152346
0.0321202 0.649241 0.00585946
0.0541543 0.658015 0.0146334
0.0758221 0.666987 0.0236057
0.0978256 0.675944 0.0325628
0.120867 0.684672 0.0412909
0.145663 0.692958 0.0495766
0.172976 0.700572 0.0571908
0.203983 0.707179 0.063798
0.239536 0.71252 0.0691386
0.280461 0.71635 0.0729686
0.326741 0.718654 0.0752728
0.376303 0.719982 0.0766003
0.42678 0.720943 0.0775616
0.475929 0.722118 0.0787366
0.525414 0.723049 0.0796674
0.57557 0.723613 0.0802319
0.624964 0.724178 0.0807965
0.67219 0.725109 0.0817273
0.715846 0.726772 0.0833906
0.754864 0.729412 0.0860304
0.789471 0.732952 0.0895705
0.820157 0.737255 0.0938735
0.847395 0.742153 0.0987716
0.871733 0.747478 0.104097
0.893919 0.753033 0.109651
0.914412 0.758694 0.115312
0.933654 0.764355 0.120974
0.952071 0.769909 0.126528
0.970092 0.77525 0.131868
0.988144 0.780255 0.136873
1 0.784833 0.141451
1 0.789349 0.145968
1 0.793622 0.15024
0.0481117 0.697704 0.0218509
0.0703288 0.706661 0.030808
0.092134 0.715755 0.0399176
0.114214 0.724788 0.0489357
0.13727 0.733532 0.0576944
0.16202 0.741787 0.0659342
0.189242 0.74931 0.0734569
0.220096 0.755749 0.0799115
0.255451 0.760891 0.0850385
0.296101 0.764462 0.0886091
0.342061 0.766445 0.0905928
0.391241 0.767391 0.0915389
0.441291 0.76791 0.0920577
0.489952 0.768597 0.0927596
0.538888 0.768978 0.0931411
0.588434 0.768948 0.0930953
0.637171 0.768856 0.0930037
0.68368 0.76907 0.0932174
0.726558 0.769955 0.0941024
0.764752 0.771756 0.0959182
0.798474 0.774426 0.0985733
0.828229 0.777798 0.101946
0.854536 0.78175 0.105913
0.877943 0.78616 0.110323
0.899229 0.790814 0.114977
0.918853 0.795605 0.119753
0.937224 0.800397 0.124559
0.954803 0.805112 0.129274
0.972 0.809628 0.133791
0.989273 0.81384 0.137987
1 0.817655 0.141802
1 0.821393 0.145556
1 0.824933 0.149081
0.0677043 0.745296 0.0414282
0.0899062 0.754253 0.0503853
0.11165 0.763302 0.0594339
0.133623 0.772213 0.0683452
0.156512 0.780789 0.0769207
0.181033 0.788815 0.084947
0.207965 0.796048 0.0921798
0.238483 0.802167 0.0982986
0.273442 0.806897 0.103029
0.313634 0.81001 0.106142
0.359091 0.81149 0.107622
0.407706 0.811872 0.108003
0.457115 0.811765 0.107897
0.505089 0.811765 0.107897
0.553292 0.811414 0.107546
0.602045 0.810575 0.106706
0.649927 0.809644 0.105776
0.695537 0.808942 0.105074
0.737484 0.808896 0.105028
0.774731 0.809766 0.105898
0.807538 0.811505 0.107637
0.836408 0.813993 0.110124
0.861845 0.81709 0.113222
0.884413 0.820645 0.116777
0.90486 0.82446 0.120607
0.923674 0.828443 0.124575
0.941268 0.832456 0.128588
0.958068 0.836393 0.13254
0.974517 0.840162 0.136294
0.991058 0.843641 0.139773
1 0.846738 0.14287
1 0.84979 0.145922
1 0.852659 0.148791
0.0898909 0.791562 0.0636301
0.11191 0.80032 0.0723888
0.13341 0.809125 0.0811933
0.155062 0.817731 0.0897993
0.1776 0.82594 0.0980087
0.201694 0.833539 0.105608
0.228168 0.840299 0.112367
0.258152 0.845884 0.117952
0.2925 0.850034 0.122103
0.332052 0.852506 0.124575
0.376806 0.853269 0.125338
0.424674 0.852888 0.124956
0.473274 0.851972 0.124041
0.520378 0.851118 0.123186
0.567666 0.849836 0.121904
0.615473 0.848066 0.120134
0.662425 0.846189 0.118257
0.707118 0.844602 0.11667
0.74818 0.843656 0.115724
0.784573 0.843671 0.11574
0.816541 0.844572 0.11664
0.844587 0.846235 0.118303
0.869215 0.848524 0.120592
0.891005 0.851301 0.123369
0.910689 0.854353 0.126421
0.928756 0.857588 0.129656
0.945617 0.860883 0.132952
0.96173 0.864118 0.136187
0.977493 0.867201 0.139269
0.993362 0.870024 0.142092
1 0.872465 0.144533
1 0.874907 0.146975
1 0.877165 0.149233
0.113695 0.835981 0.0874342
0.135332 0.844358 0.0958114
0.15639 0.85272 0.104173
0.177554 0.860838 0.112276
0.199527 0.868498 0.119936
0.223011 0.875486 0.126925
0.248814 0.881575 0.133028
0.27808 0.886427 0.137881
0.31165 0.889799 0.141253
0.350378 0.891432 0.142885
0.394232 0.89131 0.142763
0.441169 0.889998 0.141451
0.488838 0.888151 0.139605
0.535012 0.886366 0.137819
0.581399 0.884184 0.135637
0.628336 0.881544 0.132998
0.674434 0.878813 0.130266
0.718288 0.876387 0.12784
0.758541 0.874632 0.126085
0.794141 0.873854 0.125307
0.82533 0.873976 0.125429
0.852613 0.874876 0.126329
0.876509 0.876432 0.127886
0.897581 0.878492 0.129946
0.916579 0.880858 0.132311
0.933959 0.883406 0.134859
0.950179 0.886046 0.137499
0.965637 0.888655 0.140108
0.980789 0.891112 0.142565
0.996063 0.893339 0.144793
1 0.895216 0.14667
1 0.897093 0.148547
1 0.898833 0.150286
0.138048 0.878065 0.111788
0.159121 0.885878 0.1196
0.179538 0.893599 0.127321
0.200015 0.90103 0.134752
0.221256 0.907942 0.141665
0.243946 0.914137 0.14786
0.268879 0.919371 0.153094
0.29723 0.923323 0.157046
0.329885 0.925765 0.159472
0.367666 0.926452 0.160174
0.410605 0.925414 0.159136
0.456641 0.923217 0.156939
0.503441 0.920501 0.154223
0.548775 0.917861 0.151583
0.594339 0.91487 0.148577
0.640467 0.911406 0.145129
0.685771 0.907897 0.141619
0.728862 0.904692 0.138415
0.768368 0.90219 0.135912
0.803235 0.900679 0.134401
0.833707 0.900099 0.133822
0.860319 0.900313 0.134035
0.883543 0.901198 0.13492
0.90396 0.902617 0.136324
0.922332 0.904341 0.138064
0.939116 0.906294 0.140017
0.954742 0.908339 0.142061
0.969635 0.910384 0.144106
0.984237 0.912291 0.146014
0.998993 0.914 0.147723
1 0.915419 0.149126
1 0.916869 0.150591
1 0.918212 0.151934
0.161746 0.917418 0.135485
0.182055 0.924453 0.142535
0.201663 0.931365 0.149432
0.221256 0.937911 0.155978
0.241566 0.943908 0.161975
0.263325 0.949172 0.167239
0.287327 0.953475 0.171542
0.314778 0.956512 0.174594
0.346548 0.958068 0.176135
