luts/color2.cube
TITLE "Generated by Resolve"
LUT_3D_SIZE 33
0 0 0
0 0 0
0.0134585 0 0
0.0304875 0 0
0.0464942 0 0
0.0626383 0 0
0.0798199 0 0
0.0987869 0 0
0.120455 0 0
0.145541 0 0
0.174563 0 0
0.207996 0 0
0.245426 0 0
0.285237 0 0
0.32578 0 0
0.365606 0 0
0.403937 0 0
0.442908 0 0
0.48217 0 0
0.520912 0 0
0.558419 0 0
0.593988 0 0
0.626932 0 0
0.656718 0 0
0.683543 0 0
0.707698 0 0
0.729488 0 0
0.749218 0 0
0.767163 0 0
0.783734 0 0
0.799268 0 0
0.813993 0 0
0.828122 0 0
0 0.0123751 0
0 0.0118715 0
0.015259 0.0101625 0
0.0325475 0.00956741 0
0.0483558 0.00932326 0
0.0643168 0.00895705 0
0.0813611 0.00827039 0
0.100191 0.00706493 0
0.121767 0.00509651 0
0.146792 0.00218204 0
0.175784 0 0
0.209216 0 0
0.246677 0 0
0.286534 0 0
0.327169 0 0
0.367102 0 0
0.40557 0 0
0.444724 0 0
0.484169 0 0
0.523156 0 0
0.560922 0 0
0.596765 0 0
0.63003 0 0
0.660166 0 0
0.687358 0 0
0.711925 0 0
0.734157 0 0
0.754345 0 0
0.772778 0 0
0.789883 0 0
0.806012 0 0
0.821408 0 0
0.836255 0 0
0 0.0271458 0
0 0.0264439 0
0.0162966 0.0245823 0
0.0334478 0.0238499 0
0.0491493 0.0234836 0
0.0650187 0.0230411 0
0.0820172 0.0223087 0
0.100832 0.0210727 0
0.122408 0.0191043 0
0.147463 0.0162356 0
0.176532 0.012314 0
0.210056 0.00724804 0
0.247639 0.00112917 0
0.287633 0 0
0.328466 0 0
0.368597 0 0
0.407309 0 0
0.446738 0 0
0.486488 0 0
0.525795 0 0
0.563912 0 0
0.600153 0 0
0.633829 0 0
0.664408 0 0
0.692073 0 0
0.717144 0 0
0.73994 0 0
0.760754 0 0
0.779873 0 0
0.797711 0 0
0.814618 0 0
0.830808 0 0
0.846494 0 0
0 0.0413367 0
0 0.0405432 0
0.0170748 0.0386053 0
0.0341802 0.0378271 0
0.0498665 0.0374456 0
0.0657511 0.0370336 0
0.0827955 0.0363317 0
0.101686 0.0351873 0
0.123369 0.0333257 0
0.148562 0.0305943 0
0.177783 0.0268406 0
0.211505 0.0219577 0
0.249302 0.0160678 0
0.28957 0.00961318 0
0.330663 0.00306706 0
0.371115 0 0
0.410163 0 0
0.449958 0 0
0.490105 0 0
0.529839 0 0
0.568414 0 0
0.605127 0 0
0.639338 0 0
0.670497 0 0
0.698817 0 0
0.72459 0 0
0.748119 0 0
0.769711 0 0
0.789654 0 0
0.808347 0 0
0.826123 0 0
0.843214 0 0
0.859861 0 0
0 0.0554513 0
0 0.0546426 0
0.0175021 0.0527352 0
0.0346685 0.052018 0
0.0504463 0.0517281 0
0.066453 0.0514229 0
0.0836347 0.0508736 0
0.102708 0.049897 0
0.12459 0.0482338 0
0.150011 0.0457313 0
0.179492 0.042237 0
0.213504 0.037644 0
0.251621 0.0320745 0
0.292241 0.0259861 0
0.333715 0.0198062 0
0.374578 0.013962 0
0.414054 0.00866712 0
0.454307 0.00335698 0
0.494957 0 0
0.535225 0 0
0.574411 0 0
0.611811 0 0
0.646723 0 0
0.67866 0 0
0.707759 0 0
0.734356 0 0
0.758755 0 0
0.781231 0 0
0.802106 0 0
0.821744 0 0
0.840513 0 0
0.85864 0.00202945 0
0.876326 0.00766003 0
0 0.0699931 0
0 0.0692912 0
0.0174105 0.0675059 0
0.0347295 0.0669413 0
0.0506905 0.0668345 0
0.0669108 0.066743 0
0.0843366 0.0664378 0
0.10367 0.0657359 0
0.125856 0.0643778 0
0.151614 0.0621958 0
0.18146 0.0590677 0
0.215854 0.0548714 0
0.254398 0.0497139 0
0.295445 0.0440681 0
0.337407 0.0383612 0
0.378775 0.0330358 0
0.41883 0.0283055 0
0.459709 0.0236362 0
0.501045 0.0191043 0
0.542062 0.0149691 0
0.58201 0.0114137 0
0.620203 0.00865187 0
0.65597 0.00688182 0
0.688762 0.0062562 0
0.718776 0.00674449 0
0.746303 0.00827039 0
0.771679 0.0107576 0
0.795163 0.0141451 0
0.81706 0.0183566 0
0.837766 0.0233158 0
0.857649 0.0289464 0
0.876905 0.0351568 0
0.895766 0.0419623 0
0 0.0855573 0
0 0.0850538 0
0.0165255 0.0834821 0
0.0341039 0.0831769 0
0.0503395 0.0833448 0
0.0668803 0.0835737 0
0.0846418 0.0836042 0
0.104356 0.0832685 0
0.12694 0.0823224 0
0.153124 0.0805676 0
0.183429 0.0778973 0
0.218311 0.0741741 0
0.257374 0.0695506 0
0.299016 0.0644999 0
0.341634 0.0594492 0
0.383703 0.0548257 0
0.424506 0.0508583 0
0.466178 0.046952 0
0.508324 0.0432441 0
0.550179 0.0399481 0
0.591028 0.0372778 0
0.630137 0.0354314 0
0.66685 0.0346227 0
0.700618 0.0349737 0
0.73164 0.0364691 0
0.76022 0.0390326 0
0.786679 0.0426032 0
0.811276 0.0471046 0
0.834318 0.0524758 0
0.856229 0.0586252 0
0.877287 0.0654307 0
0.897704 0.0728161 0
0.917647 0.0806897 0
0 0.102693 0
0 0.10248 0
0.0145724 0.101244 0
0.0325017 0.101289 0
0.0491188 0.101839 0
0.0660563 0.10248 0
0.0842603 0.102937 0
0.104448 0.103075 0
0.127535 0.102617 0
0.154269 0.101427 0
0.185183 0.0993515 0
0.220737 0.0963149 0
0.260533 0.0924239 0
0.302937 0.0881208 0
0.346334 0.0838788 0
0.389242 0.0800793 0
0.430915 0.0769665 0
0.473472 0.0739605 0
0.516548 0.0711833 0
0.55938 0.0688487 0
0.601205 0.0671702 0
0.641337 0.0663615 0
0.679118 0.0666056 0
0.713985 0.06804 0
0.74612 0.0706645 0
0.775876 0.074403 0
0.80351 0.0791638 0
0.829297 0.0848402 0
0.853483 0.0913558 0
0.876417 0.0985428 0
0.898436 0.106294 0
0.919692 0.114534 0
0.940398 0.123171 0
0 0.122133 0
0 0.122301 0
0.0109255 0.121492 0
0.0293126 0.121981 0
0.0464027 0.123018 0
0.063859 0.124163 0
0.0826429 0.1252 0
0.103456 0.125963 0
0.12723 0.126207 0
0.154711 0.12575 0
0.186404 0.124468 0
0.222766 0.122225 0
0.263401 0.119173 0
0.306676 0.115755 0
0.350988 0.112398 0
0.394827 0.10956 0
0.437476 0.107408 0
0.481041 0.105409 0
0.525154 0.10367 0
0.569055 0.102403 0
0.611978 0.101839 0
0.653269 0.102159 0
0.69221 0.103578 0
0.728283 0.106218 0
0.761593 0.110018 0
0.792447 0.114855 0
0.821088 0.120623 0
0.847791 0.127214 0
0.872786 0.134539 0
0.896437 0.142443 0
0.919081 0.150835 0
0.940887 0.159609 0.00573739
0.962036 0.168688 0.0148165
0 0.144549 0
0 0.14522 0
0.00500496 0.14493 0
0.0239719 0.146014 0
0.0417334 0.147707 0
0.0599069 0.149569 0
0.0794385 0.151369 0
0.101045 0.152926 0
0.125643 0.153994 0
0.153979 0.154376 0
0.186542 0.153979 0
0.223819 0.152667 0
0.265415 0.150561 0
0.309682 0.148119 0
0.355001 0.145785 0
0.399908 0.143999 0
0.443626 0.142931 0
0.488304 0.142046 0
0.533578 0.141466 0
0.578653 0.14139 0
0.622782 0.142 0
0.665202 0.143481 0
0.705226 0.145968 0
0.74226 0.149584 0
0.776455 0.154253 0
0.808087 0.159869 0
0.83743 0.166339 0
0.864729 0.173526 0
0.890227 0.181353 0
0.91429 0.18967 0.00643931
0.937255 0.198367 0.0151369
0.959274 0.207355 0.0241245
0.980545 0.216556 0.0333257
0 0.170687 0
0 0.172045 0
0 0.172488 0
0.0163729 0.174334 0
0.0349279 0.176822 0
0.0539406 0.179522 0
0.0743267 0.182177 0
0.0968338 0.184634 0
0.122362 0.186618 0
0.151659 0.187976 0
0.185229 0.188571 0
0.223529 0.188281 0
0.266178 0.187243 0
0.311543 0.185901 0
0.358007 0.18471 0
0.404074 0.18407 0
0.448981 0.184207 0
0.494835 0.184512 0
0.541238 0.185046 0
0.58735 0.186007 0
0.632425 0.187564 0
0.675685 0.189883 0
0.716457 0.193118 0
0.754147 0.197391 0
0.788907 0.202625 0
0.820996 0.208698 0
0.850706 0.215534 0
0.878294 0.223011 0.00386053
0.903975 0.231022 0.0118563
0.92813 0.239429 0.0202792
0.95108 0.248127 0.0289769
0.973007 0.257023 0.0378576
0.994095 0.266026 0.0468757
0 0.201465 0
0 0.203616 0
0 0.204898 0
0.00614939 0.20763 0
0.0256199 0.211032 0
0.0455634 0.214664 0
0.0669413 0.218311 0
0.0904402 0.221759 0
0.117006 0.224796 0
0.147387 0.227222 0
0.182055 0.228931 0
0.221515 0.229786 0
0.265339 0.229923 0
0.311894 0.22977 0
0.359518 0.22974 0
0.406683 0.230213 0
0.452598 0.231342 0
0.499352 0.232547 0
0.546563 0.23389 0
0.593393 0.235569 0
0.639078 0.237751 0
0.682872 0.240589 0
0.724071 0.244266 0
0.762112 0.248875 0
0.797116 0.254353 0
0.829358 0.260578 0
0.859129 0.26746 0.00479133
0.886656 0.274907 0.0122225
0.912215 0.28278 0.0200961
0.936141 0.290959 0.0282902
0.95877 0.299336 0.0366674
0.980285 0.30782 0.0451362
1 0.316411 0.053727
0 0.237003 0
0 0.240085 0
0 0.242329 0
0 0.246052 0
0.0147402 0.250477 0
0.0357519 0.255161 0
0.0582132 0.259892 0
0.082826 0.264469 0
0.110567 0.26865 0
0.142123 0.272282 0
0.177981 0.275166 0
0.218585 0.277165 0
0.263478 0.27837 0
0.310994 0.279179 0
0.359472 0.280018 0
0.407416 0.281254 0
0.454017 0.28307 0
0.501366 0.284855 0
0.549065 0.286702 0
0.596292 0.288777 0
0.642283 0.291249 0
0.68629 0.294316 0
0.727611 0.2981 0
0.765667 0.302724 0
0.800595 0.308141 0
0.83267 0.314199 0.00122072
0.862181 0.320836 0.00784314
0.889357 0.327916 0.0149233
0.914458 0.335332 0.0223545
0.938064 0.343191 0.0301976
0.960601 0.351476 0.0384985
0.9823 0.360128 0.0471504
1 0.3691 0.0561227
0 0.276921 0
0 0.281025 0
0 0.284337 0
0 0.289158 0
0.0047303 0.294713 0
0.0269017 0.300572 0
0.0505531 0.306493 0
0.0763561 0.312245 0
0.105211 0.317556 0
0.137789 0.322194 0
0.174578 0.326009 0
0.216022 0.328847 0
0.261662 0.3308 0
0.309819 0.33225 0
0.358862 0.333639 0
0.407248 0.335348 0
0.454215 0.337514 0
0.501839 0.33959 0
0.549706 0.341588 0
0.597025 0.343755 0
0.643 0.346227 0
0.6869 0.349172 0
0.728008 0.352758 0
0.765774 0.357092 0
0.800305 0.362112 0
0.831952 0.367727 0.000503548
0.861204 0.374105 0.00688182
0.888395 0.381201 0.013962
0.913787 0.388922 0.0216831
0.937758 0.397131 0.0298924
0.960616 0.405737 0.0385138
0.982574 0.414664 0.0474403
1 0.423835 0.056611
0 0.320714 0
0 0.325963 0
0 0.330465 0
0 0.336477 0
0 0.343175 0
0.0212406 0.350118 0
0.0458839 0.357031 0
0.0725872 0.363684 0
0.10222 0.369787 0
0.135515 0.375143 0
0.17293 0.379583 0
0.214878 0.38294 0
0.260945 0.385306 0
0.309438 0.387091 0
0.358709 0.388724 0
0.407248 0.390555 0
0.454261 0.392782 0
0.501823 0.394797 0
0.549569 0.396674 0
0.596643 0.398596 0
0.642298 0.400732 0
0.685771 0.403265 0
0.726482 0.406439 0
0.76408 0.41062 0
0.798733 0.415747 0
0.830716 0.421729 0
0.860334 0.428458 0.0059968
0.887816 0.435843 0.0133822
0.913451 0.443793 0.0213474
0.937606 0.452201 0.0297398
0.960586 0.460929 0.0384833
0.98262 0.469932 0.0474708
1 0.479118 0.0566567
0 0.367971 0
0 0.374365 0
0 0.379904 0
0 0.386862 0
0 0.394446 0
0.0197604 0.402152 0
0.0450752 0.409735 0
0.072343 0.416968 0
0.10248 0.42356 0
0.136156 0.429297 0
0.173861 0.434028 0
0.216007 0.437583 0
0.262181 0.440055 0
0.310689 0.441855 0
0.359884 0.443412 0
0.40824 0.445075 0
0.454978 0.447028 0
0.50219 0.448676 0
0.549477 0.450095 0
0.596231 0.451698 0
0.641825 0.453788 0
0.685512 0.456519 0
0.726604 0.46009 0
0.764553 0.464607 0
0.799466 0.470008 0
0.831678 0.476204 0.000228885
0.861448 0.483085 0.00712596
0.889052 0.490593 0.0146181
0.914733 0.498589 0.0226291
0.938872 0.506981 0.0310063
0.961791 0.515648 0.0396887
0.983703 0.524529 0.0485695
1 0.533547 0.0575723
0 0.419028 0
0 0.426246 0
0 0.432517 0
0 0.440116 0
0 0.448234 0
0.0193179 0.456397 0
0.0449836 0.464347 0
0.0725261 0.471824 0
0.102815 0.478599 0
0.136584 0.484413 0
0.174258 0.489113 0
0.216297 0.492561 0
0.262257 0.49482 0
0.31046 0.496315 0
0.359258 0.497475 0
0.407187 0.498695 0
0.453681 0.50042 0
0.500938 0.502113 0
0.548531 0.503838 0
0.595651 0.505806 0
0.64155 0.508202 0
0.685496 0.511193 0
0.726787 0.514946 0
0.764874 0.519615 0
0.799878 0.525093 0
0.83212 0.531334 0.000671397
0.861875 0.538186 0.00753796
0.889387 0.545602 0.0149538
0.914931 0.553475 0.0228122
0.938888 0.561669 0.0310216
0.961563 0.570108 0.0394446
0.983169 0.578683 0.0480201
1 0.587335 0.056672
0 0.472801 0
0 0.480537 0
0 0.487236 0
0 0.495155 0
0 0.503502 0
0.0188754 0.511803 0
0.0445869 0.519768 0
0.0720684 0.527199 0
0.10222 0.533822 0
0.135729 0.539391 0
0.173083 0.543755 0
0.214679 0.546777 0
0.260258 0.548653 0
0.308324 0.550027 0
0.357275 0.551308 0
0.405554 0.552895 0
0.452415 0.554971 0
0.499947 0.556954 0
0.547784 0.558923 0
0.595087 0.561059 0
0.641108 0.563577 0
0.685115 0.566629 0
0.726406 0.570397 0
0.764446 0.575006 0
0.799359 0.580407 0
0.831434 0.586465 0
0.860975 0.593118 0.00663767
0.888212 0.600275 0.0137789
0.913436 0.607813 0.0213321
0.937011 0.615625 0.0291447
0.959258 0.623621 0.0371405
0.980362 0.631708 0.0452277
1 0.639811 0.0533303
0 0.527733 0
0 0.535668 0
0 0.542458 0
0 0.550378 0
0 0.558633 0
0.0187228 0.566751 0
0.0441444 0.574456 0
0.0712596 0.581506 0
0.100954 0.587671 0
0.134173 0.592935 0
0.171481 0.597269 0
0.213321 0.600519 0
0.259266 0.602777 0
0.307668 0.604486 0
0.356878 0.606027 0
0.405371 0.607828 0
0.452399 0.610071 0
0.500038 0.612146 0
0.547906 0.61416 0
0.595193 0.616297 0
0.641154 0.618753 0
0.685039 0.621683 0
0.726162 0.625284 0
0.763973 0.629664 0
0.798596 0.63476 0
0.830335 0.640482 0
0.859449 0.646723 0.00512703
0.886244 0.653422 0.0118105
0.910948 0.660441 0.0188449
0.933959 0.667704 0.0260929
0.955566 0.675059 0.033463
0.976013 0.68246 0.0408637
0.995453 0.68983 0.0482338
0 0.582208 0
0 0.590005 0
0 0.596582 0
0 0.604196 0
0 0.612039 0
0.0191348 0.61973 0
0.0443732 0.627222 0
0.0715496 0.634348 0
0.101564 0.640833 0
0.135149 0.646479 0
0.172763 0.651118 0
0.214847 0.654612 0
0.261006 0.657069 0
0.309529 0.6589 0
0.358816 0.660533 0
0.40734 0.662348 0
0.454322 0.664561 0
0.501884 0.66656 0
0.549615 0.668421 0
0.596704 0.670359 0
0.642405 0.672557 0
0.685985 0.675181 0
0.726757 0.678416 0
0.764126 0.682368 0
0.798276 0.686992 0
0.82948 0.69218 0
0.858015 0.697856 0.00369268
0.884169 0.703883 0.00973526
0.908171 0.710216 0.0160678
0.930419 0.716716 0.0225528
0.951232 0.723262 0.0291142
0.970794 0.729793 0.0356451
0.989319 0.736248 0.0420996
0 0.634607 0
0 0.641978 0
0 0.648173 0
0 0.655695 0
0 0.663706 0
0.0231022 0.671763 0
0.0486763 0.679591 0
0.0761273 0.687007 0
0.106386 0.693721 0
0.140139 0.699535 0
0.177859 0.704295 0
0.22002 0.707851 0
0.266163 0.710307 0
0.314656 0.712093 0
0.363836 0.713619 0
0.412192 0.715282 0
0.458961 0.717266 0
0.506249 0.71899 0
0.553643 0.720531 0
0.600351 0.722072 0
0.645609 0.723827 0
0.688701 0.725963 0
0.728893 0.728634 0
0.765667 0.731975 0
0.799146 0.735943 0
0.829633 0.740414 0
0.857404 0.745296 0.00306706
0.882704 0.7505 0.00827039
0.905821 0.755947 0.0137179
0.927153 0.761517 0.0192874
0.947036 0.767147 0.024918
0.965682 0.772763 0.0305486
0.983322 0.778332 0.0361181
0 0.684428 0
0 0.692042 0
0 0.698634 0
0 0.706462 0
0.00773632 0.714733 0
0.0323033 0.723003 0
0.0580301 0.730983 0
0.0855726 0.738491 0
0.115877 0.745251 0
0.149599 0.751049 0
0.187274 0.755734 0
0.229297 0.759167 0
0.275257 0.76144 0
0.323507 0.762982 0
0.372396 0.764218 0
0.420417 0.76553 0
0.466773 0.767102 0
0.513588 0.768368 0
0.560464 0.76939 0
0.606607 0.770367 0
0.65124 0.771496 0
0.693645 0.772931 0
0.733104 0.774868 0
0.76907 0.777417 0
0.801694 0.780514 0
0.831281 0.784085 0
0.858122 0.788052 0.00378424
0.882506 0.792325 0.00807202
0.904723 0.796872 0.012604
0.92517 0.801572 0.0173037
0.944183 0.806332 0.0220645
0.962005 0.811124 0.0268559
0.978821 0.815869 0.0316014
0 0.733623 0
0 0.741482 0
0 0.748257 0
0 0.756222 0
0.0213931 0.764569 0
0.0459907 0.772854 0
0.0716716 0.780819 0
0.0991379 0.788235 0
0.12929 0.794842 0
0.162814 0.800427 0
0.200214 0.804852 0
0.241917 0.807965 0
0.287526 0.809873 0
0.335332 0.810987 0
0.383749 0.811749 0
0.43122 0.812512 0
0.476982 0.813504 0
0.523156 0.814115 0
0.569329 0.814435 0
0.61471 0.814649 0
0.658518 0.814954 0
0.700053 0.815534 0
0.738598 0.816541 0
0.773632 0.818158 0
0.805341 0.820356 0
0.834028 0.823026 0.00257877
0.859998 0.826108 0.00567636
0.883543 0.829541 0.00910964
0.904921 0.833249 0.0128176
0.924559 0.83714 0.0166934
0.942779 0.841108 0.0206607
0.959823 0.845121 0.0246738
0.975891 0.849119 0.0286717
0 0.781933 0
0 0.789853 0
0 0.796628 0
0.014313 0.804532 0
0.0386206 0.812772 0
0.0630503 0.82089 0
0.0885176 0.828626 0
0.115709 0.835767 0
0.14551 0.842039 0
0.178653 0.847242 0
0.21561 0.851225 0
0.256825 0.853834 0.00242618
0.301854 0.855177 0.00376898
0.349065 0.85568 0.00427253
0.396796 0.855756 0.00434882
0.443549 0.855817 0.0043946
0.488533 0.856016 0.00460822
0.533867 0.855787 0.00437934
0.579141 0.855207 0.0037995
0.62359 0.854505 0.00309758
0.666484 0.85388 0.00247196
0.707103 0.853544 0.00213626
0.744762 0.853681 0.00227359
0.778943 0.854429 0.00302129
0.809796 0.855772 0.00436408
0.837674 0.857618 0.00621042
0.862837 0.859907 0.00849927
0.885588 0.862562 0.0111391
0.906203 0.865492 0.0140841
0.925093 0.868635 0.0172274
0.94258 0.871885 0.0204776
0.958923 0.875181 0.0237736
0.974304 0.878492 0.0270848
0 0.828916 0
0 0.836713 0
0.00880446 0.84329 0
0.0343481 0.85095 0
0.0583505 0.858885 0
0.0824292 0.866651 0
0.107485 0.873976 0
0.134203 0.880644 0.00283818
0.163485 0.886397 0.00859083
0.196048 0.89102 0.0132143
0.232364 0.894362 0.016556
0.272892 0.896284 0.0184787
0.317174 0.89688 0.019089
0.363577 0.89659 0.0187839
0.410452 0.895811 0.0180056
0.456306 0.894957 0.0171511
0.500359 0.894224 0.016434
0.544762 0.89308 0.0152743
0.589151 0.8916 0.0138094
0.632731 0.890013 0.0122225
0.674754 0.888548 0.0107424
0.714519 0.887358 0.00956741
0.751369 0.886671 0.00888075
0.784756 0.886641 0.00883497
0.814832 0.887205 0.00939956
0.841947 0.888289 0.0104982
0.866361 0.88983 0.0120394
0.888395 0.891768 0.013962
0.908309 0.894011 0.0162051
0.926528 0.896468 0.0186618
0.943358 0.899046 0.0212558
0.95906 0.901701 0.0239109
0.973816 0.904402 0.0265965
0 0.874128 0
0.00120546 0.881605 0
0.0307927 0.887816 0
0.0559091 0.895048 0
0.0794232 0.902495 0.00216678
0.102968 0.909712 0.0093843
0.127413 0.916426 0.0161135
0.153475 0.922454 0.0221256
0.182055 0.927489 0.0271611
0.21384 0.931334 0.0310216
0.249348 0.933867 0.0335393
0.288991 0.934905 0.0345769
0.332357 0.934585 0.0342718
0.377829 0.933364 0.0330358
0.423789 0.93167 0.031342
0.468742 0.929915 0.0296025
0.51194 0.928328 0.0280003
0.555489 0.926329 0.0260014
0.599039 0.924025 0.0236973
0.64181 0.92163 0.0213016
0.683055 0.919356 0.0190433
0.722057 0.917418 0.0170901
0.758144 0.915969 0.0156558
0.790799 0.915206 0.0148775
0.820172 0.915053 0.014725
0.846586 0.91545 0.0151217
0.870329 0.91632 0.0159915
0.891707 0.917586 0.0172732
0.910994 0.919203 0.0188754
0.928588 0.92105 0.0207218
0.944823 0.923033 0.0227054
0.959945 0.925124 0.0247959
0.974151 0.92726 0.0269322
0 0.917235 0
0.024094 0.924208 0.00416571
0.0531319 0.929854 0.00981155
0.0776226 0.936461 0.016434
0.100465 0.943236 0.023209
0.123262 0.949722 0.0296941
0.146929 0.955657 0.0356298
0.172152 0.96083 0.0408026
0.199832 0.964981 0.0449378
0.230701 0.96791 0.0478828
0.265278 0.969497 0.0494698
0.304006 0.969635 0.0496071
0.346502 0.968444 0.0484169
0.391119 0.966354 0.0463264
0.436225 0.963806 0.0437781
0.480354 0.961242 0.0412146
0.522744 0.958846 0.038819
0.565515 0.956054 0.0360266
0.608301 0.952987 0.0329595
0.650324 0.949859 0.0298161
0.690837 0.946853 0.0268254
0.729137 0.944213 0.0241703
0.764553 0.942077 0.0220493
0.796536 0.940642 0.0206149
0.825254 0.939849 0.0198215
0.851041 0.93962 0.0195926
0.874189 0.939879 0.019852
0.894972 0.940566 0.0205386
0.913695 0.941604 0.0215763
0.930739 0.942901 0.0228733
0.946471 0.944381 0.0243534
0.96112 0.945998 0.0259709
0.974899 0.947707 0.0276799
0.0220951 0.957809 0.0202029
0.0464027 0.96408 0.0264744
0.0746929 0.968978 0.0313726
0.0983749 0.974777 0.037171
0.120348 0.980697 0.0430915
0.142245 0.986282 0.0486763
0.164981 0.991287 0.0536812
0.189273 0.995529 0.0579232
0.216052 0.998779 0.0611734
