luts/color5.cube
TITLE "Generated by Resolve"
LUT_3D_SIZE 9
0 0.00254826 0.0419623
0.0163424 0.00259403 0.0420233
0.0783398 0.00155642 0.0409705
0.185351 0 0.0272526
0.381003 0 0
0.587594 0 0
0.736934 0 0
0.822599 0 0
0.893904 0 0
0 0.06009 0.0421912
0.0162661 0.0598459 0.0419471
0.0790875 0.0596017 0.0417182
0.188785 0.0485695 0.0306706
0.388998 0.0156405 0
0.602213 0 0
0.760632 0 0
0.857954 0 0
0.943557 0 0
0 0.129915 0.027924
0.00724804 0.134905 0.032929
0.0775769 0.142184 0.0401923
0.197284 0.141161 0.0391699
0.410132 0.120867 0.0188754
0.638498 0.103105 0.00111391
0.814038 0.106798 0.00480659
0.928359 0.132464 0.0304723
1 0.165072 0.0630961
0 0.252781 0
0 0.271382 0
0.0546731 0.294636 0.0172885
0.191745 0.310964 0.0336309
0.420935 0.307012 0.0296788
0.662089 0.302037 0.0247044
0.844633 0.312734 0.0354009
0.960037 0.339498 0.06215
1 0.371725 0.094377
0 0.44152 0
0 0.475456 0
0.0496071 0.50956 0.0122377
0.191394 0.530602 0.0332799
0.420539 0.526619 0.0292973
0.661372 0.521309 0.0239872
0.844236 0.532341 0.0350042
0.961044 0.560479 0.0631571
1 0.591485 0.0941482
0 0.657328 0
0 0.690898 0
0.0589609 0.724834 0.0215915
0.201511 0.746639 0.0434119
0.431601 0.743587 0.0403449
0.669856 0.735698 0.0324559
0.846418 0.740429 0.0371862
0.953262 0.758618 0.055375
1 0.776959 0.0737163
0 0.851423 0.0215
0.0291752 0.884779 0.0548562
0.12224 0.914794 0.0848554
0.25713 0.928954 0.0990158
0.476097 0.914778 0.0848402
0.701091 0.893629 0.0637064
0.863767 0.884474 0.0545357
0.957519 0.88957 0.0596323
1 0.896162 0.0662394
0.0281376 1 0.112718
0.108324 1 0.134005
0.187716 1 0.150347
0.308858 1 0.150759
0.515236 1 0.123995
0.728954 0.993225 0.0915694
0.881819 0.974258 0.0725872
0.967407 0.971191 0.0695354
1 0.971222 0.0695659
0.0851759 1 0.169757
0.153246 1 0.178927
0.221866 1 0.184482
0.333791 1 0.175692
0.532601 1 0.141344
0.740322 1 0.102937
0.888548 1 0.0793317
0.970642 1 0.072755
1 1 0.0703899
0 0.00254826 0.0996719
0.0164492 0.00271611 0.0998245
0.0782483 0.00146487 0.0985733
0.185245 0 0.0848402
0.381079 0 0.0475319
0.588037 0 0.00834669
0.737926 0 0
0.824323 0 0
0.896681 0 0
0 0.060029 0.0998398
0.0164492 0.0600137 0.0998245
0.0796979 0.0602121 0.100023
0.190005 0.0498054 0.089601
0.391043 0.0177005 0.057496
0.605447 0 0.0257572
0.765286 0 0.0137636
0.864256 0 0.0240635
0.951705 0.00436408 0.0441749
0 0.131411 0.087129
0.00968948 0.137362 0.09308
0.0813001 0.145907 0.101625
0.202502 0.14638 0.102098
0.417075 0.12781 0.0835279
0.647395 0.112001 0.0677195
0.824598 0.117357 0.0730755
0.939956 0.14406 0.0997787
1 0.177066 0.132784
0 0.25861 0.0389715
0 0.279011 0.0593729
0.0642557 0.304219 0.0845808
0.202762 0.321981 0.102358
0.432746 0.318822 0.0991989
0.674067 0.314015 0.094377
0.856138 0.324239 0.104616
0.971511 0.350958 0.131319
1 0.383627 0.163989
0 0.452888 0.0132601
0 0.487388 0.0477607
0.0614939 0.521447 0.0818189
0.202594 0.541817 0.10219
0.432212 0.538293 0.0986648
0.67335 0.533288 0.0936599
0.856138 0.544244 0.104616
0.972503 0.571954 0.132326
1 0.602136 0.162509
0 0.668605 0.0230564
0 0.702708 0.0571756
0.0709544 0.736828 0.0912947
0.213306 0.758434 0.112902
0.442817 0.754803 0.10927
0.68011 0.745953 0.10042
0.855329 0.749355 0.103807
0.960647 0.766003 0.12047
1 0.782971 0.137438
0 0.86305 0.0908217
0.0400854 0.895689 0.123461
0.132052 0.924605 0.152377
0.265476 0.937301 0.165072
0.482979 0.92166 0.149432
0.70663 0.899168 0.12694
0.868086 0.888792 0.116564
0.960784 0.892821 0.120592
1 0.898482 0.126253
0.035935 1 0.17821
0.114702 1 0.198077
0.192798 1 0.213123
0.312779 1 0.212375
0.518135 1 0.184588
0.730983 0.995254 0.151293
0.883192 0.975631 0.13167
0.968261 0.972045 0.128084
1 0.971664 0.127703
0.0887007 1 0.230991
0.15581 1 0.239185
0.223636 1 0.243961
0.334966 1 0.234562
0.533288 1 0.199741
0.740642 1 0.160952
0.888609 1 0.137087
0.97055 1 0.130373
1 1 0.127962
0 0 0.196551
0.0134279 0 0.196643
0.0750896 0 0.195254
0.182132 0 0.181552
0.37821 0 0.144488
0.58558 0 0.10573
0.736095 0 0.0843977
0.823301 0 0.082948
0.896834 0 0.089128
0 0.0569772 0.196612
0.0137026 0.0572824 0.196918
0.0774548 0.057969 0.197604
0.188449 0.048249 0.187884
0.390433 0.0170748 0.15671
0.606088 0 0.126238
0.767422 0 0.11574
0.868116 0 0.127749
0.957519 0.0101778 0.149813
0 0.130159 0.185702
0.00950637 0.137179 0.192721
0.0824598 0.147066 0.202609
0.205234 0.149126 0.204669
0.421607 0.132342 0.187884
0.653895 0.118502 0.174044
0.832547 0.125307 0.18085
0.948714 0.152819 0.208362
1 0.186007 0.24155
0 0.261982 0.142168
0 0.28426 0.164462
0.0713359 0.311299 0.191501
0.211063 0.330297 0.210483
0.441642 0.327733 0.207919
0.682918 0.322866 0.203067
0.864302 0.332418 0.212604
0.980117 0.359579 0.239765
1 0.392569 0.272755
0 0.461494 0.121691
0 0.496345 0.156542
0.070161 0.530129 0.190326
0.210803 0.550027 0.210224
0.440986 0.547066 0.207279
0.682307 0.542245 0.202457
0.864912 0.553017 0.213214
0.980697 0.580133 0.24033
1 0.609369 0.269581
0 0.677073 0.131365
0 0.711604 0.165896
0.0798962 0.745754 0.200046
0.221897 0.767025 0.221317
0.45069 0.762692 0.216983
0.686915 0.752758 0.20705
0.860685 0.754696 0.208988
0.964523 0.769879 0.22417
1 0.785489 0.23978
0 0.871427 0.199039
0.0476234 0.903227 0.230838
0.138369 0.930922 0.258518
0.270268 0.942092 0.269703
0.486336 0.925017 0.252613
0.708705 0.901244 0.22884
0.869001 0.889708 0.217304
0.960662 0.892699 0.22031
1 0.897475 0.225071
0.0401923 1 0.282292
0.117571 1 0.300786
0.19443 1 0.314595
0.313313 1 0.312734
0.517678 1 0.283955
0.729717 0.993988 0.249851
0.881331 0.97377 0.229633
0.965927 0.969696 0.225574
1 0.968948 0.224811
0.0888533 1 0.330968
0.155016 1 0.338231
0.222141 1 0.34229
0.332921 1 0.332341
0.5308 1 0.297078
0.737819 1 0.257954
0.885573 1 0.233875
0.967407 1 0.227039
1 1 0.224643
0 0 0.354406
0.00560006 0 0.354223
0.0672007 0 0.352758
0.17435 0 0.339178
0.370718 0 0.302403
0.578592 0 0.264149
0.729778 0 0.243488
0.817929 0 0.242969
0.892729 0 0.250416
0 0.0492866 0.35433
0.00637827 0.049958 0.355001
0.0706951 0.0512093 0.356252
0.182437 0.0422217 0.347265
0.385489 0.0121309 0.317174
0.602487 0 0.288045
0.765393 0 0.279103
0.867872 0 0.292912
0.959228 0.0118868 0.31693
0 0.124468 0.345418
0.00503548 0.132692 0.353643
0.079408 0.144015 0.364965
0.20383 0.147707 0.368658
0.42208 0.132815 0.353765
0.656214 0.120821 0.341756
0.836103 0.128862 0.349813
0.95288 0.15697 0.37792
1 0.190127 0.411078
0 0.261219 0.306828
0 0.285466 0.33106
0.0741894 0.314153 0.359747
0.214923 0.334142 0.379751
0.445853 0.331945 0.377539
0.68687 0.326818 0.372427
0.867781 0.335882 0.381491
0.984161 0.363607 0.409216
1 0.396796 0.44239
0 0.465537 0.291157
0 0.500542 0.326146
0.0738689 0.533822 0.359426
0.214527 0.55375 0.379355
0.445136 0.551217 0.376822
0.686503 0.546441 0.372045
0.868772 0.556878 0.382483
0.983871 0.583322 0.408927
1 0.611475 0.437095
0 0.680995 0.300679
0 0.715816 0.3355
0.0840162 0.749874 0.369574
0.225559 0.770687 0.390387
0.453529 0.765515 0.385214
0.688533 0.754376 0.374075
0.860777 0.754788 0.374487
0.96318 0.768536 0.388235
1 0.782864 0.402564
0 0.874846 0.367849
0.0500496 0.905669 0.398672
0.139452 0.932006 0.42501
0.269825 0.941649 0.434653
0.48452 0.923201 0.416205
0.705623 0.898161 0.391165
0.864805 0.885512 0.378515
0.955489 0.887526 0.380529
1 0.891493 0.384497
0.0392309 1 0.446738
0.115282 1 0.46389
0.190936 1 0.476509
0.308751 1 0.473579
0.512184 1 0.44387
0.723507 0.987778 0.409049
0.874571 0.96701 0.388281
0.958709 0.962478 0.383749
1 0.961395 0.382666
0.0839399 1 0.491447
0.149233 1 0.497841
0.215717 1 0.501274
0.325978 1 0.490806
0.523445 1 0.455131
0.730175 1 0.415717
0.877745 1 0.391455
0.959503 1 0.384558
1 1 0.382193
0 0 0.52079
0 0 0.520409
0.0586404 0 0.518944
0.165972 0 0.505531
0.362707 0 0.469139
0.571145 0 0.431418
0.723079 0 0.411521
0.812268 0 0.412055
0.888411 0 0.420844
0 0.0410163 0.52079
0 0.0421302 0.521904
0.0634775 0.044007 0.523781
0.176059 0.0358434 0.515618
0.380301 0.00694286 0.486717
0.598718 0 0.459007
0.763272 0 0.451713
0.867613 0 0.467399
0.960845 0.0135042 0.493278
0 0.118502 0.514183
0.000335698 0.127993 0.52369
0.0762036 0.14081 0.536507
0.202365 0.146242 0.541924
0.422568 0.133303 0.528984
0.658366 0.122957 0.518639
0.839261 0.132021 0.527703
0.95642 0.16051 0.556207
1 0.193423 0.58912
0 0.260441 0.480766
0 0.286625 0.506966
0.0767834 0.316747 0.537072
0.218296 0.337514 0.557855
0.449378 0.33547 0.55581
0.689921 0.32987 0.55021
0.870802 0.338918 0.559258
0.987625 0.367071 0.587411
1 0.40032 0.620645
0 0.469047 0.469398
0 0.503975 0.504311
0.0766003 0.536568 0.536904
0.217746 0.55697 0.557321
0.448661 0.554742 0.555093
0.689967 0.549905 0.55024
0.871794 0.559899 0.560235
0.986053 0.585504 0.58584
1 0.612451 0.612802
0 0.684367 0.478798
0 0.719356 0.513787
0.0873579 0.753216 0.547646
0.228321 0.773449 0.56788
0.455314 0.7673 0.56173
0.688975 0.754833 0.549264
0.859709 0.753719 0.54815
0.960723 0.766079 0.56051
1 0.779141 0.573571
0 0.877272 0.545022
0.0513924 0.907012 0.574746
0.13933 0.931884 0.599619
0.268223 0.940047 0.607797
0.481575 0.920256 0.588006
0.701488 0.894026 0.561761
0.859602 0.880308 0.548043
0.94934 0.881392 0.549126
1 0.884627 0.552377
0.0371252 1 0.619379
0.111879 1 0.635233
0.186389 1 0.646693
0.303181 1 0.642741
0.50573 1 0.612161
0.716426 0.980697 0.576699
0.866957 0.959396 0.555413
0.950698 0.954467 0.550469
1 0.953079 0.549096
0.0780346 1 0.660288
0.142535 1 0.665888
0.208423 1 0.668727
0.318212 1 0.657771
0.515312 1 0.621729
0.721782 1 0.582055
0.8692 1 0.557641
0.950927 1 0.550713
1 1 0.54844
0 0 0.68011
0 0 0.679591
0.0506752 0 0.678172
0.158236 0 0.665019
0.355413 0 0.629038
0.564462 0 0.591959
0.71722 0 0.572869
0.807599 0 0.574594
0.885145 0 0.584787
0 0.0334325 0.680415
0 0.0350347 0.682017
0.057084 0.0375982 0.684581
0.170596 0.030396 0.677378
0.376104 0.00274662 0.649729
0.596033 0 0.623514
0.762295 0 0.61796
0.868605 0 0.635584
0.9635 0.0161593 0.663142
0 0.113481 0.676371
0 0.124331 0.687221
0.0741131 0.13872 0.701625
0.202075 0.145953 0.708843
0.424231 0.134966 0.697856
0.661463 0.126055 0.688945
0.843168 0.135927 0.698817
0.960494 0.164599 0.727489
1 0.19704 0.75993
0 0.260868 0.648402
0 0.288884 0.676432
0.0802472 0.320211 0.707744
0.222324 0.341558 0.729107
0.453361 0.339452 0.727001
0.693217 0.333165 0.720714
0.874571 0.342672 0.73022
0.991699 0.371145 0.758694
1 0.404318 0.791867
0 0.473136 0.640696
0 0.507759 0.675319
0.0799725 0.539925 0.707485
0.221668 0.560891 0.72845
0.452766 0.558846 0.72639
0.693858 0.553796 0.72134
0.87509 0.563195 0.730755
0.988403 0.587854 0.755398
1 0.613489 0.781033
0 0.688396 0.650034
0 0.72343 0.685069
0.0910658 0.756939 0.718578
0.231327 0.776455 0.738094
0.457237 0.769223 0.730861
0.689433 0.755291 0.71693
0.858686 0.752697 0.714336
0.958358 0.763714 0.725353
1 0.77557 0.737209
0 0.879942 0.714885
0.0528267 0.908431 0.743389
0.139223 0.931777 0.766735
0.266697 0.938521 0.77348
0.478752 0.917433 0.752392
0.697505 0.890043 0.725002
0.854597 0.875303 0.710262
0.94345 0.875502 0.710445
1 0.878096 0.713054
0.035111 1 0.784573
0.108629 1 0.799191
0.182025 1 0.809537
0.297841 1 0.804608
0.499596 1 0.773236
0.709697 0.973968 0.737179
0.859754 0.952178 0.715404
0.943099 0.946883 0.710094
1 0.945235 0.708446
0.0723583 1 0.82182
0.136172 1 0.826734
0.201511 1 0.829023
0.310842 1 0.817624
0.507607 1 0.781247
0.713863 1 0.74136
0.861189 1 0.716838
0.942916 1 0.709911
1 1 0.707744
0 0 0.794797
0 0 0.794217
0.0462196 0 0.792905
0.154101 0 0.780056
0.351766 0 0.744579
0.561502 0 0.708171
0.71519 0 0.690028
0.806836 0 0.693019
0.885878 0 0.704707
0 0.0294499 0.795605
0 0.0316167 0.797787
0.0544137 0.0349432 0.801099
0.169009 0.028809 0.794965
0.37586 0.00251774 0.768673
0.59736 0 0.74403
0.765423 0 0.740261
0.873686 0 0.759854
0.970031 0.0226902 0.788861
0 0.112352 0.79443
0 0.124636 0.806714
0.0760815 0.140688 0.822766
0.205921 0.149798 0.831876
0.429923 0.140658 0.822736
0.668376 0.132967 0.815045
0.85066 0.14342 0.825498
0.967941 0.172045 0.854124
1 0.203815 0.885893
0 0.265446 0.772168
0 0.295094 0.801816
0.0874495 0.327413 0.834134
0.229877 0.349111 0.855833
0.460639 0.346731 0.853452
0.700038 0.339986 0.846708
0.881941 0.350057 0.856779
0.999268 0.378714 0.885435
1 0.411688 0.91841
0 0.480674 0.767407
0 0.514794 0.801526
0.0870375 0.54699 0.833722
0.22916 0.568383 0.855116
0.460288 0.566369 0.853101
0.70106 0.560998 0.84773
0.88159 0.569696 0.856428
0.993835 0.593271 0.880003
1 0.617456 0.904189
0 0.695933 0.776761
0.00195315 0.730877 0.811704
0.0980697 0.763928 0.844755
0.237476 0.782605 0.863416
0.462165 0.774151 0.854978
0.692836 0.758679 0.839506
0.860655 0.754665 0.835492
0.959045 0.764385 0.845212
1 0.775097 0.855909
0 0.885679 0.839811
0.0572213 0.912825 0.866957
0.142092 0.934646 0.888777
0.268193 0.940017 0.894148
0.478996 0.917678 0.871809
0.696635 0.889174 0.843305
0.85275 0.873457 0.827588
0.940795 0.872847 0.826978
1 0.874861 0.828977
0.0361334 1 0.904768
0.108446 1 0.918196
0.180789 1 0.927474
0.295659 1 0.921614
0.496712 1 0.889525
0.706249 0.97052 0.852918
0.855863 0.948302 0.830701
0.938888 0.942657 0.825055
1 0.940795 0.823194
0.0699016 1 0.938537
0.133074 1 0.942809
0.197894 1 0.944579
0.306828 1 0.932784
0.503304 1 0.896117
0.709377 1 0.856046
0.856626 1 0.831464
0.938399 0.999863 0.824567
1 0.997864 0.822568
0 0 0.866911
0 0 0.866316
0.0451667 0 0.865187
0.153429 0 0.852705
0.351644 0 0.817792
0.562142 0 0.782132
0.716884 0 0.765057
0.809888 0 0.769375
0.890486 0 0.782635
0 0.0289464 0.868437
0 0.031754 0.871244
0.055375 0.0359045 0.875395
0.171176 0.0309606 0.870451
0.379446 0.00608835 0.845579
0.602594 0 0.822583
0.772534 0 0.820691
0.882643 0.00265507 0.842145
0.98024 0.0328985 0.872389
0 0.115007 0.870405
0.00111391 0.128786 0.884184
0.0819562 0.146578 0.901976
0.213764 0.157641 0.913039
0.439414 0.150149 0.905547
0.678859 0.14345 0.898863
0.861524 0.154284 0.909697
0.978546 0.18265 0.938048
1 0.213931 0.969329
0 0.273976 0.854017
0.00199893 0.305028 0.885069
0.098146 0.338109 0.918151
0.240726 0.35996 0.940017
0.471 0.357092 0.937148
0.710399 0.350347 0.930404
0.892729 0.360845 0.940902
1 0.389548 0.969604
1 0.422217 1
0 0.491417 0.851469
0.00183108 0.524849 0.884901
0.0975967 0.557549 0.917617
0.240024 0.579232 0.9393
0.471061 0.577142 0.937209
0.711376 0.571313 0.931365
0.891081 0.579187 0.939239
1 0.601541 0.961608
1 0.624201 0.984253
0 0.706813 0.86096
0.012604 0.741527 0.895674
0.108125 0.773983 0.92813
0.246555 0.791684 0.94583
0.469902 0.781888 0.936049
0.699046 0.764904 0.919051
0.865492 0.759503 0.913649
0.962615 0.767971 0.922118
1 0.777554 0.931701
0 0.894316 0.921782
0.0643778 0.919997 0.947448
0.147784 0.940352 0.967803
0.272557 0.944381 0.971832
0.482155 0.920836 0.948302
0.698726 0.891264 0.91873
0.85391 0.874617 0.902068
0.941253 0.873289 0.900755
1 0.874739 0.90219
0.0400397 1 0.98201
0.111208 1 0.994278
0.182528 1 1
0.296529 1 0.995804
0.496941 1 0.963073
0.705959 0.97023 0.925963
0.855161 0.947601 0.903319
0.937896 0.941665 0.897398
1 0.93962 0.895338
0.0705119 1 1
0.133104 1 1
0.197436 1 1
0.306004 1 1
0.50222 1 0.968368
0.708156 1 0.928145
0.855375 1 0.903532
0.937224 0.998703 0.896727
1 0.996887 0.894926
0 0 0.917052
0 0 0.916518
0.0459297 0 0.915633
0.15462 0 0.903593
0.353475 0 0.869307
0.564782 0 0.83447
0.720714 0 0.81857
0.815137 0 0.824323
0.897383 0 0.839216
0 0.0303502 0.919539
0 0.0338445 0.923018
0.0584268 0.0389563 0.92813
0.175494 0.0352789 0.924468
0.38526 0.0119173 0.901091
0.610147 0 0.879835
0.78204 0 0.879896
0.893797 0.0138094 0.902998
0.992416 0.0450752 0.934264
0 0.119844 0.924941
0.00755322 0.13521 0.940307
0.0901961 0.154803 0.959899
0.223941 0.167819 0.972915
0.451011 0.161746 0.966842
0.691264 0.155856 0.960952
0.874083 0.166842 0.971939
0.990631 0.194736 0.999832
1 0.225986 1
0 0.284733 0.914488
0.0139773 0.316991 0.946731
0.110674 0.350637 0.980377
0.253193 0.372427 1
0.482765 0.368856 0.998596
0.722652 0.3626 0.99234
0.905303 0.373404 1
1 0.402045 1
1 0.434256 1
0 0.503685 0.913436
0.0137026 0.536706 0.946456
0.110018 0.56997 0.979721
0.252598 0.591821 1
0.483436 0.589517 0.999268
0.723156 0.583093 0.992844
0.9019 0.590005 0.999756
1 0.611032 1
1 0.632166 1
0 0.719356 0.923186
0.0248112 0.753719 0.957565
0.1196 0.785458 0.989303
0.256931 0.80206 1
0.478813 0.790814 0.994644
0.706493 0.772335 0.976181
0.87158 0.765591 0.969436
0.967514 0.772869 0.976699
1 0.781384 0.985214
0 0.904204 0.981353
0.0727398 0.928344 1
0.154726 0.94728 1
0.278202 0.950011 1
0.486641 0.925322 1
0.70219 0.894728 0.971878
0.856489 0.877195 0.954345
0.943191 0.875242 0.952392
1 0.876158 0.953307
0.045243 1 1
0.115312 1 1
0.185641 1 1
0.298863 1 1
0.49868 1 1
0.707225 0.971496 0.976913
0.856046 0.948486 0.953902
0.938521 0.942306 0.947723
1 0.940108 0.945525
0.0726177 1 1
0.134661 1 1
0.19855 1 1
0.306798 1 1
0.5028 1 1
0.708614 1 0.978302
0.855848 1 0.953704
0.937819 0.999298 0.947021
1 0.997711 0.945434
