luts/color2.cube
TITLE "Generated by Resolve"
LUT_3D_SIZE 9
0 0 0
0.0464942 0 0
0.120455 0 0
0.245426 0 0
0.403937 0 0
0.558419 0 0
0.683543 0 0
0.767163 0 0
0.828122 0 0
0 0.0554513 0
0.0504463 0.0517281 0
0.12459 0.0482338 0
0.251621 0.0320745 0
0.414054 0.00866712 0
0.574411 0 0
0.707759 0 0
0.802106 0 0
0.876326 0.00766003 0
0 0.122133 0
0.0464027 0.123018 0
0.12723 0.126207 0
0.263401 0.119173 0
0.437476 0.107408 0
0.611978 0.101839 0
0.761593 0.110018 0
0.872786 0.134539 0
0.962036 0.168688 0.0148165
0 0.237003 0
0.0147402 0.250477 0
0.110567 0.26865 0
0.263478 0.27837 0
0.454017 0.28307 0
0.642283 0.291249 0
0.800595 0.308141 0
0.914458 0.335332 0.0223545
1 0.3691 0.0561227
0 0.419028 0
0 0.448234 0
0.102815 0.478599 0
0.262257 0.49482 0
0.453681 0.50042 0
0.64155 0.508202 0
0.799878 0.525093 0
0.914931 0.553475 0.0228122
1 0.587335 0.056672
0 0.634607 0
0 0.663706 0
0.106386 0.693721 0
0.266163 0.710307 0
0.458961 0.717266 0
0.645609 0.723827 0
0.799146 0.735943 0
0.905821 0.755947 0.0137179
0.983322 0.778332 0.0361181
0 0.828916 0
0.0583505 0.858885 0
0.163485 0.886397 0.00859083
0.317174 0.89688 0.019089
0.500359 0.894224 0.016434
0.674754 0.888548 0.0107424
0.814832 0.887205 0.00939956
0.908309 0.894011 0.0162051
0.973816 0.904402 0.0265965
0.0436408 0.995392 0.0417487
0.138247 1 0.0609903
0.230518 1 0.0756237
0.370687 1 0.0726024
0.54107 1 0.0571298
0.703914 0.993545 0.0399023
0.833768 0.981964 0.0283207
0.918563 0.980102 0.0264591
0.976974 0.983398 0.0297704
0.103059 1 0.101167
0.185321 1 0.108064
0.266514 1 0.11162
0.396994 1 0.0988937
0.559274 1 0.075349
0.715602 1 0.0515908
0.840406 1 0.0349584
0.921324 1 0.0292058
0.976959 1 0.0297398
0 0 0.024918
0.0472419 0 0.0216526
0.120928 0 0.0177157
0.245823 0 0
0.40444 0 0
0.559228 0 0
0.68484 0 0
0.769146 0 0
0.831022 0 0
0 0.0558633 0.0289921
0.0510414 0.0523232 0.025452
0.125551 0.0492103 0.0223392
0.253147 0.0336004 0.00674449
0.416327 0.0109407 0
0.577737 0 0
0.712413 0 0
0.808301 0 0
0.884276 0.0155947 0
0 0.123903 0.0217136
0.049012 0.125612 0.0234226
0.131014 0.130007 0.0278172
0.268589 0.124361 0.0221714
0.444282 0.114214 0.0120241
0.62063 0.110475 0.00830091
0.772015 0.120455 0.018265
0.884398 0.146166 0.0439765
0.974243 0.180896 0.078706
0 0.242771 0
0.0221866 0.257923 0
0.119921 0.278004 0.0167086
0.274403 0.289296 0.0280003
0.465919 0.294972 0.0336614
0.654551 0.303517 0.0422065
0.812604 0.32015 0.058854
0.925978 0.346853 0.0855573
1 0.381186 0.119875
0 0.430381 0
0.00694286 0.460334 0
0.115068 0.490837 0.0118563
0.274037 0.5066 0.0276188
0.465461 0.512184 0.0332036
0.653742 0.520394 0.041413
0.812131 0.537346 0.0583658
0.926879 0.565423 0.0864424
1 0.598627 0.119646
0 0.646097 0
0.0106966 0.675669 0
0.118624 0.705974 0.0154116
0.278355 0.722484 0.0319371
0.47071 0.729015 0.038468
0.65658 0.734798 0.0442512
0.808957 0.745739 0.0551919
0.914168 0.764279 0.0737316
0.990265 0.785275 0.094728
0 0.840986 0.0148623
0.0698558 0.870405 0.0442817
0.17406 0.896971 0.0708476
0.326482 0.906188 0.0800641
0.508171 0.902037 0.0759136
0.681208 0.895003 0.0688792
0.820066 0.892424 0.0663157
0.912444 0.898131 0.0720073
0.976959 0.907546 0.0814221
0.0523842 1 0.102174
0.145556 1 0.119966
0.236515 1 0.133303
0.375494 1 0.129076
0.544808 1 0.112566
0.706737 0.996368 0.0944076
0.835859 0.98407 0.0821088
0.920119 0.981643 0.0796826
0.978073 0.984497 0.082536
0.107469 1 0.157259
0.188724 1 0.163134
0.269032 1 0.16582
0.398871 1 0.152453
0.560632 1 0.128389
0.716564 1 0.104219
0.841062 1 0.0872969
0.921798 1 0.0813611
0.977356 1 0.0818189
0 0 0.0901961
0.0468605 0 0.0870375
0.120333 0 0.0829023
0.245228 0 0.0645762
0.404028 0 0.0375372
0.559167 0 0.012604
0.685328 0 0
0.770382 0 0
0.83331 0 0.00354009
0 0.055314 0.0942092
0.050721 0.052018 0.0909133
0.125673 0.0493324 0.0882277
0.253895 0.0343481 0.0732433
0.417899 0.0125124 0.0514076
0.580484 0 0.0339208
0.716548 0 0.0285649
0.814038 0.00047303 0.0393835
0.891859 0.0231785 0.062089
0 0.12491 0.0884871
0.0509651 0.127581 0.0911574
0.134249 0.133227 0.0968032
0.273289 0.129061 0.0926375
0.450675 0.120607 0.084184
0.628931 0.118776 0.0823529
0.781918 0.130343 0.0939193
0.895277 0.157031 0.120607
0.985489 0.192142 0.155718
0 0.248066 0.0525216
0.0292515 0.264973 0.0694438
0.128862 0.286961 0.0914168
0.284733 0.299611 0.104082
0.476997 0.30605 0.110506
0.665782 0.314763 0.119219
0.823392 0.330938 0.135393
0.936721 0.357595 0.162066
1 0.392355 0.196811
0 0.441047 0.0278325
0.0181582 0.47155 0.0583352
0.126207 0.501976 0.0887617
0.284504 0.517082 0.103853
0.476387 0.523125 0.109895
0.664973 0.531624 0.11841
0.823301 0.548531 0.135317
0.937636 0.576181 0.162966
1 0.608591 0.195377
0 0.656641 0.0318608
0.0217746 0.686748 0.0619669
0.129885 0.717235 0.0924392
0.289418 0.733547 0.108766
0.481224 0.739528 0.114733
0.666178 0.744396 0.1196
0.817288 0.75407 0.12929
0.921004 0.77113 0.146334
0.995743 0.790753 0.165972
0 0.851881 0.0915236
0.0800793 0.880613 0.120256
0.183246 0.906157 0.1458
0.334249 0.913954 0.153597
0.514504 0.90837 0.148013
0.686213 0.900008 0.139651
0.823896 0.896254 0.135897
0.915206 0.900893 0.140536
0.97879 0.909377 0.14902
0.059617 1 0.175174
0.151385 1 0.191562
0.241077 1 0.203632
0.378927 1 0.198276
0.547219 1 0.180743
0.708263 0.997894 0.1617
0.836744 0.984955 0.14876
0.92047 0.98201 0.145815
0.978027 0.984451 0.148257
0.110506 1 0.226062
0.190799 1 0.230976
0.270314 1 0.232868
0.399558 1 0.218906
0.560845 1 0.194354
0.716396 1 0.169818
0.840635 1 0.152636
0.921218 1 0.146548
0.976745 1 0.14696
0 0 0.230472
0.0405737 0 0.227253
0.113924 0 0.222965
0.238865 0 0.2047
0.397894 0 0.177905
0.553475 0 0.153399
0.680262 0 0.13875
0.76611 0 0.137942
0.830228 0 0.146929
0 0.049012 0.234394
0.0447395 0.0460212 0.231403
0.12018 0.0438392 0.229221
0.249088 0.0295415 0.214923
0.414023 0.00863661 0.194018
0.577874 0 0.177798
0.715419 0 0.173907
0.814588 0.00102235 0.186419
0.894301 0.0256352 0.211017
0 0.120409 0.230472
0.0475319 0.124147 0.234211
0.132143 0.131121 0.241184
0.27274 0.128511 0.238575
0.451881 0.121828 0.231891
0.632029 0.121874 0.231937
0.786404 0.134829 0.244892
0.900542 0.162295 0.272374
0.990936 0.197574 0.307637
0 0.248127 0.199069
0.0311589 0.266896 0.217838
0.13254 0.290639 0.241581
0.28957 0.304463 0.255406
0.482399 0.311452 0.262394
0.671138 0.320104 0.271061
0.828077 0.335622 0.286564
0.941833 0.362722 0.313664
1 0.397787 0.34873
0 0.446174 0.179431
0.0236057 0.477012 0.210285
0.13138 0.507149 0.240421
0.289235 0.521813 0.255085
0.481666 0.528389 0.261662
0.670436 0.537087 0.270359
0.828565 0.553796 0.287068
0.942351 0.580911 0.314183
1 0.612421 0.345693
0 0.661616 0.183322
0.0271611 0.692134 0.213825
0.135317 0.722652 0.244358
0.29453 0.738659 0.260365
0.485664 0.743969 0.26566
0.669581 0.747799 0.26949
0.819287 0.756085 0.277775
0.921553 0.771679 0.293385
0.99498 0.78999 0.311696
0 0.856794 0.242924
0.084184 0.884718 0.270848
0.186175 0.909087 0.295216
0.335714 0.915419 0.301549
0.514565 0.908431 0.29456
0.685008 0.898802 0.284932
0.821546 0.893904 0.280034
0.911833 0.89752 0.28365
0.974533 0.905119 0.291249
0.0605478 1 0.322591
0.150973 1 0.337636
0.239445 1 0.348486
0.376181 1 0.342016
0.543511 1 0.323522
0.703761 0.993393 0.30367
0.831647 0.979843 0.290135
0.914885 0.97641 0.286702
0.972061 0.978485 0.288777
0.107393 1 0.369436
0.186755 1 0.373434
0.265568 1 0.374609
0.394263 1 0.360098
0.555093 1 0.335088
0.710307 1 0.310231
0.834333 1 0.292821
0.914809 1 0.286625
0.970336 1 0.287053
0 0 0.473213
0.0263066 0 0.469734
0.0995804 0 0.465385
0.224643 0 0.447227
0.383978 0 0.420737
0.540047 0 0.396719
0.667491 0 0.382757
0.754284 0 0.382864
0.819654 0 0.393118
0 0.0348669 0.477012
0.0309606 0.0322576 0.474403
0.106966 0.0306249 0.47277
0.236622 0.0170748 0.45922
0.402625 0 0.439399
0.567803 0 0.424491
0.706889 0 0.422141
0.807828 0 0.436408
0.889433 0.0207675 0.462913
0 0.108278 0.475105
0.0366064 0.113207 0.480034
0.122621 0.121599 0.488426
0.264836 0.120607 0.487434
0.445808 0.115755 0.482582
0.627741 0.117601 0.484413
0.783291 0.131716 0.498543
0.898009 0.159762 0.526589
0.988357 0.194995 0.561822
0 0.240864 0.448569
0.025803 0.26154 0.469245
0.128756 0.286854 0.49456
0.286748 0.30164 0.509346
0.479912 0.30898 0.51667
0.668391 0.317372 0.525063
0.824872 0.332418 0.540124
0.939178 0.360052 0.567758
1 0.3953 0.603006
0 0.443534 0.433555
0.0211032 0.474495 0.46453
0.128405 0.504173 0.494194
0.286275 0.518837 0.508873
0.479103 0.525841 0.515862
0.667933 0.534585 0.524605
0.825772 0.550988 0.541024
0.938888 0.577432 0.567468
1 0.607919 0.597955
0 0.658839 0.437293
0.0246586 0.689647 0.468101
0.132753 0.720088 0.498543
0.291524 0.735668 0.514122
0.481865 0.740169 0.518624
0.664607 0.742824 0.521294
0.812848 0.749645 0.528099
0.913725 0.763851 0.542306
0.98587 0.78088 0.559335
0 0.853544 0.496422
0.0800031 0.880537 0.52343
0.180697 0.903624 0.546502
0.328756 0.908461 0.551339
0.506249 0.900114 0.543008
0.675471 0.889265 0.532143
0.810895 0.883253 0.526146
0.900221 0.885908 0.528801
0.962112 0.892699 0.535592
0.0530861 1 0.571878
0.142199 1 0.585626
0.22948 1 0.595285
0.365179 1 0.587762
0.531579 1 0.568338
0.691096 0.980728 0.547784
0.818433 0.966628 0.533684
0.901213 0.962753 0.529793
0.958053 0.964492 0.531533
0.0960403 1 0.614832
0.174517 1 0.61796
0.252705 1 0.618494
0.380865 1 0.603464
0.541299 1 0.578058
0.696223 1 0.552895
0.820066 1 0.535302
0.900465 1 0.529046
0.956024 1 0.529503
0 0 0.711894
0.0122988 0 0.708217
0.0855573 0 0.703853
0.210788 0 0.685878
0.370489 0 0.659754
0.527123 0 0.636286
0.655329 0 0.623072
0.743175 0 0.624247
0.809857 0 0.635813
0 0.0211337 0.71577
0.0176699 0.0189517 0.713588
0.0943008 0.0179599 0.712581
0.224781 0.00523384 0.69987
0.391974 0 0.681224
0.558556 0 0.66772
0.699245 0 0.666987
0.802014 0 0.683085
0.88542 0.0167544 0.711391
0 0.0968338 0.716152
0.0264286 0.103029 0.722347
0.113924 0.112902 0.732219
0.257832 0.113603 0.732921
0.440726 0.110658 0.729976
0.624231 0.114092 0.733394
0.780743 0.129183 0.748501
0.895827 0.157595 0.776898
0.985931 0.192584 0.811902
0 0.234531 0.694728
0.0213626 0.257099 0.717281
0.125658 0.283757 0.743954
0.284413 0.299306 0.759487
0.477729 0.306783 0.766979
0.665736 0.314702 0.774899
0.822187 0.329732 0.789929
0.936919 0.357794 0.81799
1 0.393118 0.853315
0 0.441321 0.683833
0.0188144 0.472206 0.714733
0.125429 0.501213 0.743725
0.283787 0.51635 0.758877
0.476921 0.523659 0.766171
0.665675 0.532326 0.774853
0.823087 0.548318 0.790829
0.935409 0.573968 0.81648
1 0.603296 0.845808
0 0.656519 0.687465
0.0224918 0.687465 0.71841
0.130373 0.717723 0.748669
0.288594 0.732723 0.763668
0.478019 0.736309 0.767269
0.65948 0.737697 0.768658
0.806241 0.743023 0.773983
0.905745 0.755871 0.786816
0.976654 0.771679 0.802625
0 0.850324 0.745693
0.0757305 0.876265 0.771649
0.175021 0.897932 0.793317
0.32163 0.901335 0.796704
0.49781 0.891676 0.78706
0.665843 0.879637 0.775021
0.800214 0.872572 0.767956
0.888609 0.874296 0.76968
0.949783 0.880369 0.775738
0.0454566 0.997223 0.816754
0.133303 1 0.829221
0.219455 1 0.837751
0.354147 1 0.829221
0.519661 0.98938 0.808911
0.678553 0.968185 0.787717
0.805356 0.953567 0.773098
0.887739 0.949279 0.768811
0.944274 0.950713 0.770245
0.0846571 1 0.855955
0.162356 1 0.858274
0.239948 1 0.858228
0.367636 1 0.842725
0.527703 1 0.816953
0.682353 1 0.791531
0.806058 1 0.773785
0.886427 1 0.767498
0.942061 1 0.768032
0 0 0.847318
0.00624094 0 0.843503
0.0795605 0 0.839185
0.205051 0 0.821469
0.365179 0 0.795758
0.522423 0 0.772931
0.651438 0 0.760525
0.740475 0 0.762875
0.80856 0 0.775845
0 0.0155337 0.851484
0.0125582 0.0138399 0.849805
0.0898756 0.0135348 0.8495
0.221302 0.00175479 0.83772
0.389761 0 0.82034
0.557809 0 0.808316
0.700191 0 0.809277
0.804868 0 0.827268
0.88986 0.0211948 0.85716
0 0.0937972 0.854444
0.0247196 0.101335 0.861982
0.113771 0.112764 0.873396
0.259449 0.115236 0.875868
0.444221 0.114168 0.8748
0.629099 0.118959 0.879606
0.786404 0.134829 0.895476
0.90164 0.163394 0.924041
0.991287 0.19794 0.958572
0 0.236851 0.838376
0.0254368 0.261158 0.862684
0.130892 0.288991 0.890517
0.290181 0.305074 0.9066
0.483436 0.31249 0.914015
0.670771 0.319753 0.921279
0.82768 0.335241 0.936767
0.942733 0.363607 0.965133
1 0.398856 1
0 0.447135 0.830991
0.0243381 0.477745 0.861585
0.130556 0.506325 0.890181
0.289448 0.522011 0.905852
0.48275 0.529473 0.913329
0.671305 0.537957 0.921813
0.828168 0.553399 0.93724
0.93959 0.578134 0.96199
1 0.606195 0.990051
0 0.662272 0.834546
0.0282902 0.693263 0.865538
0.135851 0.723201 0.895476
0.293385 0.73753 0.909804
0.481758 0.740063 0.912352
0.66183 0.740047 0.912337
0.807126 0.743923 0.916213
0.905333 0.755459 0.927733
0.975052 0.770077 0.942351
0 0.85478 0.891478
0.0790112 0.879545 0.916259
0.176822 0.899733 0.936446
0.322026 0.901732 0.938445
0.496941 0.890822 0.92752
0.663844 0.877638 0.914351
0.797192 0.869566 0.906264
0.884703 0.87039 0.907103
0.945235 0.875822 0.912535
0.0453956 0.997147 0.958007
0.132021 1 0.969268
0.217075 1 0.976699
0.35079 1 0.967193
0.515511 0.985229 0.94609
0.673808 0.963439 0.9243
0.800122 0.948333 0.909194
0.882139 0.943664 0.90454
0.938415 0.944839 0.905715
0.0809796 1 0.993606
0.157977 1 0.995224
0.235004 1 0.994629
0.362249 1 0.978668
0.521981 1 0.95256
0.676432 1 0.926925
0.800015 1 0.909087
0.880385 1 0.902785
0.936141 1 0.903441
0 0 0.926131
0.00457771 0 0.922255
0.0780194 0 0.918059
0.2038 0 0.900649
0.364431 0 0.875441
0.522362 0 0.853284
0.652323 0 0.841825
0.742611 0 0.845426
0.812161 0 0.859876
0 0.0144503 0.930831
0.0120394 0.0133211 0.929717
0.0901045 0.0137636 0.930144
0.222614 0.00306706 0.919448
0.392401 0 0.90341
0.562005 0 0.892927
0.706142 0 0.895644
0.812711 0 0.915541
0.899107 0.0304265 0.946822
0 0.0955673 0.936629
0.0279088 0.104524 0.945586
0.118578 0.117556 0.958618
0.266102 0.121874 0.962936
0.452644 0.122591 0.963653
0.638697 0.128557 0.969619
0.796551 0.144976 0.986038
0.911727 0.173495 1
1 0.207385 1
0 0.244205 0.926162
0.0343481 0.270085 0.952026
0.140764 0.298863 0.980804
0.300374 0.315267 0.997223
0.49337 0.322423 1
0.680262 0.329244 1
0.83772 0.345266 1
0.952926 0.3738 1
1 0.408881 1
0 0.457313 0.921584
0.0340276 0.487434 0.95169
0.140276 0.51606 0.980331
0.299565 0.532143 0.996414
0.492927 0.539651 1
0.681178 0.547829 1
0.837369 0.562585 1
0.947753 0.586297 1
1 0.612955 1
0 0.672465 0.925155
0.038407 0.70338 0.956069
0.14551 0.73286 0.985565
0.302251 0.74638 0.999084
0.489448 0.747753 1
0.66804 0.746273 0.998962
0.811948 0.748745 1
0.908888 0.758999 1
0.977462 0.772473 1
0 0.863249 0.980377
0.086183 0.886732 1
0.182513 0.90544 1
0.326375 0.906081 1
0.500069 0.893935 1
0.665858 0.879652 0.99678
0.798245 0.870604 0.987732
0.884947 0.870634 0.987778
0.944884 0.875471 0.992599
0.0492714 1 1
0.134722 1 1
0.218723 1 1
0.351507 1 1
0.515526 0.985245 1
0.673259 0.96289 1
0.79913 0.947341 0.988632
0.880812 0.942351 0.983627
0.936873 0.943297 0.984588
0.0814221 1 1
0.157778 1 1
0.234287 1 1
0.361135 1 1
0.520562 1 1
0.67483 1 1
0.798352 1 0.987839
0.878767 1 0.981582
0.934676 1 0.982391
0 0 1
0.00299077 0 1
0.0766155 0 0.996201
0.202777 0 0.979156
0.363958 0 0.954498
0.522637 0 0.933104
0.653666 0 0.922698
0.745281 0 0.927642
0.816373 0 0.943618
0 0.0135958 1
0.0118257 0.0131075 1
0.0907149 0.014374 1
0.224414 0.00486763 1
0.395605 0 0.986145
0.566827 0 0.977279
0.71281 0 0.981842
0.821164 0.00759899 1
0.908736 0.0400549 1
0 0.0978561 1
0.0316777 0.108293 1
0.124056 0.123033 1
0.273487 0.129259 1
0.461585 0.131533 1
0.6486 0.13846 1
0.806806 0.155245 1
0.921752 0.183505 1
1 0.216907 1
0 0.252232 1
0.0437171 0.279454 1
0.150866 0.308965 1
0.310628 0.325521 1
0.503136 0.332189 1
0.690028 0.33901 1
0.847898 0.355444 1
0.96318 0.384054 1
1 0.41883 1
0 0.46746 1
0.0434882 0.496895 1
0.15024 0.526009 1
0.309819 0.542397 1
0.503105 0.549844 1
0.690929 0.55758 1
0.846311 0.571527 1
0.955535 0.594079 1
1 0.619272 1
0 0.682734 1
0.0484627 0.713436 1
0.155001 0.742351 1
0.310811 0.754955 1
0.496742 0.755047 1
0.673838 0.752071 1
0.816388 0.753185 1
0.912093 0.762219 1
0.979568 0.774578 1
0 0.871397 1
0.0929122 0.893462 1
0.187808 0.910719 1
0.330343 0.910063 1
0.502846 0.896727 1
0.667597 0.881392 1
0.799054 0.871412 1
0.885039 0.870726 1
0.944411 0.874998 1
0.0527962 1 1
0.137118 1 1
0.220111 1 1
0.352026 1 1
0.515404 0.985122 1
0.672618 0.962249 1
0.798093 0.946288 1
0.879469 0.941009 1
0.935347 0.941772 1
0.0816815 1 1
0.157458 1 1
0.233478 1 1
0.35996 1 1
0.519142 1 1
0.673259 1 1
0.79675 1 1
0.877241 0.999649 1
0.933349 1 1
